/* XPM */
static char *e183e69b56a046ecdf1a67019fe90404mUoHPBRkSUQogPuV[] = {
/* columns rows colors chars-per-pixel */
"32 32 3 1 ",
"  c #4D2D18",
". c #8A6240",
"X c #CABA9C",
/* pixels */
"................................",
".XXXX XXXXXXXXXXXXXXXXXXXXXXXXX.",
".XXXXXXXXXXXXXXX.XXXXXXXXXX XXX.",
".XXXXXXXXXX XXXXXXXXXXX XXXXXXX.",
".XXXXX.XXXXXXXXXXXXXXXXXXXXXX.X.",
".XXXXXXXXXXXXXXXXX XXXXXX XXXXX.",
".XX XXXXXXXX XXXXXXXXXXXXXXXXXX.",
".XXXXXX.XXXXXXXXXXXXXXXXXXXXXX .",
".XXXXXXXXXXXXXXXXXXXXXXXXXXXXXX.",
".XXXXXXXXXXXXXXX XXX.XXXXXX.XXX.",
".XXXXXXXXXXXXXXXXXXXXXXXXXXXXXX.",
".XXXX.XXXXX XXXXXX XXXXXXXXXX.X.",
".XXXXXXXXXXXXXXXXXXXX.XXXXXXXXX.",
".XXXXXX XXXXXXXXXXXXXXXXX XXXXX.",
".XXXX.XXXXXXXXXXXXXXXXXXXXXXXXX.",
". XXXXXXXXX.XXXXXXXXXXXXXXX XXX.",
".XXXXXXXXXXXXXXX.XXXXXXXXXXXXXX.",
".XXXXXXXXXXXXXXXXXXXXX XXXXXXXX.",
".XXX XXXX XXXX XXXXXXXXXX.XXXX .",
".XXXXXXXXXXXXXXXXXXXXXXXXXX XXX.",
".XXXXXXXXXXXXXXXXXXX XXXXXXXXXX.",
".XXXXXXXXXXXXXXXXXXXXXXXXXXXXXX.",
".XX XX.XXXXXXXXXXXXXXXXXXXXXXXX.",
".XXXXXXXXX XXXXX.XXXXXXXXXX XXX.",
".X.XXXXXXXXXXXXXXXXXXX.XXXXXXXX.",
".XXXXXXXXXXXXXXXXXXXXXXXXXXXXXX.",
".XXXXXXXXXXXXXX XXXXXXXXXX.XXXX.",
".XXXXX XXXXXXXXXXXXXXXXXXXXXXXX.",
".XX XXXXXXX.XXXXX.XXXXXXXXXXX X.",
".XXXXXXXXXXXXXXXXXXXXX XXXXXXXX.",
".XXXXXX XXXXXXXXXXXXXXXXXXXX XX.",
"................................"
};
