/* XPM */
static char *c7549579990e435dcea8ca6b6f6a0bc9v2NqvKv92mltvGRJ[] = {
/* columns rows colors chars-per-pixel */
"32 32 8 1 ",
"  c None",
". c black",
"X c gray12",
"o c gray38",
"O c #D65F47",
"+ c #5D63D1",
"@ c #FFCDA6",
"# c gray84",
/* pixels */
"                                ",
"                                ",
"          ............          ",
"          .OOOOOOOOOOO.         ",
"         .OOOOOOOOOOOOO.        ",
"         .OOOOOOOOOOOOOO.       ",
"         ..OOOOOOOOOOOOO.       ",
"           .....OOOOOOOO.       ",
"           .@@@...OOOOOO.       ",
"           .@.@@@..OOOOO.       ",
"           .@.@@@@@.OOO.        ",
"          .@@@@@@@.OOOO.        ",
"          ..@@@@@@.OOO.         ",
"           .@@@@@@.O..          ",
"            ...@....            ",
"               .##.             ",
"              .#...             ",
"             .##.o.             ",
"             .##.o.             ",
"           ..###.o.             ",
"          .@@...oo.             ",
"          .@@.ooo..             ",
"           ......#.             ",
"            .#####.             ",
"            .#####.             ",
"             ......             ",
"              X++X              ",
"               X+X              ",
"            XXXXXX              ",
"           XXXXXXX              ",
"                                ",
"                                "
};
