/* XPM */
static char *_4b566f5ca4c4e72d2ebe4f2842b33faDtGKtp36GlR1Fmd6[] = {
/* columns rows colors chars-per-pixel */
"32 32 8 1 ",
"  c None",
". c black",
"X c gray12",
"o c gray38",
"O c #D65F47",
"+ c #5D63D1",
"@ c #FFCDA6",
"# c gray84",
/* pixels */
"                                ",
"          ............          ",
"          .OOOOOOOOOOO.         ",
"         .OOOOOOOOOOOOO.        ",
"         .OOOOOOOOOOOOOO.       ",
"         ..OOOOOOOOOOOOO.       ",
"           .....OOOOOOOO.       ",
"           .@@@...OOOOOO.       ",
"           .@.@@@..OOOOO.       ",
"           .@.@@@@@.OOO.        ",
"          .@@@@@@@.OOOO.        ",
"          ..@@@@@@.OOO.         ",
"           .@@@@@@.O..          ",
"            ...@....            ",
"               .##.             ",
"              .#...             ",
"             .#.o..             ",
"             .#.o..             ",
"          ...#.oo..             ",
"         .@@..oo.#.             ",
"         .@@.oo.##.             ",
"          .....###.             ",
"            .#####.             ",
"            .#####.             ",
"             ......             ",
"          ..  X+++X             ",
"          .....X++XX            ",
"           ....+X+XXX           ",
"             .XXXXXX            ",
"             XXXXXX             ",
"                                ",
"                                "
};
