/* XPM */
static char *_b01065f725548f49b6860a4ceb1cd183fYnCQQGKLqeRgsG[] = {
/* columns rows colors chars-per-pixel */
"32 32 7 1 ",
"  c #EEA600",
". c #F0B500",
"X c #F1BE00",
"o c #F1C000",
"O c #FFD55B",
"+ c #E3E6E3",
"@ c white",
/* pixels */
"@@@@@@@@@@@@@@@@@@@@@@@@@@@@@@@@",
"@@@@@@@@@@@@@@@oo@@@@@@@@@@@@@@@",
"@@@@@@@@@@@@@@@XX@@@@@@@@@@@@@@@",
"@@@@@@@@@@@@@@XXXX@@@@@@@@@@@@@@",
"@@@@@@@@@@@@@@XXXX@@@@@@@@@@@@@@",
"@@@@@@@@@@@@@XXXXXX@@@@@@@@@@@@@",
"@@@@@@@@@@@@@XOXXXX@@@@@@@@@@@@@",
"@@@@@@@@@@@@XOOXXXXX@@@@@@@@@@@@",
"@@@@@@@@@@@@XOOXXXXX@@@@@@@@@@@@",
"@@@@@@@@XXXXOOXXXXXXXXX @@@@@@@@",
"@@@XXXXXXOOOOOXXXXXXXXX      @@@",
"@@@XXXXOXOOOXXXXXXXXXXX      @@@",
"@@@XXXXXXXXXXXXXXXXXXXX      @@@",
"@@@@XXXXXXXXXXXXXXXXXXX     @@@@",
"@@@@@XXXXXXXXXXXXXXXXX     @@@@@",
"@@@@@@XXXXXXXXXXXXXXXX    @@@@@@",
"@@@@@@@XXXXXXXXXXXXXXX   @@@@@@@",
"@@@@@@@@XXXXXXXXXXXXX   @@@@@@@@",
"@@@@@@@@XXXXXXXXXXXX.   @@@@@@@@",
"@@@@@@@@XXXXXXXXXXX     @@@@@@@@",
"@@@@@@@@  XXXXXXX       @@@@@@@@",
"@@@@@@@@                @@@@@@@@",
"@@@@@@@@                @@@@@@@@",
"@@@@@@@@       @@       @@@@@@@@",
"@@@@@@@       @@@@       @@@@@@@",
"@@@@@@@     @@@@@@@@     @@@@@@@",
"@@@@@@@@  @@@@@@@@@@@@  @@@@@@@@",
"@@@@@@@@@@@@@@@@@@@@@@@@@@@@@@@@",
"@@@@@@@@@@@@@@@@@@@@@@@@@@@@@@@@",
"@@@@@@@@@@@++++++++++@@@@@@@@@@@",
"@@@@@@@@@@@@@++++++@@@@@@@@@@@@@",
"@@@@@@@@@@@@@@@@@@@@@@@@@@@@@@@@"
};
