/* XPM */
static char *cc99f23e70064b60ce2bd74d693c041fkWKgg3XCljo1cJJW[] = {
/* columns rows colors chars-per-pixel */
"32 32 1 1 ",
"  c #D31C1C",
/* pixels */
"                                ",
"                                ",
"                                ",
"                                ",
"                                ",
"                                ",
"                                ",
"                                ",
"                                ",
"                                ",
"                                ",
"                                ",
"                                ",
"                                ",
"                                ",
"                                ",
"                                ",
"                                ",
"                                ",
"                                ",
"                                ",
"                                ",
"                                ",
"                                ",
"                                ",
"                                ",
"                                ",
"                                ",
"                                ",
"                                ",
"                                ",
"                                "
};
