/* XPM */
static char *fdd6d11440ab4f65cd147f587c8ecd1fAuVcF2af9klurubl[] = {
/* columns rows colors chars-per-pixel */
"32 32 2 1 ",
"  c #161414",
". c #E00A0A",
/* pixels */
"................................",
"................................",
"................................",
"................................",
"................................",
"................................",
"................................",
"................................",
"................................",
".............      .............",
"............. ..................",
"............. ..................",
"............. ..................",
"............. ..................",
"............. ..................",
".............      .............",
"............. ..................",
"............. ..................",
"............. ..................",
"............. ..................",
"............. ..................",
".............      .............",
"................................",
"................................",
"................................",
"................................",
"................................",
"................................",
"................................",
"................................",
"................................",
"................................"
};
