/* XPM */
static char *_94fc0d871444558e5fddfcf372c35494WY7whBHEXLObDCW[] = {
/* columns rows colors chars-per-pixel */
"64 64 210 2 ",
"   c #2B361D",
".  c #2B3C1E",
"X  c #2F3522",
"o  c #2D3C23",
"O  c #2E3D28",
"+  c #303620",
"@  c #333C25",
"#  c #3A3E26",
"$  c #333E29",
"%  c #393D2A",
"&  c #3A3F32",
"*  c #423F34",
"=  c #2E4224",
"-  c #2E452C",
";  c #2F4B29",
":  c #344325",
">  c #394527",
",  c #364925",
"<  c #3B4C26",
"1  c #35442A",
"2  c #3B442C",
"3  c #354B2C",
"4  c #3C4C2C",
"5  c #3E5327",
"6  c #36532A",
"7  c #3D532C",
"8  c #3B5B2C",
"9  c #3E4433",
"0  c #374930",
"q  c #3D4C32",
"w  c #3E5334",
"e  c #3E5C33",
"r  c #3F6034",
"t  c #454C27",
"y  c #404B2C",
"u  c #455526",
"i  c #455A26",
"p  c #43532D",
"a  c #49542F",
"s  c #435B2D",
"d  c #4B5A2D",
"f  c #424534",
"g  c #484437",
"h  c #434C34",
"j  c #484E36",
"k  c #424439",
"l  c #4A473C",
"z  c #454C3A",
"x  c #4B4C3C",
"c  c #445333",
"v  c #4A5434",
"b  c #455B33",
"n  c #4B5B34",
"m  c #45533B",
"M  c #4B533C",
"N  c #475C3B",
"B  c #4C5C3B",
"V  c #535D33",
"C  c #51553D",
"Z  c #525D3C",
"A  c #595F3D",
"S  c #47622E",
"D  c #4B642E",
"F  c #4D6B2F",
"G  c #54642E",
"H  c #436334",
"J  c #4B6335",
"K  c #446A33",
"L  c #4C6B33",
"P  c #47633B",
"I  c #4C633B",
"U  c #476939",
"Y  c #4D693B",
"T  c #536335",
"R  c #586032",
"E  c #516E31",
"W  c #53633C",
"Q  c #5C633C",
"!  c #546A3C",
"~  c #5A6A3D",
"^  c #477034",
"/  c #4E723B",
"(  c #537233",
")  c #53733C",
"_  c #5C733E",
"`  c #626C3B",
"'  c #66763E",
"]  c #4C4D42",
"[  c #524E43",
"{  c #584E47",
"}  c #465441",
"|  c #4D5342",
" . c #4E5A42",
".. c #4C594C",
"X. c #535443",
"o. c #5A5447",
"O. c #545C43",
"+. c #5A5D44",
"@. c #555649",
"#. c #59564B",
"$. c #555B4A",
"%. c #5B5C4B",
"&. c #535F50",
"*. c #5C5F51",
"=. c #61564C",
"-. c #635D4E",
";. c #625D52",
":. c #4B6341",
">. c #4F6D4B",
",. c #546343",
"<. c #5A6444",
"1. c #556A44",
"2. c #5B6B44",
"3. c #55634A",
"4. c #5C634C",
"5. c #576C4A",
"6. c #5C6B4B",
"7. c #5B7344",
"8. c #5C7A44",
"9. c #57704A",
"0. c #5D734B",
"q. c #576450",
"w. c #5D6453",
"e. c #5D6B53",
"r. c #5E6B5B",
"t. c #5E7053",
"y. c #626745",
"u. c #626D45",
"i. c #62644D",
"p. c #69624F",
"a. c #626C4D",
"s. c #696E4D",
"d. c #657345",
"f. c #607944",
"g. c #697845",
"h. c #63734C",
"j. c #6B744C",
"k. c #647A4C",
"l. c #737D4C",
"z. c #636553",
"x. c #696555",
"c. c #646B54",
"v. c #6A6A56",
"b. c #636758",
"n. c #6A6759",
"m. c #646C5A",
"M. c #6C6C5B",
"N. c #706F57",
"B. c #70655E",
"V. c #716E5E",
"C. c #647353",
"Z. c #6A7355",
"A. c #657953",
"S. c #6B7B53",
"D. c #66715C",
"F. c #6C725C",
"G. c #647A5B",
"H. c #6C7A5C",
"J. c #717456",
"K. c #727C53",
"L. c #72735D",
"P. c #79765C",
"I. c #737B5D",
"U. c #7A7A5E",
"Y. c #666F60",
"T. c #696D60",
"R. c #716E61",
"E. c #786C64",
"W. c #657162",
"Q. c #6C7463",
"!. c #6E7964",
"~. c #6D7768",
"^. c #6F796A",
"/. c #747563",
"(. c #797663",
"). c #767965",
"_. c #757A64",
"`. c #797B65",
"'. c #797A66",
"]. c #757669",
"[. c #79756A",
"{. c #757B6A",
"}. c #7A7A69",
"|. c #7A7D6A",
" X c #7A7D6B",
".X c #7A7E6D",
"XX c #7E7F6E",
"oX c #777F74",
"OX c #7B7E72",
"+X c #807960",
"@X c #807E69",
"#X c #6D8256",
"$X c #748052",
"%X c #768556",
"&X c #73825B",
"*X c #768067",
"=X c #7B8067",
"-X c #7F8865",
";X c #76816C",
":X c #7A806E",
">X c #7C806D",
",X c #7D806E",
"<X c #7C8173",
"1X c #7E8172",
"2X c #848164",
"3X c #81816B",
"4X c #818272",
"5X c #828373",
"6X c #818578",
"7X c #888A7C",
/* pixels */
"M.%.z..X:X:X X>X4XH.0.J m /./._._./._.].].].B %.,.,.,.I 2.t.I 5.Y $.Q..X<X4X<X<X4X}._.XX] }.(. X.X X X X X6. .X 4 v $.z.z.z.z.n.",
"M.@.@.{.:X_.XX:X4X0.0.,.j z.V.L._._.{._.].4.c 4 Z B 3.b 6.W Y J H $.M.(. X4X}.>XXX}.I.2.l _.`.}. X X}.`.}. X3.x 2 v %.x.n.v.x.v.",
"M.#.w._._.{..X:XF.H.b a.1 /.v.v.M._._./.R.C O.> n O.n b 3.b J I I | M._.<X4XXX}.XXC.S.! l _._.`.(.(.(.}.`._.M @ c M n %.+.z.z.x.",
"x.[ w./.F./.Z.%.1 c.3.W 2 F.V.M.M./.R./.n.x.v : c d B O.Z W B s H 2 m.<XXX/._./.Z.d.7.J ] _./.L./.L./.L.L.F.B 2 4 p v O.v i.x.;.",
") W %.*.v.X.%.m 4.z.g h.l #.*.$.c <.7.+.#.q h j w n v B ,.B b b 6.1 ,.,.2.,.3.B B J n c j }./.V./.M.R.L.L.I.c f.M B M c h c x.6.",
"I x k x k #XS.f X.l W ,.9 l g f O.I Z ] $.X.o.l [ [ * j M X.@.M M w.x.z.%.M f f 9 o : M : : h c +.X.@.| h 2 ! > 2 9 @ x j X.x x ",
"m._.M./.w.k X.h M +.(.-./.M.O.1 c.2.`.M._.[.[.n.E.E.#.-.[.V.V.T./.L.v.M.M.%.c./. X_.,.W W I ! n o 4 c h O.+.< p 4.h.2 4././.c.F.",
"I.`.{.`.F.4.a.v.V.M.v.v.v.v.v.9 m.4X_.}.}.[./.].[.E.;.-.M.M.M.L././.I.I.F.M z.`.`.`.F.`.J.2.J J h /.M.V.L./.Z.W v M g ,.`.,.2.C.",
"`. X{._.`.$.z.n.v.V.V.V.M._.(.q b._.`.`..X[.[.OX[.[.;.;.B.n.M./._._._.Q./.c O._. XF._.`.`.L.W J 2 R.n.M./.V.1.2.c c % ,.<.C.C.`.",
".X{.{.`.`.O.L.L.4.a.L.(././.Z.M z._..X{.<X[.[.OXOXOX;.;.R./._./._.Q.Q._.{.4 c F.{.S.`. X X X2.J 2 /././._.W a.c.2.Z 9 4.,.C._.{.",
">XM.XX X/.@.M.M.B W ! c./._.s.M $.{./..X}.[.OXOX[.OX;.-.R./././.K._. X_.5.4 w.{.{.Y  X{.:X>XZ.b M _.R._.L./._.+.L.L.] ,.a._.<XI.",
" X X X}.`.@.v.B S S c 2._.Z.y.v $._.`._. X X.X[.[.OX;.4.n.M.L.S././._._.b > e.{._.0.{. X`.`./.B | R./.V./.L.M.L./._.X.b /.Z. X>X",
"{._.}./.}.| v.<.p E J I c.2.<.p O._._._.`.}.}.[.(.[.;.a.S.z.a.a.6.F._.Z.C.| z.!.A.9._. X_._._.,.z.z.M.V./.(._././.}.x n _.D.6.F.",
"F.F. X_._.j z.v.p u D d J W d >  .m.F._._.`._./._._.;.;.x.4.v./.c.j.D.,.b j b.F.#XA.m.`.L.I.I.4.C._.n.M.M.v.M.V.v.4.1 I 0.6.Z.C.",
"2.,.F.I.I.c M I B p n n W n n < w.D.D.F.L./.L.V.V./.;.;.x.p.v.v.i.S.j.J 7 2.6.A.6.8.%XZ.I.F.I./.g %.n.z.v.x.n.n.z.c . 7 _ s.1.s.",
"c p <  .w.h  .m |  . .,.h C O.@.@.$.w.%.c Y z.%.#.@.@.%.o.x [ h > Q c g.T M 1.f.8.5.3.k.3.F.c.c.v.b 5.x.M.z.n.v.u., J J 7 5 J , ",
"B 4 , c , < c m  .$.4 4 | | | | | | | | L b b 7 n b Z Z y.Z Z v g.l.u.L.M.c.6.| ,.,.k.,.O.z.%.@.%.! 1.X.| k k z C B 7 2.T @ : @ ",
"2 < 4 4 7 m B e.m.c.c q 3.w.w.w.w.w.w.z.n $ s J 2.2.F.L.(.2XJ.f <././. X`. X XQ._._.O.,.#X`.`./.{._. X`.x.] }././.x.o.%.n.M.b o ",
"h c 6 B O.$.%.z.m.m.M q 3.w.w.%.e.z.b.c.M : n Z 2X>X X>X`.`.+Xh 4.L.`.`._. X{.{..X_.@.N Z. X`..X.X.X.X`.z.| XXR.V.V.z.v.v.n.W 1 ",
"M c B 7 O.w.c.M.m.b.M | w.$.w.b.c.m.w.+.M 2 c I.4X<X>X3X X X X%.<.3XU.U. X.X_.{..X.XX.8.C._.{.XX>XOX<XXX4.M V.V.V.V.V.M.M.v./.#.",
"$.c B B 4.v.c.M.M.F.O.| w.w.w.z.v.m.D.F.p 1 @X4X`.<X3X@X3X X X-.n  X X`.>X:X:X.X{.<X$.@.H.k..X>X{.{.<X<XM.c /.L.L.V.L.L././._.%.",
"@.O.c O.4.M.v.F.F.M.%.$.z.w.m.m.c.m.F.F.O.: O./. X>X X X X(.`.c.v 3X>X>X/.>X:X<XOX<X%.x. X9.&X>X.X<XOX<X4.4 -.L./././.M.(./.`.| ",
"m 3.+.7 4.4.D.c.Z M.%.O.z.z.z.m.M.F.F.D.,.1 ! _. X}. XXX`.`.(.j <.3X3X>X3X>XXX XXX>X$.X.(.&X0..X.X XXXOXM > i.(././._././._.(.h ",
"O.i.,.p ,.I 2.W <.M.w.O.z.c.4.c.v.v.v.4.O.$ 6.L.`.`.`.}.`.`.I.y d.U.>X X3X>X X3X XXX$._.L._.S.J.(.(.(./.4 h Z L././.L.`.`._._.q ",
"O.O.,.4.4.i.W ,.v.c.c | @.c.c.c.v.c.v.b B 1 c.M.L.`._.`./.V.c + ~ u.v.3X(. X3X3XL. X@.x.v.V.&XK.(.`.Z.n < < O.x.x.L./.L./.L.4.j ",
"m a.<.v.v.,.c.<.4.<.c | C.h.6.6.! W 5.B ,.1 c <.L.L.L.L.L.3.h + c ~ a.Z.y.s.P.2.Z.s.X.+.Z.v.j.g.A a.v p , > n z.x.M.V.L.v.n.v.| ",
"X.~ d.g h h w 1 4 j m o k.q 1 b : T   . @ # $ @ 2 2 ] ] g @ @ # u.X.j M | x x W j n k ] | @.<.h u.j c < c N 2 c M | X.X.@.] z ] ",
"Z.<.3.F.z.9 B D.F.L._./._./.Z.2.n : < < p c 4 < c : ,.B n c 3.M.}.F. XF./.g C v W Z X.-.C x | M l.F.F.D.{.e.I ) H ! 4 c.6.O.B F.",
"_.I./._.H.2 c._._. X.X{. X X_.w.p : y 2 c c M p c 4 $ 1.d. X.X{.`.`.`.`.i.# R t C +.v i.x.v.v.%.| 6.H.A.k.!.7.7.7.Y w ,.Z.F. X X",
"/. X_. X{.j 6.`.`.`. X.X.X.X(.M > 1 h %.h M %.n.%.O.o a.`..XM.XX`. XM./.i.f G u v v +.+.Z c.v.| | I.*XA.C.;X7.8.7.h.N 3./.<X{.*X",
"{..X<X.X.XM }..X X.X.XOXOX<X_.M 9 h M $.O.%.v.z.v.,.$ m. X{..X X.X.X.Xy.n Z T t d v d y.Z a.<.M N 5.C.7X9.;X0.8.! C.w m. XQ.{. X",
"}.OX.XOX}.X._.[..X>X.X.XOX<X1.! _ o.| X.%.x.x.M.R.+.9 M..X}.OX XXX<X X2.! b T u u G n J /.c.I m N 5.A.0.t.;XA._.6.D.b S. X{.>X_.",
".X.X/..Xv.X.F.(.`. X}.XX.X/.2.c n j.;.;.-.x.v.M.n.c 3.w.}.}.>X X`.`.L.Z._ L v W ~ p W J W W J 4  .1.9.5.<X_.7.C.F.!.q D._.}._. X",
".X.X/.{.c.M v. X X X X/.].Z 1.< d.#.o.-.;.n.v.M.c ,.B I `. X`./. X3Xv.<.v # V <.T b 2.J b J J 4 w 6.5.G.H.C.9._.2.C.| v. X{.XX.X",
"_. X.XXXc.M ,.F.{. X(./.(.O.W M 2.{ =.;.z.-.C O.! p J W _._./._.(.L.z.c 7 @ y n 7 n W 1.I Y I < 6 I 5.0.<X1.A.C.d.6. .v./._._.Q.",
"_..X XF. Xj ,.2.W c.L.v.M.4.c q o.[ =.-.-.@.i.v < s L ( W L./.V.L.z.L.i.v @ d h O.B ,.I 8 8 b c 4 Y 9.I 5.1.h.! 6.n c v.L. X X.X",
"v.I._._.F.l ,.Z b n W b 7 h M M # > 2 f g 9 @ o $ S b E I 4.v.L.i.-./.X.<.% v M ,.m ,.b 8 K 6 1 4 e t.t.Y ! 6.a.2.1.m M.>XL.`. X",
"#.3.z.z.v.z.z.b.v.%.%.,.B +.c c 4 c c 7 7 q ' 9 l E < s D M M f d.l ] x x g X.y.h q . 9 / L 9 z : 2 0 1 $ q / $.%.$.x.x.v.z.z.$.",
"v.}./._./..XF._._. Xz.c ,.a.3.! I b n J S M c W J 7 J s 8.6.I.1.,.,.,.O.z.$./.M.4.I m k w.}  .m.q. .B B ,.< b _./. X.X{.`. X`._.",
"%.R.{..X{..X XL._.}.w.b C._._.3.6.W ,.J J @.a.<.d.J W W c._.U.2.1 7 ,.c./.z.v._./.n q 9 w.$.w.m.W.D.m.m.6.2 D._.}. X.XXX(._.`.M.",
"$.<XXX<X.X:XXX{. X}.c.c /._.{.`.&X$X2.2.2.X.4.y.I.a.L._. X4X`. X9 C M.n.L./.v.Q._._.q 9 3.3.m.W.m.m.D.m.F.4 v.].<X<X<X`.}. X(./.",
"$..X<XOX<X.X>X[..X{.w.O..X.X-X$Xa.D. XC.a.j a.F.L. X_.{.{.I.}.M.j c.c./._./.6.6._.F.4 9 w.w.w.W.w.z.T.b.F.m L..X.X<X<X XOX X.XM.",
"%.OX<X<X<X.X.X.X}. X3.O.}.K.j._.`.*XZ.a.<.M `.{.<X{._.:X>X>X.X Xz z.V.`.R.L.F.6.n c.q k z.r.W.b.m.W.z./.b < M.OXXX<X.X X>X X Xv.",
"$.{.}.:X.X.X.X>X.X_.z.+.&XK.S.6.2.2.~ 2.2.X././._.{..X:X*X X=X,.W B v.V./././.c.2.m.c 9 q.q.D.Q.w.4.Q.L.<.c M..X X}. X.X}.`.(.M.",
"%..X}.XXL. X X X{. Xq.Z.W a.`.(.a.s.T V T @.F.L._.{.{.{.{._./. Xl D.Z v.L.L.F.n L I m k b.w.D.m.m.m.v.D.<.v v. X X`.`. X`.`./.L.",
"X.(.L./.U.`.(.`. X`.w.B Z./.`.v.Z.Q ` ` n y  X_._.:XD.~.;X.X/.M.x B c v 4.v.4.b s c 4 k z.w.m.D.M.F.L.Z v v v./._._.`.`.`.L./.x.",
"z /.L.L.L./.L.x./.v.k.M /.O.+.y.v T ` V Q t _.F.D.L.I.Q.Q.F.F.m.l h p 7 7 7 Z B Z c h k v.q.m.D.c.D.4.<.A j v.I.L.J./.L._.L.N.v.",
"f M.F.L.M.v.x.<.j +.8.J n n v ,.n _ v Z O.M w.4.m.c.I B n D.c.m.S.1 q q h > 2 1 z ] ] k w.M.D.<.n 6.B Z Z m 4.D.F.v.M.M.m.w.L.M.",
"4.z.w.%.] g x W l x b Y ) 3.O.@.c ! O.j +.4. . .c b b b B e.c.m.D._.F././.l /.F.m.b.b.*.b.M.z.4.2 1 j h 2 4 X.&X6.7.#.F.z.w.z.z.",
"`._.F././.] x @.@.M 0.c.Y [ n.x.> u.j.u.a./. Xa.W ! c b J 1.{..X X`./.`._.m .X X X.X{. X!. X{.w p d d a W b Z a.Z.n.@.C.Q./._.`.",
"`._.{. XL.o.M.%.z.6.L.v.v.h.M.M.2 %XJ.a.{. X_..X6.W 6 I 1.H.:X.X X X_.(./.: 0._..X{.*X{.{.`.a.c < i u d u.<././.L.M.] c._./.`._.",
"_. X/._._.$.x.n.M.x.V.T.V.A./._.h S.s. X.X.XOX.X.XD.w n _..XoXoX XXX X X}.2 C.C..X.X.X X X XW B 4 i 5 v s.M._.`./.(.#.b._._.`.`.",
"{.{.{.F..Xm @./.M._._./././._.].: Z./.OX<X XOXOX<XOXw 4..X.X<X.X X>X.X.X_.m 6.F.}.OX XOXXX Xc.Z 4 u d Z.u.Q.(._.`.M.[ z.}././.<X",
">X X/.>X<Xm $././._._./.{._. XQ.= Q.{._..X{.<X<X.X{.m 3.{.XX.X X X}.`._.`.q ,.F._.>X X X_.d.J i.p < n (.2.V._.`./._.#.z.{.XX_._.",
".XQ./._.;Xq Q./././././.{._./.z.= _._.{.{..X.X<X<X~.N &.{..X`.{..X X`./._.M 5.Z. X`.J.F.! ! ! +.c p b O.6.a./././._.o.z.{._._.XX",
"3X/.D._.<X4 D.F.M.~.~.{.Q.{.~.e.1 e.Q.{.{.{..X{.{.C.6 3.{.{.{._.}.}._.<.B j 2.2.h.h.J u.<.J 2.+.v n v <.4.B V.V.v./.j W `.}.XX.X",
"D.F._.6.6.3 D.D.W.M.^.~.Q.~.m.:.= :.r.~.~.Q.W.D.W.3.3 w.~.Q.D.~._./.c.! 7 h B T ~ 2.~ T J.n 2.! 4 ,.B Z <.B c.v.n.n.4 J 7.Z.Q.>X",
"I./._.I I q B B Q.W.Y.m.W.r.:.J . Y r.m.3.:.H 8 K P w q.m.W.e./.I n b B I | 6.! I n y.c.i.2.! N b 2 > < h c Z Z n.n.y D L %.v.U.",
"3 q c q q z q 3 m ..$.q 0 m 0 o O } } m  .2 = ) H ; - m q 1 - w m m | @.$.| $.@.X.X.x | f 9 B & W h 4   @ + Z M c.9 F 7 7 L b c ",
": 1 4.m.m.c.b.b.w.r.b.m.$.D.~.w.~.W.W.~.w. .e 7 r H r H K ^ 8 6 e m .X<X6X.X6X4XXX.X.Xc.: ,.1.I ! b W H s s ,.Q f : 1 d S 2 j c ",
"c @ %.>X/.{.~. X{.~.^.^.m m.e.r.m.r.m.m.b.m.e.c H >.>.:.e e 6 8 K 1 {.~.<X>X:X<X.X.X X X: F.2.2.c.F.H.J f.J c X.#.4 > y d i.%.%.",
"%.9 w./._.{._._.{..X.XC.m q.m.m.W.W.W.D.~._.W.z.C.Y r H U U r H H z ~.Q.4X{.<X4X XXX X>X9 _._.F.XX X:X{.6.,.M [ o.X.j c M z.z.z.",
"v.x h  X`._.<X.X<X.X{.!.d.M.m.D././././././.}.+.I P 6.Y Y 1.1.Y 5.$.M.~.XX X.X.X<XOX<XC.x _. XOX.X>XOXC.C.W O.l X.M 4 n B x.x.v.",
"M.[ +.v..X X:X>X<XoXD.C.C c.M./._././.}.].{.M.%.N I e.I 1.e.1.1.5.$.T..XQ.}..X.X X.X].F.x XX X<XXX X.X{.0.1.$.f h h 7 n B +.%.;."
};
