/* XPM */
static char *a0dbc21370a84427b6d6461b0b3e38c5gEKNVw7Mzrg0kwNC[] = {
/* columns rows colors chars-per-pixel */
"32 32 3 1 ",
"  c #024802",
". c #0BD50C",
"X c #6DF36E",
/* pixels */
"................................",
"............ ...................",
".... .................. ....X...",
".........X.....X................",
"....X............ ..............",
".......... .............X.......",
"...............X.....X....... ..",
"... ..... ......................",
"................... ............",
"..X....................... .....",
"............................X...",
"........X....X... ..............",
"..X.................X...........",
"................................",
".........................X......",
"........... ................. ..",
".... ........X..... ............",
"............................X...",
"..X............... .............",
"......X................... .....",
"............X........X. ........",
"................................",
"....X...........................",
".. .............................",
".......... .....X..........X....",
"..............X.......... ......",
"..........X............. .......",
".X..... .... ................ ..",
"...............X.. .............",
"....................... ........",
"..........................X.....",
"............X..................."
};
