/* XPM */
static char *_6f144946d534f2fb4503216353a123ffwEX2qVWykBmqtyY[] = {
/* columns rows colors chars-per-pixel */
"560 638 214 2 ",
"   c None",
".  c black",
"X  c #010101",
"o  c #020101",
"O  c #020201",
"+  c #020202",
"@  c gray1",
"#  c #060403",
"$  c #010304",
"%  c #020607",
"&  c #040404",
"*  c #060606",
"=  c #070707",
"-  c #0D0503",
";  c #03090B",
":  c #040D0F",
">  c gray3",
",  c #090909",
"<  c #0A0908",
"1  c #0C0B0A",
"2  c gray5",
"3  c #100F0E",
"4  c #190D09",
"5  c #051014",
"6  c #071519",
"7  c #08191D",
"8  c #101012",
"9  c #151310",
"0  c #1B1713",
"q  c #161618",
"w  c #1F1D1A",
"e  c #1A1A1C",
"r  c #291610",
"t  c #381E17",
"y  c #27221B",
"u  c #2A251F",
"i  c #0A1C22",
"p  c #0B1F25",
"a  c #0B2229",
"s  c #0D252C",
"d  c #0E2930",
"f  c #102D35",
"g  c #122F37",
"h  c #12313A",
"j  c #13353E",
"k  c #202122",
"l  c #252527",
"z  c #2A2B2D",
"x  c #322C24",
"c  c #383129",
"v  c #3F372D",
"b  c #303032",
"n  c #353538",
"m  c #3B3B3F",
"M  c #47271E",
"N  c #6C311A",
"B  c #552F24",
"V  c #5F362C",
"C  c #453D33",
"Z  c #6D3E33",
"A  c #4E4539",
"S  c #564C3F",
"D  c #794538",
"F  c #153943",
"G  c #163D48",
"H  c #3E3E43",
"J  c #17414D",
"K  c #194552",
"L  c #1B4957",
"P  c #1C4B5B",
"I  c #1C4E5B",
"U  c #1E5261",
"Y  c #1F5565",
"T  c #215A6A",
"R  c #225E6E",
"E  c #246274",
"W  c #266779",
"Q  c #414245",
"!  c #484947",
"~  c #444549",
"^  c #484A4F",
"/  c #4F4F4E",
"(  c #5F5445",
")  c #4D4E54",
"_  c #545554",
"`  c #525359",
"'  c #56575D",
"]  c #5D5D5C",
"[  c #685C4C",
"{  c #716453",
"}  c #7B6D5A",
"|  c #585960",
" . c #595A61",
".. c #5B5D64",
"X. c #5E5F66",
"o. c #626665",
"O. c #6D6E6D",
"+. c #767978",
"@. c #8D4123",
"#. c #B0512D",
"$. c #C55C33",
"%. c #E2693A",
"&. c #F5723F",
"*. c #8B5041",
"=. c #965646",
"-. c #9B5948",
";. c #9F5B4A",
":. c #A55E4D",
">. c #837460",
",. c #877863",
"<. c #8B7B66",
"1. c #8F7E69",
"2. c #FE7641",
"3. c #FF7E46",
"4. c #94836C",
"5. c #9B8A72",
"6. c #A49178",
"7. c #AC987E",
"8. c #286C80",
"9. c #2A7185",
"0. c #2B768A",
"q. c #2D798E",
"w. c #2D7B91",
"e. c #2E7D93",
"r. c #2F7F95",
"t. c #FF55FF",
"y. c #308299",
"u. c #31859C",
"i. c #3288A1",
"p. c #348BA4",
"a. c #358FA8",
"s. c #3693AC",
"d. c #3897B2",
"f. c #3A9BB7",
"g. c #3BA0BD",
"h. c #7F8381",
"j. c #3DA4C1",
"k. c #3EA7C5",
"l. c #3FA8C5",
"z. c #3FABC9",
"x. c #41AECD",
"c. c #42B1D0",
"v. c #43B4D4",
"b. c #44B8D8",
"n. c #45BBDC",
"m. c #47BEE0",
"M. c #48C0E2",
"N. c #48C1E3",
"B. c #48C2E4",
"V. c #49C3E5",
"C. c #49C4E7",
"Z. c #49C5E8",
"A. c #4AC6E9",
"S. c #4AC7EB",
"D. c #4AC8EC",
"F. c #4BCAED",
"G. c #4BCAEE",
"H. c #4CCBEF",
"J. c #4CCCF1",
"K. c #4CCEF2",
"L. c #4DCFF4",
"P. c #4FD5FA",
"I. c #898A89",
"U. c #8E9290",
"Y. c #969A98",
"T. c #B49F84",
"R. c #BDA78A",
"E. c #9FA3A1",
"W. c #A8ACAA",
"Q. c #ADBAB4",
"!. c gray70",
"~. c #BBBCBB",
"^. c #C5AE90",
"/. c #CCB495",
"(. c #D1B999",
"). c #D7BE9E",
"_. c #DDC3A2",
"`. c #E3C9A6",
"'. c #E7CDAA",
"]. c #ECD1AE",
"[. c #F0D4B0",
"{. c #F4D8B3",
"}. c #F5D9B4",
"|. c #F7DBB6",
" X c #F9DDB7",
".X c #FCDFB9",
"XX c #FDE0BA",
"oX c #FFE1BB",
"OX c #FFE3BC",
"+X c #FFE6BF",
"@X c #BBC7C2",
"#X c #C7C9C8",
"$X c #CAD1CE",
"%X c #CFDED8",
"&X c gray83",
"*X c gray86",
"=X c gray87",
"-X c #FFE8C0",
";X c #FFEFC6",
":X c #DAEAE4",
">X c #E1E1E0",
",X c #E4E4E3",
"<X c #E7E7E7",
"1X c #ECECEC",
"2X c #E2F3EC",
"3X c #E5F6EF",
"4X c #E7F8F1",
"5X c #EAFBF4",
"6X c #EDFFF7",
"7X c #F1F1F1",
"8X c #F1FFFB",
"9X c #F8F8F8",
"0X c #FCFEFE",
"qX c white",
/* pixels */
"t.                                                                                                                                                                                                                                                                                                                                                                                                                                                                                                                                                                                                                                                                                                                                                                                                                                                                                                                                                                                                                                                                                                                                                            t.",
"t.                                                                                                                                                                                                                                                                                                                                                                                                                                                                                                                                                                                                                                                                                                                                                                                                                                                                                                                                                                                                                                                                                                                                                            t.",
"t.                                                                                                                                                                                                                                                                                                                                                                                                                                                                                                                                                                                                                                                                                                                                                                                                                                                                                                                                                                                                                                                                                                                                                            t.",
"t.                                                                                                                                                                                                                                                                                                                                                                                                                                                                                                                                                                                                                                                                                                                                                                                                                                                                                                                                                                                                                                                                                                                                                            t.",
"t.                                                                                                                                                                                                                                                                                                                                                                                                                                                                                                                                                                                                                                                                                                                                                                                                                                                                                                                                                                                                                                                                                                                                                            t.",
"t.                                                                                                                                                                                                                                                                                                                                                                                                                                                                                                                                                                                                                                                                                                                                                                                                                                                                                                                                                                                                                                                                                                                                                            t.",
"t.                                                                                                                                                                                                                                                                                                                                                                                                                                                                                                                                                                                                                                                                                                                                                                                                                                                                                                                                                                                                                                                                                                                                                            t.",
"t.                                                                                                                                                                                                                                                                                                                                                                                                                                                                                                                                                                                                                                                                                                                                                                                                                                                                                                                                                                                                                                                                                                                                                            t.",
"t.                                                                                                                                                                                                                                                                                                                                                                                                                                                                                                                                                                                                                                                                                                                                                                                                                                                                                                                                                                                                                                                                                                                                                            t.",
"t.                                                                                                                                                                                                                                                                                                                                                                                                                                                                                                                                                                                                                                                                                                                                                                                                                                                                                                                                                                                                                                                                                                                                                            t.",
"t.                                                                                                                                                                                                                                                                                                                                                                                                                                                                                                                                                                                                                                                                                                                                                                                                                                                                                                                                                                                                                                                                                                                                                            t.",
"t.                                                                                                                                                                                                                                                                                                                                                                                                                                                                                                                                                                                                                                                                                                                                                                                                                                                                                                                                                                                                                                                                                                                                                            t.",
"t.                                                                                                                                                                                                                                                                                                                                                                                                                                                                                                                                                                                                                                                                                                                                                                                                                                                                                                                                                                                                                                                                                                                                                            t.",
"t.                                                                                                                                                                                                                                                                                                                                                                                                                                                                                                                                                                                                                                                                                                                                                                                                                                                                                                                                                                                                                                                                                                                                                            t.",
"t.                                                                                                                                                                                                                                                                                                                                                                                                                                                                                                                                                                                                                                                                                                                                                                                                                                                                                                                                                                                                                                                                                                                                                            t.",
"t.                                                                                                                                                                                                                                                                                                                                                                                                                                                                                                                                                                                                                                                                                                                                                                                                                                                                                                                                                                                                                                                                                                                                                            t.",
"t.                                                                                                                                                                                                                                                                                                                                                                                                                                                                                                                                                                                                                                                                                                                                                                                                                                                                                                                                                                                                                                                                                                                                                            t.",
"t.                                                                                                                                                                                                                                                                                                                                                                                                                                                                                                                                                                                                                                                                                                                                                                                                                                                                                                                                                                                                                                                                                                                                                            t.",
"t.                                                                                                                                                                                                                                                                                                                                                                                                                                                                                                                                                                                                                                                                                                                                                                                                                                                                                                                                                                                                                                                                                                                                                            t.",
"t.                                                                                                                                                                                                                                                                                                                                                                                                                                                                                                                                                                                                                                                                                                                                                                                                                                                                                                                                                                                                                                                                                                                                                            t.",
"t.                                                                                                                                                                                                                                                                                                                                                                                                                                                                                                                                                                                                                                                                                                                                                                                                                                                                                                                                                                                                                                                                                                                                                            t.",
"t.                                                                                                                                                                                                                                                                                                                                                                                                                                                                                                                                                                                                                                                                                                                                                                                                                                                                                                                                                                                                                                                                                                                                                            t.",
"t.                                                                                                                                                                                                                                                                                                                                                                                                                                                                                                                                                                                                                                                                                                                                                                                                                                                                                                                                                                                                                                                                                                                                                            t.",
"t.                                                                                                                                                                                                                                                                                                                                                                                                                                                                                                                                                                                                                                                                                                                                                                                                                                                                                                                                                                                                                                                                                                                                                            t.",
"t.                                                                                                                                                                                                                                                                                                                                                                                                                                                                                                                                                                                                                                                                                                                                                                                                                                                                                                                                                                                                                                                                                                                                                            t.",
"t.                                                                                                                                                                                                                                                                                                                                                                                                                                                                                                                                                                                                                                                                                                                                                                                                                                                                                                                                                                                                                                                                                                                                                            t.",
"t.                                                                                                                                                                                                                                                                                                                                                                                                                                                                                                                                                                                                                                                                                                                                                                                                                                                                                                                                                                                                                                                                                                                                                            t.",
"t.                                                                                                                                                                                                                                                                                                                                                                                                                                                                                                                                                                                                                                                                                                                                                                                                                                                                                                                                                                                                                                                                                                                                                            t.",
"t.                                                                                                                                                                                                                                                                                                                                                                                                                                                                                                                                                                                                                                                                                                                                                                                                                                                                                                                                                                                                                                                                                                                                                            t.",
"t.                                                                                                                                                                                                                                                                                                                                                                                                                                                                                                                                                                                                                                                                                                                                                                                                                                                                                                                                                                                                                                                                                                                                                            t.",
"t.                                                                                                                                                                                                                                                                                                                                                                                                                                                                                                                                                                                                                                                                                                                                                                                                                                                                                                                                                                                                                                                                                                                                                            t.",
"t.                                                                                                                                                                                                                                                                                                                                                                                                                                                                                                                                                                                                                                                                                                                                                                                                                                                                                                                                                                                                                                                                                                                                                            t.",
"t.                                                                                                                                                                                                                                                                                                                                                                                                                                                                                                                                                                                                                                                                                                                                                                                                                                                                                                                                                                                                                                                                                                                                                            t.",
"t.                                                                                                                                                                                                                                                                                                                                                                                                                                                                                                                                                                                                                                                                                                                                                                                                                                                                                                                                                                                                                                                                                                                                                            t.",
"t.                                                                                                                                                                                                                                                                                                                                                                                                                                                                                                                                                                                                                                                                                                                                                                                                                                                                                                                                                                                                                                                                                                                                                            t.",
"t.                                                                                                                                                                                                                                                                                                                                                                                                                                                                                                                                                                                                                                                                                                                                                                                                                                                                                                                                                                                                                                                                                                                                                            t.",
"t.                                                                                                                                                                                                                                                                                                                                                                                                                                                                                                                                                                                                                                                                                                                                                                                                                                                                                                                                                                                                                                                                                                                                                            t.",
"t.                                                                                                                                                                                                                                                                                                                                                                                                                                                                                                                                                                                                                                                                                                                                                                                                                                                                                                                                                                                                                                                                                                                                                            t.",
"t.                                                                                                                                                                                                                                                                                                                                                                                                                                                                                                                                                                                                                                                                                                                                                                                                                                                                                                                                                                                                                                                                                                                                                            t.",
"t.                                                                                                                                                                                                                                                                                                                                                                                                                                                                                                                                                                                                                                                                                                                                                                                                                                                                                                                                                                                                                                                                                                                                                            t.",
"t.                                                                                                                                                                                                                                                                                                                                                                                                                                                                                                                                                                                                                                                                                                                                                                                                                                                                                                                                                                                                                                                                                                                                                            t.",
"t.                                                                                                                                                                                                                                                                                                                                                                                                                                                                                                                                                                                                                                                                                                                                                                                                                                                                                                                                                                                                                                                                                                                                                            t.",
"t.                                                                                                                                                                                                                                                                                                                                                                                                                                                                                                                                                                                                                                                                                                                                                                                                                                                                                                                                                                                                                                                                                                                                                            t.",
"t.                                                                                                                                                                                                                                                                                                                                                                                                                                                                                                                                                                                                                                                                                                                                                                                                                                                                                                                                                                                                                                                                                                                                                            t.",
"t.                                                                                                                                                                                                                                                                                                                                                                                                                                                                                                                                                                                                                                                                                                                                                                                                                                                                                                                                                                                                                                                                                                                                                            t.",
"t.                                                                                                                                                                                                                                                                                                                                                                                                                                                                                                                                                                                                                                                                                                                                                                                                                                                                                                                                                                                                                                                                                                                                                            t.",
"t.                                                                                                                                                                                                                                                                                                                                                                                                                                                                                                                                                                                                                                                                                                                                                                                                                                                                                                                                                                                                                                                                                                                                                            t.",
"t.                                                                                                                                                                                                                                                                                                                                                                                                                                                                                                                                                                                                                                                                                                                                                                                                                                                                                                                                                                                                                                                                                                                                                            t.",
"t.                                                                                                                                                                                                                                                                                                                                                                                                                                                                                                                                                                                                                                                                                                                                                                                                                                                                                                                                                                                                                                                                                                                                                            t.",
"t.                                                                                                                                                                                                                                                                                                                                                                                                                                                                                                                                                                                                                                                                                                                                                                                                                                                                                                                                                                                                                                                                                                                                                            t.",
"t.                                                                                                                                                                                                                                                                                                                                                                                                                                                                                                                                                                                                                                                                                                                                                                                                                                                                                                                                                                                                                                                                                                                                                            t.",
"t.                                                                                                                                                                                                                                                                                                                                                                                                                                                                                                                                                                                                                                                                                                                                                                                                                                                                                                                                                                                                                                                                                                                                                            t.",
"t.                                                                                                                                                                                                                                                                                                                                                                                                                                                                                                                                                                                                                                                                                                                                                                                                                                                                                                                                                                                                                                                                                                                                                            t.",
"t.                                                                                                                                                                                                                                                                                                                                                                                                                                                                                                                                                                                                                                                                                                                                                                                                                                                                                                                                                                                                                                                                                                                                                            t.",
"t.                                                                                                                                                                                                                                                                                                                                                                                                                                                                                                                                                                                                                                                                                                                                                                                                                                                                                                                                                                                                                                                                                                                                                            t.",
"t.                                                                                                                                                                                                                                                                                                                                                                                                                                                                                                                                                                                                                                                                                                                                                                                                                                                                                                                                                                                                                                                                                                                                                            t.",
"t.                                                                                                                                                                                                                                                                                                                                                                                                                                                                                                                                                                                                                                                                                                                                                                                                                                                                                                                                                                                                                                                                                                                                                            t.",
"t.                                                                                                                                                                                                                                                                                                                                                                                                                                                                                                                                                                                                                                                                                                                                                                                                                                                                                                                                                                                                                                                                                                                                                            t.",
"t.                                                                                                                                                                                                                                                                                                                                                                                                                                                                                                                                                                                                                                                                                                                                                                                                                                                                                                                                                                                                                                                                                                                                                            t.",
"t.                                                                                                                                                                                                                                                                                                                                                                                                                                                                                                                                                                                                                                                                                                                                                                                                                                                                                                                                                                                                                                                                                                                                                            t.",
"t.                                                                                                                                                                                                                                                                                                                                                                                                                                                                                                                                                                                                                                                                                                                                                                                                                                                                                                                                                                                                                                                                                                                                                            t.",
"t.                                                                                                                                                                                                                                                                                                                                                                                                                                                                                                                                                                                                                                                                                                                                                                                                                                                                                                                                                                                                                                                                                                                                                            t.",
"t.                                                                                                                                                                                                                                                                                                                                                                                                                                                                                                                                                                                                                                                                                                                                                                                                                                                                                                                                                                                                                                                                                                                                                            t.",
"t.                                                                                                                                                                                                                                                                                                                                                                                                                                                                                                                                                                                                                                                                                                                                                                                                                                                                                                                                                                                                                                                                                                                                                            t.",
"t.                                                                                                                                                                                                                                                                                                                                                                                                                                                                                                                                                                                                                                                                                                                                                                                                                                                                                                                                                                                                                                                                                                                                                            t.",
"t.                                                                                                                                                                                                                                                                                                                                                                                                                                                                                                                                                                                                                                                                                                                                                                                                                                                                                                                                                                                                                                                                                                                                                            t.",
"t.                                                                                                                                                                                                                                                                                                                                                                                                                                                                                                                                                                                                                                                                                                                                                                                                                                                                                                                                                                                                                                                                                                                                                            t.",
"t.                                                                                                                                                                                                                                                                                                                                                                                                                                                                                                                                                                                                                                                                                                                                                                                                                                                                                                                                                                                                                                                                                                                                                            t.",
"t.                                                                                                                                                                                                                                                                                                                                                                                                                                                                                                                                                                                                                                                                                                                                                                                                                                                                                                                                                                                                                                                                                                                                                            t.",
"t.                                                                                                                                                                                                                                                                                                                                                                                                                                                                                                                                                                                                                                                                                                                                                                                                                                                                                                                                                                                                                                                                                                                                                            t.",
"t.                                                                                                                                                                                                                                                                                                                                                                                                                                                                                                                                                                                                                                                                                                                                                                                                                                                                                                                                                                                                                                                                                                                                                            t.",
"t.                                                                                                                                                                                                                                                                                                                                                                                                                                                                                                                                                                                                                                                                                                                                                                                                                                                                                                                                                                                                                                                                                                                                                            t.",
"t.                                                                                                                                                                                                                                                                                                                                                                                                                                                                                                                                                                                                                                                                                                                                                                                                                                                                                                                                                                                                                                                                                                                                                            t.",
"t.                                                                                                                                                                                                                                                                                                                                                                                                                                                                                                                                                                                                                                                                                                                                                                                                                                                                                                                                                                                                                                                                                                                                                            t.",
"t.                                                                                                                                                                                                                                                                                                                                                                                                                                                                                                                                                                                                                                                                                                                                                                                                                                                                                                                                                                                                                                                                                                                                                            t.",
"t.                                                                                                                                                                                                                                                                                                                                                                                                                                                                                                                                                                                                                                                                                                                                                                                                                                                                                                                                                                                                                                                                                                                                                            t.",
"t.                                                                                                                                                                                                                                                                                                                                                                                                                                                                                                                                                                                                                                                                                                                                                                                                                                                                                                                                                                                                                                                                                                                                                            t.",
"t.                                                                                                                                                                                                                                                                                                                                                                                                                                                                                                                                                                                                                                                                                                                                                                                                                                                                                                                                                                                                                                                                                                                                                            t.",
"t.                                                                                                                                                                                                                                                                                                                                                                                                                                                                                                                                                                                                                                                                                                                                                                                                                                                                                                                                                                                                                                                                                                                                                            t.",
"t.                                                                                                                                                                                                                                                                                                                                                                                                                                                                                                                                                                                                                                                                                                                                                                                                                                                                                                                                                                                                                                                                                                                                                            t.",
"t.                                                                                                                                                                                                                                                                                                                                                                                                                                                                                                                                                                                                                                                                                                                                                                                                                                                                                                                                                                                                                                                                                                                                                            t.",
"t.                                                                                                                                                                                                                                                                                                                                                                                                                                                                                                                                                                                                                                                                                                                                                                                                                                                                                                                                                                                                                                                                                                                                                            t.",
"t.                                                                                                                                                                                                                                                                                                                                                                                                                                                                                                                                                                                                                                                                                                                                                                                                                                                                                                                                                                                                                                                                                                                                                            t.",
"t.                                                                                                                                                                                                                                                                                                                                                                                                                                                                                                                                                                                                                                                                                                                                                                                                                                                                                                                                                                                                                                                                                                                                                            t.",
"t.                                                                                                                                                                                                                                                                                                                                                                                                                                                                                                                                                                                                                                                                                                                                                                                                                                                                                                                                                                                                                                                                                                                                                            t.",
"t.                                                                                                                                                                                                                                                                                                                                                                                                                                                                                                                                                                                                                                                                                                                                                                                                                                                                                                                                                                                                                                                                                                                                                            t.",
"t.                                                                                                                                                                                                                                                                                                                                                                                                                                                                                                                                                                                                                                                                                                                                                                                                                                                                                                                                                                                                                                                                                                                                                            t.",
"t.                                                                                                                                                                                                                                                                                                                                                                                                                                                                                                                                                                                                                                                                                                                                                                                                                                                                                                                                                                                                                                                                                                                                                            t.",
"t.                                                                                                                                                                                                                                                                                                                                                                                                                                                                                                                                                                                                                                                                                                                                                                                                                                                                                                                                                                                                                                                                                                                                                            t.",
"t.                                                                                                                                                                                                                                                                                                                                                                                                                                                                                                                                                                                                                                                                                                                                                                                                                                                                                                                                                                                                                                                                                                                                                            t.",
"t.                                                                                                                                                                                                                                                                                                                                                                                                                                                                                                                                                                                                                                                                                                                                                                                                                                                                                                                                                                                                                                                                                                                                                            t.",
"t.                                                                                                                                                                                                                                                                                                                                                                                                                                                                                                                                                                                                                                                                                                                                                                                                                                                                                                                                                                                                                                                                                                                                                            t.",
"t.                                                                                                                                                                                                                                                                                                                                                                                                                                                                                                                                                                                                                                                                                                                                                                                                                                                                                                                                                                                                                                                                                                                                                            t.",
"t.                                                                                                                                                                                                                                                                                                                                                                                                                                                                                                                                                                                                                                                                                                                                                                                                                                                                                                                                                                                                                                                                                                                                                            t.",
"t.                                                                                                                                                                                                                                                                                                                                                                                                                                                                                                                                                                                                                                                                                                                                                                                                                                                                                                                                                                                                                                                                                                                                                            t.",
"t.                                                                                                                                                                                                                                                                                                                                                                                                                                                                                                                                                                                                                                                                                                                                                                                                                                                                                                                                                                                                                                                                                                                                                            t.",
"t.                                                                                                                                                                                                                                                                                                                                                                                                                                                                                                                                                                                                                                                                                                                                                                                                                                                                                                                                                                                                                                                                                                                                                            t.",
"t.                                                                                                                                                                                                                                                                                                                                                                                                                                                                                                                                                                                                                                                                                                                                                                                                                                                                                                                                                                                                                                                                                                                                                            t.",
"t.                                                                                                                                                                                                                                                                                                                                                                                                                                                                                                                                                                                                                                                                                                                                                                                                                                                                                                                                                                                                                                                                                                                                                            t.",
"t.                                                                                                                                                                                                                                                                                                                                                                                                                                                                                                                                                                                                                                                                                                                                                                                                                                                                                                                                                                                                                                                                                                                                                            t.",
"t.                                                                                                                                                                                                                                                                                                                                                                                                                                                                                                                                                                                                                                                                                                                                                                                                                                                                                                                                                                                                                                                                                                                                                            t.",
"t.                                                                                                                                                                                                                                                                                                                                                                                                                                                                                                                                                                                                                                                                                                                                                                                                                                                                                                                                                                                                                                                                                                                                                            t.",
"t.                                                                                                                                                                                                                                                                                                                                                                                                                                                                                                                                                                                                                                                                                                                                                                                                                                                                                                                                                                                                                                                                                                                                                            t.",
"t.                                                                                                                                                                                                                                                                                                                                                                                                                                                                                                                                                                                                                                                                                                                                                                                                                                                                                                                                                                                                                                                                                                                                                            t.",
"t.                                                                                                                                                                                                                                                                                                                                                                                                                                                                                                                                                                                                                                                                                                                                                                                                                                                                                                                                                                                                                                                                                                                                                            t.",
"t.                                                                                                                                                                                                                                                                                                                                                                                                                                                                                                                                                                                                                                                                                                                                                                                                                                                                                                                                                                                                                                                                                                                                                            t.",
"t.                                                                                                                                                                                                                                                                                                                                                                                                                                                                                                                                                                                                                                                                                                                                                                                                                                                                                                                                                                                                                                                                                                                                                            t.",
"t.                                                                                                                                                                                                                                                                                                                                                                                                                                                                                                                                                                                                                                                                                                                                                                                                                                                                                                                                                                                                                                                                                                                                                            t.",
"t.                                                                                                                                                                                                                                                                                                                                                                                                                                                                                                                                                                                                                                                                                                                                                                                                                                                                                                                                                                                                                                                                                                                                                            t.",
"t.                                                                                                                                                                                                                                                                                                                                                                                                                                                                                                                                                                                                                                                                                                                                                                                                                                                                                                                                                                                                                                                                                                                                                            t.",
"t.                                                                                                                                                                                                                                                                                                                                                                                                                                                                                                                                                                                                                                                                                                                                                                                                                                                                                                                                                                                                                                                                                                                                                            t.",
"t.                                                                                                                                                                                                                                                                                                                                                                                                                                                                                                                                                                                                                                                                                                                                                                                                                                                                                                                                                                                                                                                                                                                                                            t.",
"t.                                                                                                                                                                                                                                                                                                                                                                                                                                                                                                                                                                                                                                                                                                                                                                                                                                                                                                                                                                                                                                                                                                                                                            t.",
"t.                                                                                                                                                                                                                                                                                                                                                                                                                                                                                                                                                                                                                                                                                                                                                                                                                                                                                                                                                                                                                                                                                                                                                            t.",
"t.                                                                                                                                                                                                                                                                                                                                                                                                                                                                                                                                                                                                                                                                                                                                                                                                                                                                                                                                                                                                                                                                                                                                                            t.",
"t.                                                                                                                                                                                                                                                                                                                                                                                                                                                                                                                                                                                                                                                                                                                                                                                                                                                                                                                                                                                                                                                                                                                                                            t.",
"t.                                                                                                                                                                                                                                                                                                                                                                                                                                                                                                                                                                                                                                                                                                                                                                                                                                                                                                                                                                                                                                                                                                                                                            t.",
"t.                                                                                                                                                                                                                                                                                                                                                                                                                                                                                                                                                                                                                                                                                                                                                                                                                                                                                                                                                                                                                                                                                                                                                            t.",
"t.                                                                                                                                                                                                                                                                                                                                                                                                                                                                                                                                                                                                                                                                                                                                                                                                                                                                                                                                                                                                                                                                                                                                                            t.",
"t.                                                                                                                                                                                                                                                                                                                                                                                                                                                                                                                                                                                                                                                                                                                                                                                                                                                                                                                                                                                                                                                                                                                                                            t.",
"t.                                                                                                                                                                                                                                                                                                                                                                                                                                                                                                                                                                                                                                                                                                                                                                                                                                                                                                                                                                                                                                                                                                                                                            t.",
"t.                                                                                                                                                                                                                                                                                                                                                                                                                                                                                                                                                                                                                                                                                                                                                                                                                                                                                                                                                                                                                                                                                                                                                            t.",
"t.                                                                                                                                                                                                                                                                                                                                                                                                                                                                                                                                                                                                                                                                                                                                                                                                                                                                                                                                                                                                                                                                                                                                                            t.",
"t.                                                                                                                                                                                                                                                                                                                                                                                                                                                                                                                                                                                                                                                                                                                                                                                                                                                                                                                                                                                                                                                                                                                                                            t.",
"t.                                                                                                                                                                                                                                                                                                                                                                                                                                                                                                                                                                                                                                                                                                                                                                                                                                                                                                                                                                                                                                                                                                                                                            t.",
"t.                                                                                                                                                                                                                                                                                                                                                                                                                                                                                                                                                                                                                                                                                                                                                                                                                                                                                                                                                                                                                                                                                                                                                            t.",
"t.                                                                                                                                                                                                                                                                                                                                                                                                                                                                                                                                                                                                                                                                                                                                                                                                                                                                                                                                                                                                                                                                                                                                                            t.",
"t.                                                                                                                                                                                                                                                                                                                                                                                                                                                                                                                                                                                                                                                                                                                                                                                                                                                                                                                                                                                                                                                                                                                                                            t.",
"t.                                                                                                                                                                                                                                                                                                                                                                                                                                                                                                                                                                                                                                                                                                                                                                                                                                                                                                                                                                                                                                                                                                                                                            t.",
"t.                                                                                                                                                                                                                                                                                                                                                                                                                                                                                                                                                                                                                                                                                                                                                                                                                                                                                                                                                                                                                                                                                                                                                            t.",
"t.                                                                                                                                                                                                                                                                                                                                                                                                                                                                                                                                                                                                                                                                                                                                                                                                                                                                                                                                                                                                                                                                                                                                                            t.",
"t.                                                                                                                                                                                                                                                                                                                                                                                                                                                                                                                                                                                                                                                                                                                                                                                                                                                                                                                                                                                                                                                                                                                                                            t.",
"t.                                                                                                                                                                                                                                                                                                                                                                                                                                                                                                                                                                                                                                                                                                                                                                                                                                                                                                                                                                                                                                                                                                                                                            t.",
"t.                                                                                                                                                                                                                                                                                                                                                                                                                                                                                                                                                                                                                                                                                                                                                                                                                                                                                                                                                                                                                                                                                                                                                            t.",
"t.                                                                                                                                                                                                                                                                                                                                                                                                                                                                                                                                                                                                                                                                                                                                                                                                                                                                                                                                                                                                                                                                                                                                                            t.",
"t.                                                                                                                                                                                                                                                                                                                                                                                                                                                                                                                                                                                                                                                                                                                                                                                                                                                                                                                                                                                                                                                                                                                                                            t.",
"t.                                                                                                                                                                                                                                                                                                                                                                                                                                                                                                                                                                                                                                                                                                                                                                                                                                                                                                                                                                                                                                                                                                                                                            t.",
"t.                                                                                                                                                                                                                                                                                                                                                                                                                                                                                                                                                                                                                                                                                                                                                                                                                                                                                                                                                                                                                                                                                                                                                            t.",
"t.                                                                                                                                                                                                                                                                                                                                                                                                                                                                                                                                                                                                                                                                                                                                                                                                                                                                                                                                                                                                                                                                                                                                                            t.",
"t.                                                                                                                                                                                                                                                                                                                                                                                                                                                                                                                                                                                                                                                                                                                                                                                                                                                                                                                                                                                                                                                                                                                                                            t.",
"t.                                                                                                                                                                                                                                                                                                                                                                                                                                                                                                                                                                                                                                                                                                                                                                                                                                                                                                                                                                                                                                                                                                                                                            t.",
"t.                                                                                                                                                                                                                                                                                                                                                                                                                                                                                                                                                                                                                                                                                                                                                                                                                                                                                                                                                                                                                                                                                                                                                            t.",
"t.                                                                                                                                                                                                                                                                                                                                                                                                                                                                                                                                                                                                                                                                                                                                                                                                                                                                                                                                                                                                                                                                                                                                                            t.",
"t.                                                                                                                                                                                                                                                                                                                                                                                                                                                                                                                                                                                                                                                                                                                                                                                                                                                                                                                                                                                                                                                                                                                                                            t.",
"t.                                                                                                                                                                                                                                                                                                                                                                                                                                                                                                                                                                                                                                                                                                                                                                                                                                                                                                                                                                                                                                                                                                                                                            t.",
"t.                                                                                                                                                                                                                                                                                                                                                                                                                                                                                                                                                                                                                                                                                                                                                                                                                                                                                                                                                                                                                                                                                                                                                            t.",
"t.                                                                                                                                                                                                                                                                                                                                                                                                                                                                                                                                                                                                                                                                                                                                                                                                                                                                                                                                                                                                                                                                                                                                                            t.",
"t.                                                                                                                                                                                                                                                                                                                                                                                                                                                                                                                                                                                                                                                                                                                                                                                                                                                                                                                                                                                                                                                                                                                                                            t.",
"t.                                                                                                                                                                                                                                                                                                                                                                                                                                                                                                                                                                                                                                                                                                                                                                                                                                                                                                                                                                                                                                                                                                                                                            t.",
"t.                                                                                                                                                                                                                                                                                                                                                                                                                                                                                                                                                                                                                                                                                                                                                                                                                                                                                                                                                                                                                                                                                                                                                            t.",
"t.                                                                                                                                                                                                                                                                                                                                                                                                                                                                                                                                                                                                                                                                                                                                                                                                                                                                                                                                                                                                                                                                                                                                                            t.",
"t.                                                                                                                                                                                                                                                                                                                                                                                                                                                                                                                                                                                                                                                                                                                                                                                                                                                                                                                                                                                                                                                                                                                                                            t.",
"t.                                                                                                                                                                                                                                                                                                                                                                                                                                                                                                                                                                                                                                                                                                                                                                                                                                                                                                                                                                                                                                                                                                                                                            t.",
"t.                                                                                                                                                                                                                                                                                                                                                                                                                                                                                                                                                                                                                                                                                                                                                                                                                                                                                                                                                                                                                                                                                                                                                            t.",
"t.                                                                                                                                                                                                                                                                                                                                                                                                                                                                                                                                                                                                                                                                                                                                                                                                                                                                                                                                                                                                                                                                                                                                                            t.",
"t.                                                                                                                                                                                                                                                                                                                                                                                                                                                                                                                                                                                                                                                                                                                                                                                                                                                                                                                                                                                                                                                                                                                                                            t.",
"t.                                                                                                                                                                                                                                                                                                                                                                                                                                                                                                                                                                                                                                                                                                                                                                                                                                                                                                                                                                                                                                                                                                                                                            t.",
"t.                                                                                                                                                                                                                                                                                                                                                                                                                                                                                                                                                                                                                                                                                                                                                                                                                                                                                                                                                                                                                                                                                                                                                            t.",
"t.                                                                                                                                                                                                                                                                                                                                                                                                                                                                                                                                                                                                                                                                                                                                                                                                                                                                                                                                                                                                                                                                                                                                                            t.",
"t.                                                                                                                                                                                                                                                                                                                                                                                                                                                                                                                                                                                                                                                                                                                                                                                                                                                                                                                                                                                                                                                                                                                                                            t.",
"t.                                                                                                                                                                                                                                                                                                                                                                                                                                                                                                                                                                                                                                                                                                                                                                                                                                                                                                                                                                                                                                                                                                                                                            t.",
"t.                                                                                                                                                                                                                                                                                                                                                                                                                                                                                                                                                                                                                                                                                                                                                                                                                                                                                                                                                                                                                                                                                                                                                            t.",
"t.                                                                                                                                                                                                                                                                                                                                                                                                                                                                                                                                                                                                                                                                                                                                                                                                                                                                                                                                                                                                                                                                                                                                                            t.",
"t.                                                                                                                                                                                                                                                                                                                                                                                                                                                                                                                                                                                                                                                                                                                                                                                                                                                                                                                                                                                                                                                                                                                                                            t.",
"t.                                                                                                                                                                                                                                                                                                                                                                                                                                                                                                                                                                                                                                                                                                                                                                                                                                                                                                                                                                                                                                                                                                                                                            t.",
"t.                                                                                                                                                                                                                                                                                                                                                                                                                                                                                                                                                                                                                                                                                                                                                                                                                                                                                                                                                                                                                                                                                                                                                            t.",
"t.                                                                                                                                                                                                                                                                                                                                                                                                                                                                                                                                                                                                                                                                                                                                                                                                                                                                                                                                                                                                                                                                                                                                                            t.",
"t.                                                                                                                                                                                                                                                                                                                                                                                                                                                                                                                                                                                                                                                                                                                                                                                                                                                                                                                                                                                                                                                                                                                                                            t.",
"t.                                                                                                                                                                                                                                                                                                                                                                                                                                                                                                                                                                                                                                                                                                                                                                                                                                                                                                                                                                                                                                                                                                                                                            t.",
"t.                                                                                                                                                                                                                                                                                                                                                                                                                                                                                                                                                                                                                                                                                                                                                                                                                                                                                                                                                                                                                                                                                                                                                            t.",
"t.                                                                                                                                                                                                                                                                                                                                                                                                                                                                                                                                                                                                                                                                                                                                                                                                                                                                                                                                                                                                                                                                                                                                                            t.",
"t.                                                                                                                                                                                                                                                                                                                                                                                                                                                                                                                                                                                                                                                                                                                                                                                                                                                                                                                                                                                                                                                                                                                                                            t.",
"t.                                                                                                                                                                                                                                                                                                                                                                                                                                                                                                                                                                                                                                                                                                                                                                                                                                                                                                                                                                                                                                                                                                                                                            t.",
"t.                                                                                                                                                                                                                                                                                                                                                                                                                                                                                                                                                                                                                                                                                                                                                                                                                                                                                                                                                                                                                                                                                                                                                            t.",
"t.                                                                                                                                                                                                                                                                                                                                                                                                                                                                                                                                                                                                                                                                                                                                                                                                                                                                                                                                                                                                                                                                                                                                                            t.",
"t.                                                                                                                                                                                                                                                                                                                                                                                                                                                                                                                                                                                                                                                                                                                                                                                                                                                                                                                                                                                                                                                                                                                                                            t.",
"t.                                                                                                                                                                                                                                                                                                                                                                                                                                                                                                                                                                                                                                                                                                                                                                                                                                                                                                                                                                                                                                                                                                                                                            t.",
"t.                                                                                                                                                                                                                                                                                                                                                                                                                                                                                                                                                                                                                                                                                                                                                                                                                                                                                                                                                                                                                                                                                                                                                            t.",
"t.                                                                                                                                                                                                                                                                                                                                                                                                                                                                                                                                                                                                                                                                                                                                                                                                                                                                                                                                                                                                                                                                                                                                                            t.",
"t.                                                                                                                                                                                                                                                                                                                                                                                                                                                                                                                                                                                                                                                                                                                                                                                                                                                                                                                                                                                                                                                                                                                                                            t.",
"t.                                                                                                                                                                                                                                                                                                                                                                                                                                                                                                                                                                                                                                                                                                                                                                                                                                                                                                                                                                                                                                                                                                                                                            t.",
"t.                                                                                                                                                                                                                                                                                                                                                                                                                                                                                                                                                                                                                                                                                                                                                                                                                                                                                                                                                                                                                                                                                                                                                            t.",
"t.                                                                                                                                                                                                                                                                                                                                                                                                                                                                                                                                                                                                                                                                                                                                                                                                                                                                                                                                                                                                                                                                                                                                                            t.",
"t.                                                                                                                                                                                                                                                                                                                                                                                                                                                                                                                                                                                                                                                                                                                                                                                                                                                                                                                                                                                                                                                                                                                                                            t.",
"t.                                                                                                                                                                                                                                                                                                                                                                                                                                                                                                                                                                                                                                                                                                                                                                                                                                                                                                                                                                                                                                                                                                                                                            t.",
"t.                                                                                                                                                                                                                                                                                                                                                                                                                                                                                                                                                                                                                                                                                                                                                                                                                                                                                                                                                                                                                                                                                                                                                            t.",
"t.                                                                                                                                                                                                                                                                                                                                                                                                                                                                                                                                                                                                                                                                                                                                                                                                                                                                                                                                                                                                                                                                                                                                                            t.",
"t.                                                                                                                                                                                                                                                                                                                                                                                                                                                                                                                                                                                                                                                                                                                                                                                                                                                                                                                                                                                                                                                                                                                                                            t.",
"t.                                                                                                                                                                                                                                                                                                                                                                                                                                                                                                                                                                                                                                                                                                                                                                                                                                                                                                                                                                                                                                                                                                                                                            t.",
"t.                                                                                                                                                                                                                                                                                                                                                                                                                                                                                                                                                                                                                                                                                                                                                                                                                                                                                                                                                                                                                                                                                                                                                            t.",
"t.                                                                                                                                                                                                                                                                                                                                                                                                                                                                                                                                                                                                                                                                                                                                                                                                                                                                                                                                                                                                                                                                                                                                                            t.",
"t.                                                                                                                                                                                                                                                                                                                                                                                                                                                                                                                                                                                                                                                                                                                                                                                                                                                                                                                                                                                                                                                                                                                                                            t.",
"t.                                                                                                                                                                                                                                                                                                                                                                                                                                                                                                                                                                                                                                                                                                                                                                                                                                                                                                                                                                                                                                                                                                                                                            t.",
"t.                                                                                                                                                                                                                                                                                                                                                                                                                                                                                                                                                                                                                                                                                                                                                                                                                                                                                                                                                                                                                                                                                                                                                            t.",
"t.                                                                                                                                                                                                                                                                                                                                                                                                                                                                                                                                                                                                                                                                                                                                                                                                                                                                                                                                                                                                                                                                                                                                                            t.",
"t.                                                                                                                                                                                                                                                                                                                                                                                                                                                                                                                                                                                                                                                                                                                                                                                                                                                                                                                                                                                                                                                                                                                                                            t.",
"t.                                                                                                                                                                                                                                                                                                                                                                                                                                                                                                                                                                                                                                                                                                                                                                                                                                                                                                                                                                                                                                                                                                                                                            t.",
"t.                                                                                                                                                                                                                                                                                                                                                                                                                                                                                                                                                                                                                                                                                                                                                                                                                                                                                                                                                                                                                                                                                                                                                            t.",
"t.                                                                                                                                                                                                                                                                                                                                                                                                                                                                                                                                                                                                                                                                                                                                                                                                                                                                                                                                                                                                                                                                                                                                                            t.",
"t.                                                                                                                                                                                                                                                                                                                                                                                                                                                                                                                                                                                                                                                                                                                                                                                                                                                                                                                                                                                                                                                                                                                                                            t.",
"t.                                                                                                                                                                                                                                                                                                                                                                                                                                                                                                                                                                                                                                                                                                                                                                                                                                                                                                                                                                                                                                                                                                                                                            t.",
"t.                                                                                                                                                                                                                                                                                                                                                                                                                                                                                                                                                                                                                                                                                                                                                                                                                                                                                                                                                                                                                                                                                                                                                            t.",
"t.                                                                                                                                                                                                                                                                                                                                                                                                                                                                                                                                                                                                                                                                                                                                                                                                                                                                                                                                                                                                                                                                                                                                                            t.",
"t.                                                                                                                                                                                                                                                                                                                                                                                                                                                                                                                                                                                                                                                                                                                                                                                                                                                                                                                                                                                                                                                                                                                                                            t.",
"t.                                                                                                                                                                                                                                                                                                                                                                                                                                                                                                                                                                                                                                                                                                                                                                                                                                                                                                                                                                                                                                                                                                                                                            t.",
"t.                                                                                                                                                                                                                                                                                                                                                                                                                                                                                                                                                                                                                                                                                                                                                                                                                                                                                                                                                                                                                                                                                                                                                            t.",
"t.                                                                                                                                                                                                                                                                                                                                                                                                                                                                                                                                                                                                                                                                                                                                                                                                                                                                                                                                                                                                                                                                                                                                                            t.",
"t.                                                                                                                                                                                                                                                                                                                                                                                                                                                                                                                                                                                                                                                                                                                                                                                                                                                                                                                                                                                                                                                                                                                                                            t.",
"t.                                                                                                                                                                                                                                                                                                                                                                                                                                                                                                                                                                                                                                                                                                                                                                                                                                                                                                                                                                                                                                                                                                                                                            t.",
"t.                                                                                                                                                                                                                                                                                                                                                                                                                                                                                                                                                                                                                                                                                                                                                                                                                                                                                                                                                                                                                                                                                                                                                            t.",
"t.                                                                                                                                                                                                                                                                                                                                                                                                                                                                                                                                                                                                                                                                                                                                                                                                                                                                                                                                                                                                                                                                                                                                                            t.",
"t.                                                                                                                                                                                                                                                                                                                                                                                                                                                                                                                                                                                                                                                                                                                                                                                                                                                                                                                                                                                                                                                                                                                                                            t.",
"t.                                                                                                                                                                                                                                                                                                                                                                                                                                                                                                                                                                                                                                                                                                                                                                                                                                                                                                                                                                                                                                                                                                                                                            t.",
"t.                                                                                                                                                                                                                                                                                                                                                                                                                                                                                                                                                                                                                                                                                                                                                                                                                                                                                                                                                                                                                                                                                                                                                            t.",
"t.                                                                                                                                                                                                                                                                                                                                                                                                                                                                                                                                                                                                                                                                                                                                                                                                                                                                                                                                                                                                                                                                                                                                                            t.",
"t.                                                                                                                                                                                                                                                                                                                                                                                                                                                                                                                                                                                                                                                                                                                                                                                                                                                                                                                                                                                                                                                                                                                                                            t.",
"t.                                                                                                                                                                                                                                                                                                                                                                                                                                                                                                                                                                                                                                                                                                                                                                                                                                                                                                                                                                                                                                                                                                                                                            t.",
"t.                                                                                                                                                                                                                                                                                                                                                                                                                                                                                                                                                                                                                                                                                                                                                                                                                                                                                                                                                                                                                                                                                                                                                            t.",
"t.                                                                                                                                                                                                                                                                                                                                                                                                                                                                                                                                                                                                                                                                                                                                                                                                                                                                                                                                                                                                                                                                                                                                                            t.",
"t.                                                                                                                                                                                                                                                                                                                                                                                                                                                                                                                                                                                                                                                                                                                                                                                                                                                                                                                                                                                                                                                                                                                                                            t.",
"t.                                                                                                                                                                                                                                                                                                                                                                                                                                                                                                                                                                                                                                                                                                                                                                                                                                                                                                                                                                                                                                                                                                                                                            t.",
"t.                                                                                                                                                                                                                                                                                                                                                                                                                                                                                                                                                                                                                                                                                                                                                                                                                                                                                                                                                                                                                                                                                                                                                            t.",
"t.                                                                                                                                                                                                                                                                                                                                                                                                                                                                                                                                                                                                                                                                                                                                                                                                                                                                                                                                                                                                                                                                                                                                                            t.",
"t.                                                                                                                                                                                                                                                                                                                                                                                                                                                                                                                                                                                                                                                                                                                                                                                                                                                                                                                                                                                                                                                                                                                                                            t.",
"t.                                                                                                                                                                                                                                                                                                                                                                                                                                                                                                                                                                                                                                                                                                                                                                                                                                                                                                                                                                                                                                                                                                                                                            t.",
"t.                                                                                                                                                                                                                                                                                                                                                                                                                                                                                                                                                                                                                                                                                                                                                                                                                                                                                                                                                                                                                                                                                                                                                            t.",
"t.                                                                                                                                                                                                                                                                                                                                                                                                                                                                                                                                                                                                                                                                                                                                                                                                                                                                                                                                                                                                                                                                                                                                                            t.",
"t.                                                                                                                                                                                                                                                                                                                                                                                                                                                                                                                                                                                                                                                                                                                                                                                                                                                                                                                                                                                                                                                                                                                                                            t.",
"t.                                                                                                                                                                                                                                                                                                                                                                                                                                                                                                                                                                                                                                                                                                                                                                                                                                                                                                                                                                                                                                                                                                                                                            t.",
"t.                                                                                                                                                                                                                                                                                                                                                                                                                                                                                                                                                                                                                                                                                                                                                                                                                                                                                                                                                                                                                                                                                                                                                            t.",
"t.                                                                                                                                                                                                                                                                                                                                                                                                                                                                                                                                                                                                                                                                                                                                                                                                                                                                                                                                                                                                                                                                                                                                                            t.",
"t.                                                                                                                                                                                                                                                                                                                                                                                                                                                                                                                                                                                                                                                                                                                                                                                                                                                                                                                                                                                                                                                                                                                                                            t.",
"t.                                                                                                                                                                                                                                                                                                                                                                                                                                                                                                                                                                                                                                                                                                                                                                                                                                                                                                                                                                                                                                                                                                                                                            t.",
"t.                                                                                                                                                                                                                                                                                                                                                                                                                                                                                                                                                                                                                                                                                                                                                                                                                                                                                                                                                                                                                                                                                                                                                            t.",
"t.                                                                                                                                                                                                                                                                                                                                                                                                                                                                                                                                                                                                                                                                                                                                                                                                                                                                                                                                                                                                                                                                                                                                                            t.",
"t.                                                                                                                                                                                                                                                                                                                                                                                                                                                                                                                                                                                                                                                                                                                                                                                                                                                                                                                                                                                                                                                                                                                                                            t.",
"t.                                                                                                                                                                                                                                                                                                                                                                                                                                                                                                                                                                                                                                                                                                                                                                                                                                                                                                                                                                                                                                                                                                                                                            t.",
"t.                                                                                                                                                                                                                                                                                                                                                                                                                                                                                                                                                                                                                                                                                                                                                                                                                                                                                                                                                                                                                                                                                                                                                            t.",
"t.                                                                                                                                                                                                                                                                                                                                                                                                                                                                                                                                                                                                                                                                                                                                                                                                                                                                                                                                                                                                                                                                                                                                                            t.",
"t.                                                                                                                                                                                                                                                                                                                                                                                                                                                                                                                                                                                                                                                                                                                                                                                                                                                                                                                                                                                                                                                                                                                                                            t.",
"t.                                                                                                                                                                                                                                                                                                                                                                                                                                                                                                                                                                                                                                                                                                                                                                                                                                                                                                                                                                                                                                                                                                                                                            t.",
"t.                                                                                                                                                                                                                                                                                                                                                                                                                                                                                                                                                                                                                                                                                                                                                                                                                                                                                                                                                                                                                                                                                                                                                            t.",
"t.                                                                                                                                                                                                                                                                                                                                                                                                                                                                                                                                                                                                                                                                                                                                                                                                                                                                                                                                                                                                                                                                                                                                                            t.",
"t.                                                                                                                                                                                                                                                                                                                                                                                                                                                                                                                                                                                                                                                                                                                                                                                                                                                                                                                                                                                                                                                                                                                                                            t.",
"t.                                                                                                                                                                                                                                                                                                                                                                                                                                                                                                                                                                                                                                                                                                                                                                                                                                                                                                                                                                                                                                                                                                                                                            t.",
"t.                                                                                                                                                                                                                                                                                                                                                                                                                                                                                                                                                                                                                                                                                                                                                                                                                                                                                                                                                                                                                                                                                                                                                            t.",
"t.                                                                                                                                                                                                                                                                                                                                                                                                                                                                                                                                                                                                                                                                                                                                                                                                                                                                                                                                                                                                                                                                                                                                                            t.",
"t.                                                                                                                                                                                                                                                                                                                                                                                                                                                                                                                                                                                                                                                                                                                                                                                                                                                                                                                                                                                                                                                                                                                                                            t.",
"t.                                                                                                                                                                                                                                                                                                                                                                                                                                                                                                                                                                                                                                                                                                                                                                                                                                                                                                                                                                                                                                                                                                                                                            t.",
"t.                                                                                                                                                                                                                                                                                                                                                                                                                                                                                                                                                                                                                                                                                                                                                                                                                                                                                                                                                                                                                                                                                                                                                            t.",
"t.                                                                                                                                                                                                                                                                                                                                                                                                                                                                                                                                                                                                                                                                                                                                                                                                                                                                                                                                                                                                                                                                                                                                                            t.",
"t.                                                                                                                                                                                                                                                                                                                                                                                                                                                                                                                                                                                                                                                                                                                                                                                                                                                                                                                                                                                                                                                                                                                                                            t.",
"t.                                                                                                                                                                                                                                                                                                                                                      , * * * * @ @ @ @ @ @ @ @ @ @ @ @ * @ * * * * ,                                                                                                                                                                                                                                                                                                                                                                                                                                                                                                                                                                                                                                                                                                                                                       t.",
"t.                                                                                                                                                                                                                                                                                                                                    , * * @ @ @ @ @ @ @ @ @ @ @ @ @ $ % ; ; ; ; ; ; ; % $ @ @ @ @ @ @ @ @ @ @ @ @ * ,                                                                                                                                                                                                                                                                                                                                                                                                                                                                                                                                                                                                                                                                                                                                       t.",
"t.                                                                                                                                                                                                                                                                                                                        * * @ @ @ @ @ @ @ $ ; 6 p d h G L U T E 8.9.0.q.r.r.y.y.y.r.e.q.9.8.E R U L G h s 7 5 % @ @ @ @ @ @ @ *                                                                                                                                                                                                                                                                                                                                                                                                                                                                                                                                                                                                                                                                                                                             t.",
"t.                                                                                                                                                                                                                                                                                                              * @ @ @ @ @ @ $ 5 p f G U E 0.u.s.g.z.v.n.M.V.Z.Z.D.D.H.H.J.J.J.J.J.J.H.H.D.D.Z.Z.V.M.n.c.k.f.p.w.W Y J f 7 ; @ @ @ @ @ * ,                                                                                                                                                                                                                                                                                                                                                                                                                                                                                                                                                                                                                                                                                                                   t.",
"t.                                                                                                                                                                                                                                                                                                    , * @ @ @ @ @ % 6 f J T 9.i.f.z.b.M.Z.Z.D.D.D.D.D.D.Z.Z.Z.Z.C.C.C.V.V.V.V.V.V.V.V.C.C.C.Z.Z.D.D.D.D.D.D.D.Z.Z.V.b.k.d.r.W L f 6 $ @ @ @ @ *                                                                                                                                                                                                                                                                                                                                                                                                                                                                                                                                                                                                                                                                                                             t.",
"t.                                                                                                                                                                                                                                                                                            , * @ @ @ @ $ 5 d K E r.d.z.n.C.D.D.Z.Z.Z.C.V.V.V.V.V.M.M.M.V.V.M.M.M.M.M.M.M.M.M.M.M.M.M.M.M.M.M.M.M.M.M.M.M.V.V.V.V.Z.Z.Z.Z.D.Z.m.x.d.q.Y h 6 $ @ @ @ *                                                                                                                                                                                                                                                                                                                                                                                                                                                                                                                                                                                                                                                                                                       t.",
"t.                                                                                                                                                                                                                                                                                      * @ @ @ @ ; i j T q.d.x.m.Z.J.J.Z.Z.V.M.M.M.M.M.M.M.M.M.V.M.M.M.M.M.M.M.M.M.M.M.M.M.M.M.M.M.M.M.M.M.M.M.M.M.M.M.M.M.M.M.M.M.M.M.M.M.M.V.C.D.J.J.C.v.f.0.L s ; @ @ @ *                                                                                                                                                                                                                                                                                                                                                                                                                                                                                                                                                                                                                                                                                                 t.",
"t.                                                                                                                                                                                                                                                                              * * @ @ @ % i F R r.f.b.C.H.J.J.Z.C.V.M.M.M.M.M.M.M.M.M.M.M.M.M.M.M.M.M.M.M.M.M.M.M.M.M.M.M.M.M.M.M.M.M.M.M.M.M.M.M.M.M.M.M.M.M.M.M.M.M.M.M.M.M.M.M.M.V.Z.H.J.D.M.k.y.Y d ; @ @ @ *                                                                                                                                                                                                                                                                                                                                                                                                                                                                                                                                                                                                                                                                                           t.",
"t.                                                                                                                                                                                                                                                                        * @ @ @ @ : d I 0.d.c.C.D.D.D.Z.C.V.M.M.M.M.M.M.M.M.M.M.M.M.M.M.M.M.M.M.M.M.M.M.M.M.M.M.M.M.M.M.M.V.M.M.M.M.M.V.M.M.M.M.M.M.M.M.M.M.M.M.M.M.M.M.M.M.M.M.M.M.M.M.M.V.C.Z.D.D.M.j.e.I i @ @ @ *                                                                                                                                                                                                                                                                                                                                                                                                                                                                                                                                                                                                                                                                                       t.",
"t.                                                                                                                                                                                                                                                                  * @ @ @ @ 6 j E p.z.M.D.D.Z.C.V.V.M.M.M.M.M.M.M.M.M.V.V.M.M.M.M.V.M.M.M.M.V.M.M.M.M.M.M.M.M.M.M.M.M.M.M.M.M.M.M.M.M.M.M.M.M.M.M.M.M.M.M.M.M.M.M.M.M.M.M.V.V.M.M.M.M.M.M.M.M.M.M.V.C.Z.D.m.g.8.h ; @ @ *                                                                                                                                                                                                                                                                                                                                                                                                                                                                                                                                                                                                                                                                                   t.",
"t.                                                                                                                                                                                                                                                            * @ @ @ @ i J 8.d.b.Z.J.D.C.M.M.M.M.M.M.M.M.M.M.M.M.V.M.M.M.M.M.M.M.M.V.M.M.M.M.M.M.V.M.M.V.M.M.M.M.M.M.M.M.M.M.M.M.M.M.M.M.M.M.M.M.M.M.M.M.M.M.M.M.M.V.V.M.M.M.M.M.M.M.M.M.M.M.M.M.M.M.M.M.M.Z.H.D.v.u.K 6 @ @ @                                                                                                                                                                                                                                                                                                                                                                                                                                                                                                                                                                                                                                                                               t.",
"t.                                                                                                                                                                                                                                                      , @ @ @ @ i J 9.f.n.D.J.D.C.V.M.V.M.M.M.M.M.M.M.M.M.M.M.M.M.M.M.M.M.M.M.M.M.M.M.M.M.M.M.M.M.M.M.M.M.M.M.M.M.V.M.M.M.M.M.M.M.V.M.M.M.M.M.M.M.M.V.M.M.M.M.M.M.M.V.M.M.M.M.M.M.M.M.M.M.M.M.M.M.M.M.M.M.V.M.V.H.J.m.a.U 7 @ @ *                                                                                                                                                                                                                                                                                                                                                                                                                                                                                                                                                                                                                                                                           t.",
"t.                                                                                                                                                                                                                                                  * @ @ @ 5 F 8.d.b.D.D.D.Z.V.M.M.M.M.M.M.M.M.M.M.M.M.M.M.M.M.M.M.M.M.M.M.M.M.M.M.M.M.M.M.M.M.M.M.M.M.M.M.M.M.M.M.M.M.M.M.M.M.M.M.M.M.M.M.M.M.M.M.M.M.M.M.M.M.M.V.M.M.M.M.M.M.M.M.M.M.M.M.V.M.M.M.M.M.M.V.M.M.M.M.V.Z.H.m.d.U 5 @ @ *                                                                                                                                                                                                                                                                                                                                                                                                                                                                                                                                                                                                                                                                       t.",
"t.                                                                                                                                                                                                                                            * @ @ @ ; f E s.v.Z.D.Z.V.V.M.M.M.M.M.M.M.M.M.M.M.M.M.M.M.M.M.M.M.M.M.M.M.M.M.M.M.M.M.M.M.M.M.M.M.M.M.M.M.M.M.M.M.M.M.V.V.M.M.M.M.M.M.M.M.M.M.M.M.M.M.M.M.M.M.M.M.M.M.M.M.M.M.M.V.M.M.M.M.M.M.M.M.M.M.M.M.M.M.M.M.N.M.M.M.V.Z.D.M.a.K : @ @ *                                                                                                                                                                                                                                                                                                                                                                                                                                                                                                                                                                                                                                                                   t.",
"t.                                                                                                                                                                                                                                        @ @ @ @ p L y.c.Z.J.Z.V.M.N.M.M.M.M.M.M.M.V.M.V.M.M.M.M.M.M.M.M.V.M.M.V.M.M.M.M.V.M.M.M.M.M.M.M.M.V.V.M.M.M.M.V.M.M.M.M.M.M.M.V.M.M.M.M.V.M.M.M.M.V.M.M.M.M.V.M.V.M.M.M.M.M.M.M.M.M.M.M.M.M.M.M.M.M.M.M.M.M.M.M.M.M.M.M.M.M.M.M.M.M.Z.J.m.u.j @ @ @                                                                                                                                                                                                                                                                                                                                                                                                                                                                                                                                                                                                                                                                 t.",
"t.                                                                                                                                                                                                                                  , @ @ @ : j W g.M.J.J.Z.M.M.M.M.M.M.M.M.M.M.M.M.V.M.M.M.M.M.M.M.M.M.M.M.M.M.M.M.M.M.M.M.M.M.M.M.M.M.M.M.M.M.M.M.V.M.V.M.M.M.M.M.M.M.M.M.M.M.M.M.M.M.M.M.V.M.M.M.M.M.M.V.M.M.M.M.M.M.M.M.M.M.M.M.M.M.M.M.M.M.M.M.M.V.M.M.M.M.M.M.M.M.M.M.M.M.V.D.J.c.W 7 @ @ *                                                                                                                                                                                                                                                                                                                                                                                                                                                                                                                                                                                                                                                             t.",
"t.                                                                                                                                                                                                                              * @ @ @ 6 L r.x.Z.H.Z.V.M.M.M.V.M.M.M.M.M.M.M.M.M.M.M.M.M.M.M.M.M.M.M.M.M.M.M.M.M.M.M.M.M.M.M.M.M.M.M.M.M.M.M.M.M.M.M.M.M.M.M.M.M.M.M.M.M.M.M.M.M.M.M.M.M.M.M.V.M.M.M.M.M.M.M.M.V.M.M.M.M.M.M.M.M.M.M.M.M.M.M.V.M.M.M.M.M.M.M.M.M.M.M.M.M.M.M.M.M.M.C.D.V.s.G @ @ @                                                                                                                                                                                                                                                                                                                                                                                                                                                                                                                                                                                                                                                           t.",
"t.                                                                                                                                                                                                                          * @ @ @ p T d.m.D.Z.V.V.M.M.M.M.M.M.V.M.M.M.M.M.M.M.M.M.M.M.M.M.M.M.M.M.M.M.M.M.M.M.M.M.M.M.M.M.M.M.V.M.M.M.M.M.M.M.M.M.M.M.M.M.M.M.M.M.M.M.M.M.M.M.M.M.M.M.M.M.M.V.M.M.M.M.M.M.M.M.V.M.M.M.M.V.M.M.M.M.V.M.M.M.M.V.M.M.M.M.M.M.M.M.M.M.V.M.M.M.M.M.M.M.M.M.C.H.v.W 5 @ @                                                                                                                                                                                                                                                                                                                                                                                                                                                                                                                                                                                                                                                         t.",
"t.                                                                                                                                                                                                                      @ @ @ ; h 9.k.Z.J.Z.M.M.V.V.M.M.M.M.M.M.M.M.M.M.M.M.M.M.M.M.M.V.M.M.M.M.M.M.M.M.V.M.M.M.M.M.M.M.M.M.M.V.M.M.M.M.M.M.M.M.M.M.V.M.M.M.M.M.M.M.M.M.M.M.M.M.V.M.M.M.M.M.M.M.M.M.M.M.V.M.M.M.M.M.M.M.M.M.M.M.M.M.M.M.M.M.M.M.M.M.M.M.M.M.M.M.M.M.M.M.M.M.M.M.M.M.M.M.M.V.D.Z.p.d @ @ ,                                                                                                                                                                                                                                                                                                                                                                                                                                                                                                                                                                                                                                                     t.",
"t.                                                                                                                                                                                                                  @ @ @ : G q.c.H.J.Z.M.M.M.M.M.M.M.M.M.M.M.M.M.M.M.M.M.M.M.M.M.M.M.M.M.M.M.V.M.M.M.M.V.M.M.M.V.V.M.M.M.M.M.M.M.M.M.M.M.M.M.V.M.M.M.M.M.M.V.V.M.M.M.M.V.M.M.M.M.M.M.M.M.M.M.M.V.M.M.M.M.M.M.M.M.M.M.M.M.M.M.M.M.M.M.M.M.M.M.M.M.M.M.M.V.V.M.M.M.M.M.M.M.M.M.M.M.M.M.M.M.M.M.Z.J.j.L $ @ *                                                                                                                                                                                                                                                                                                                                                                                                                                                                                                                                                                                                                                                   t.",
"t.                                                                                                                                                                                                              @ @ @ : J u.v.D.D.Z.M.V.M.M.M.M.V.M.M.M.M.M.M.M.M.M.M.M.M.M.M.M.V.V.M.M.M.M.M.M.M.M.V.M.M.M.V.M.M.M.M.M.M.M.M.M.M.M.M.M.M.M.M.M.V.V.M.M.M.M.M.M.M.M.M.M.M.M.M.V.M.M.M.M.M.M.M.M.M.M.M.M.M.M.M.M.M.M.M.M.M.M.M.M.M.M.M.M.M.M.M.M.M.M.M.M.M.M.M.M.M.M.M.M.M.M.V.M.M.M.V.M.M.M.M.M.C.J.v.R % @ @                                                                                                                                                                                                                                                                                                                                                                                                                                                                                                                                                                                                                                                 t.",
"t.                                                                                                                                                                                                          @ @ @ : K i.b.D.Z.V.M.M.M.M.M.M.M.M.M.M.M.M.M.M.M.M.M.M.M.M.M.M.M.M.M.M.M.M.M.V.M.M.M.M.V.M.M.M.M.M.M.M.M.M.M.M.M.M.M.M.M.M.M.M.M.M.M.M.M.M.M.V.M.M.M.M.M.V.M.M.M.M.M.M.M.M.M.M.M.M.M.M.M.M.M.M.M.M.M.M.M.M.M.M.M.V.M.M.M.M.M.M.M.M.M.M.M.M.M.M.V.M.M.M.M.M.M.M.V.M.M.M.M.M.M.M.M.M.M.V.D.M.8.: @ *                                                                                                                                                                                                                                                                                                                                                                                                                                                                                                                                                                                                                                               t.",
"t.                                                                                                                                                                                                      @ @ @ 5 L a.m.J.Z.M.M.M.M.M.M.M.M.M.M.M.M.M.M.M.M.M.M.M.M.V.M.M.M.M.M.M.M.M.M.M.M.M.M.M.M.M.M.M.M.M.M.M.M.M.M.M.M.M.V.M.M.V.M.M.M.M.M.M.M.M.M.M.M.M.M.M.M.M.M.M.M.M.M.M.M.M.M.M.M.M.M.M.M.M.M.M.M.M.M.M.V.M.M.M.M.M.M.M.V.V.M.M.M.M.V.M.M.M.M.V.M.M.M.M.M.M.V.V.M.M.M.M.M.M.M.M.M.M.M.M.M.M.M.Z.Z.q.6 @ @                                                                                                                                                                                                                                                                                                                                                                                                                                                                                                                                                                                                                                             t.",
"t.                                                                                                                                                                                                  * @ @ 5 K p.m.J.D.V.M.M.M.M.M.M.M.M.M.M.M.M.M.M.M.M.M.V.M.M.M.V.M.M.M.M.M.M.M.M.M.M.M.M.M.M.M.M.M.M.M.M.M.M.V.M.M.M.M.M.M.M.M.V.M.M.M.M.M.M.M.M.M.M.M.M.M.M.M.M.M.M.M.M.M.M.M.M.M.M.M.M.V.M.M.M.M.M.M.M.V.M.V.M.M.M.M.M.M.M.M.M.M.M.M.M.M.M.M.M.M.M.M.M.M.M.M.M.M.M.M.M.M.M.M.M.M.M.M.M.M.M.M.M.M.M.D.D.y.7 @ *                                                                                                                                                                                                                                                                                                                                                                                                                                                                                                                                                                                                                                           t.",
"t.                                                                                                                                                                                              * @ @ ; G u.b.H.Z.V.M.M.M.M.M.M.M.M.M.M.M.M.M.M.M.V.M.M.M.M.M.M.M.M.V.M.M.M.M.V.M.M.M.V.M.V.M.M.M.V.M.M.V.M.M.M.M.M.M.M.V.V.M.M.M.M.V.M.M.M.M.V.M.M.M.V.M.V.M.M.M.M.V.M.M.M.M.M.V.V.M.M.M.M.M.M.V.V.M.M.M.M.M.M.M.V.M.M.M.M.M.M.M.M.M.M.M.M.M.M.M.M.M.M.M.M.M.M.M.M.M.M.M.M.M.M.M.M.M.M.M.M.M.M.M.M.M.M.M.D.D.r.6 @ @                                                                                                                                                                                                                                                                                                                                                                                                                                                                                                                                                                                                                                         t.",
"t.                                                                                                                                                                                          , @ @ $ h w.b.H.Z.V.V.M.M.M.M.M.M.M.M.M.M.V.M.M.M.M.M.M.M.M.V.V.M.M.M.M.M.M.M.M.M.M.M.M.M.V.M.M.M.M.M.M.M.M.M.M.M.M.M.M.M.M.M.M.M.M.M.M.M.M.M.M.M.M.M.M.M.V.M.M.M.M.M.M.V.M.V.M.M.M.M.M.M.M.M.V.M.M.M.M.M.M.M.V.M.M.M.V.M.M.M.M.V.M.M.M.M.M.M.M.M.V.M.M.M.M.M.M.M.V.M.M.M.M.M.M.M.M.M.M.M.M.M.M.M.M.M.M.M.M.M.M.Z.D.w.5 @ *                                                                                                                                                                                                                                                                                                                                                                                                                                                                                                                                                                                                                                       t.",
"t.                                                                                                                                                                                        @ @ @ d 9.c.H.Z.M.M.M.M.M.M.M.M.M.M.M.M.M.M.M.M.V.M.M.M.M.M.M.M.M.M.M.M.M.M.M.M.M.M.M.M.M.M.M.M.M.M.M.M.M.M.M.M.M.M.M.M.M.M.M.M.M.M.M.M.M.M.M.M.M.M.M.M.M.M.M.M.M.M.M.M.M.M.M.M.M.M.M.M.M.M.M.M.M.M.M.M.M.M.M.M.M.M.M.M.M.M.M.M.M.M.M.M.M.M.M.M.M.M.M.M.M.M.V.M.M.M.M.M.M.M.M.M.M.M.V.M.M.M.M.M.V.M.M.V.V.M.M.M.M.M.Z.Z.9.: @ *                                                                                                                                                                                                                                                                                                                                                                                                                                                                                                                                                                                                                                     t.",
"t.                                                                                                                                                                                    * @ @ 7 R k.J.J.V.M.M.M.M.M.V.M.M.M.M.M.M.M.M.M.M.M.M.M.M.M.M.M.M.M.M.M.M.M.M.M.M.M.M.M.M.M.M.M.M.M.M.M.M.M.M.M.M.M.M.M.M.M.M.M.M.M.M.M.M.M.M.M.M.M.M.M.M.M.M.M.M.M.M.M.M.M.M.M.M.M.M.M.M.M.M.M.M.M.M.M.M.M.M.M.M.M.M.M.M.M.M.M.M.M.M.M.M.V.M.M.M.M.M.M.M.M.M.M.V.M.M.M.M.M.M.M.V.M.M.M.M.M.M.M.M.V.M.M.M.V.V.V.M.M.M.M.M.Z.V.W % @ ,                                                                                                                                                                                                                                                                                                                                                                                                                                                                                                                                                                                                                                   t.",
"t.                                                                                                                                                                                , @ @ : L s.V.H.Z.V.M.M.M.M.V.M.M.M.V.M.M.M.M.V.M.M.M.M.M.M.M.M.M.M.V.M.M.M.M.M.M.M.M.M.M.M.M.M.M.M.M.M.M.M.M.M.M.M.M.M.M.M.M.M.M.M.M.M.M.M.M.M.M.M.M.M.M.M.M.M.M.M.M.M.M.M.M.M.M.M.M.M.M.M.M.M.M.M.M.M.M.M.M.M.M.M.M.M.M.M.M.M.M.M.M.M.M.M.M.M.M.M.M.M.M.M.M.M.M.M.M.M.M.M.M.M.M.M.M.M.M.V.M.V.M.M.M.M.M.M.M.M.M.M.M.M.M.M.M.M.H.n.U @ @                                                                                                                                                                                                                                                                                                                                                                                                                                                                                                                                                                                                                                   t.",
"t.                                                                                                                                                                              @ @ @ f y.m.D.C.M.M.M.M.M.M.M.V.M.M.M.M.M.M.M.M.M.M.M.M.M.M.M.V.M.M.M.M.M.M.M.V.M.M.M.M.M.M.M.M.M.M.M.M.M.M.V.M.M.M.M.M.M.M.M.M.M.M.M.M.M.M.M.M.M.M.M.M.M.M.M.M.M.M.M.M.M.M.V.M.V.V.M.M.M.M.M.M.M.M.M.M.M.M.M.M.M.M.M.M.M.M.M.M.M.M.M.M.M.M.M.M.M.M.M.M.V.V.M.M.M.M.M.M.M.M.M.M.M.V.M.M.M.M.V.M.M.M.M.M.V.M.M.M.M.M.M.M.M.M.M.M.M.V.J.c.F @ @                                                                                                                                                                                                                                                                                                                                                                                                                                                                                                                                                                                                                                 t.",
"t.                                                                                                                                                                          * @ @ 7 R z.J.Z.M.M.M.M.M.M.M.M.M.M.M.M.M.M.M.M.M.M.M.M.M.M.M.M.M.V.M.M.M.M.M.M.M.V.M.M.M.M.V.V.M.M.M.M.M.M.M.M.M.M.M.V.M.M.M.M.V.M.M.M.V.M.M.M.M.M.M.M.M.M.V.V.M.M.M.M.M.M.M.M.M.M.M.M.M.M.M.M.M.M.M.M.M.V.M.M.V.M.M.M.M.M.M.M.M.M.M.M.M.M.M.M.M.M.M.M.M.V.M.M.M.M.M.V.M.M.V.M.M.M.M.M.M.M.M.M.M.M.M.M.M.M.M.M.M.M.V.V.M.M.M.M.V.M.M.M.V.J.f.a @ @                                                                                                                                                                                                                                                                                                                                                                                                                                                                                                                                                                                                                               t.",
"t.                                                                                                                                                                        @ @ $ G s.Z.J.V.M.M.M.M.M.M.M.M.M.M.M.M.M.M.M.M.M.M.M.M.M.M.M.M.M.M.M.M.M.M.M.M.M.M.M.M.V.M.M.M.M.M.M.M.V.M.M.M.M.M.M.M.M.M.M.M.M.V.M.M.M.M.M.M.M.V.V.M.V.M.M.M.M.M.M.M.V.M.M.M.M.M.M.M.M.M.M.M.M.M.V.M.M.M.M.M.M.M.M.M.M.V.V.M.M.M.M.M.M.M.V.M.M.V.M.M.M.M.M.M.M.M.M.M.M.M.M.M.M.M.M.M.M.M.M.M.M.M.M.M.M.M.M.M.M.M.M.M.M.M.M.M.M.M.M.M.M.M.V.H.y.6 @ *                                                                                                                                                                                                                                                                                                                                                                                                                                                                                                                                                                                                                             t.",
"t.                                                                                                                                                                    , @ @ 6 E c.J.Z.N.V.M.M.M.M.M.M.M.M.M.M.M.M.M.M.M.V.M.M.M.M.M.M.M.M.M.M.M.M.M.M.M.M.M.M.M.M.M.M.M.M.V.M.M.V.M.M.M.M.M.M.M.M.M.M.M.M.M.M.V.M.V.M.M.M.M.M.M.M.M.M.M.M.V.M.M.V.M.M.M.M.M.M.M.M.M.M.M.M.M.V.M.M.M.V.V.M.M.M.M.M.M.M.M.M.M.M.V.M.M.M.M.M.M.M.M.M.M.M.M.M.M.M.M.M.M.M.M.V.V.M.M.M.M.M.M.M.M.M.M.M.M.M.M.M.V.M.M.M.M.M.M.M.M.M.M.M.M.M.M.Z.V.E @ @                                                                                                                                                                                                                                                                                                                                                                                                                                                                                                                                                                                                                             t.",
"t.                                                                                                                                                                  * @ @ j p.C.D.V.N.N.M.M.M.M.M.M.M.M.M.M.M.M.M.M.M.M.V.M.M.M.V.M.M.M.M.V.V.M.M.M.M.V.M.M.M.M.M.M.M.M.M.M.M.M.M.M.M.M.M.M.M.M.M.M.M.M.M.M.M.V.M.M.M.M.M.M.M.M.M.M.M.M.M.M.M.M.M.M.M.M.M.M.M.M.M.M.M.M.M.M.M.M.M.M.M.M.M.M.M.M.M.V.M.M.M.M.M.M.M.M.M.M.M.M.M.M.M.M.M.M.M.M.M.M.M.M.M.M.M.M.M.M.M.M.M.M.M.M.M.M.M.M.M.V.M.V.M.M.M.M.M.M.M.M.M.M.M.M.M.M.M.D.v.G @ @                                                                                                                                                                                                                                                                                                                                                                                                                                                                                                                                                                                                                           t.",
"t.                                                                                                                                                                @ @ : Y c.J.C.M.M.M.M.M.V.M.M.M.M.M.M.M.M.M.M.M.M.V.M.M.M.M.M.M.M.M.M.M.M.M.M.M.M.M.M.M.M.V.M.M.M.M.M.M.M.M.M.M.M.M.M.M.M.V.V.V.M.M.M.M.M.M.M.M.M.M.M.M.M.M.M.M.M.M.M.M.M.M.M.M.M.M.M.M.M.V.V.M.V.M.M.M.M.M.M.M.M.M.M.M.M.M.V.M.M.M.M.M.M.M.M.M.M.M.M.M.V.M.M.M.M.M.M.M.M.M.M.V.M.M.M.M.M.M.M.M.M.M.V.M.M.M.M.M.M.M.M.M.M.M.M.M.M.M.M.M.M.M.M.M.M.M.M.M.V.J.d.7 @ *                                                                                                                                                                                                                                                                                                                                                                                                                                                                                                                                                                                                                         t.",
"t.                                                                                                                                                              @ @ i q.M.J.V.M.M.M.M.M.M.M.M.M.M.M.M.M.M.M.V.M.M.M.M.M.M.M.M.M.M.M.M.M.M.M.M.M.M.M.M.M.M.M.M.M.V.M.M.M.M.M.M.M.M.M.M.M.M.M.M.M.M.M.M.M.M.M.M.M.M.M.M.M.M.M.M.M.V.M.M.M.M.M.M.M.M.M.M.M.M.M.M.M.M.M.M.M.M.M.M.M.M.M.M.M.M.M.M.V.M.M.M.M.M.M.M.M.M.V.M.M.M.V.M.M.M.M.M.V.M.M.M.M.V.M.M.M.M.M.M.M.M.M.M.M.V.M.M.M.M.M.M.M.M.M.M.M.V.M.M.M.M.M.M.M.M.M.M.M.M.M.Z.D.8.$ @                                                                                                                                                                                                                                                                                                                                                                                                                                                                                                                                                                                                                         t.",
"t.                                                                                                                                                          , @ @ h s.Z.Z.V.M.M.M.M.M.M.M.M.M.M.M.M.M.M.M.M.M.M.M.M.M.M.M.M.M.M.M.M.M.V.V.M.M.M.M.M.M.M.M.V.M.M.M.M.M.M.V.M.M.M.M.M.M.M.M.M.M.M.M.V.M.M.M.M.M.M.M.M.M.M.M.M.M.M.M.M.M.M.M.M.M.M.M.M.M.M.M.M.V.M.M.M.V.M.M.M.M.M.M.M.M.V.M.M.M.M.M.M.M.M.M.M.V.V.M.M.M.M.M.M.M.M.M.M.M.M.M.V.M.M.M.M.M.M.M.M.M.M.M.M.M.M.M.M.M.M.M.M.M.M.M.M.V.M.M.M.V.M.M.M.M.M.M.M.M.V.M.M.M.D.v.G @ @                                                                                                                                                                                                                                                                                                                                                                                                                                                                                                                                                                                                                       t.",
"t.                                                                                                                                                        * @ @ K z.J.C.M.M.M.M.M.M.M.M.M.M.M.M.M.V.M.M.M.M.M.M.M.M.M.M.M.M.M.V.M.M.M.M.M.M.M.M.M.M.M.M.M.M.M.M.M.M.M.M.V.M.M.M.M.M.M.M.M.V.M.M.M.M.M.M.M.M.M.M.M.M.M.M.M.M.M.M.M.M.M.M.M.M.M.M.M.M.M.M.M.M.V.M.M.M.M.M.M.M.M.M.M.M.M.M.M.M.M.M.V.M.M.M.M.M.M.M.M.M.M.M.M.M.M.M.M.M.V.M.M.M.M.M.M.M.V.V.M.M.M.M.M.M.M.M.M.M.M.M.M.M.M.M.M.M.V.M.M.M.M.M.M.M.M.M.M.M.M.M.M.M.M.M.D.a.7 @ ,                                                                                                                                                                                                                                                                                                                                                                                                                                                                                                                                                                                                                     t.",
"t.                                                                                                                                                      @ @ ; T b.J.V.M.M.M.M.M.M.V.V.M.M.M.M.M.M.V.M.M.M.M.M.M.M.M.M.M.M.M.M.M.M.M.M.M.M.M.M.M.M.M.M.M.M.M.M.M.M.M.M.M.M.M.M.M.M.M.M.V.M.M.M.M.M.M.M.M.M.V.M.M.M.M.V.M.M.M.M.M.V.M.M.M.M.V.M.M.M.M.V.V.M.M.M.M.M.M.M.M.M.M.M.M.M.M.M.M.M.M.M.M.M.M.M.M.M.M.M.M.M.M.M.M.M.M.M.M.M.M.M.M.M.M.M.M.M.M.M.M.V.M.M.M.V.M.M.M.M.V.M.M.M.M.V.V.M.M.M.M.M.M.M.M.M.M.M.M.M.M.M.M.M.M.M.M.C.C.E $ @                                                                                                                                                                                                                                                                                                                                                                                                                                                                                                                                                                                                                     t.",
"t.                                                                                                                                                    @ @ 5 W m.H.N.m.M.V.M.M.M.M.V.M.M.M.M.M.M.M.M.M.M.M.M.V.M.M.M.M.V.M.M.M.M.M.M.M.M.M.M.M.M.M.M.M.V.M.M.M.M.M.M.M.M.M.M.M.M.M.M.M.V.M.M.M.M.M.M.M.M.M.M.M.M.M.M.V.M.M.M.M.V.M.M.M.M.M.M.M.M.M.M.M.M.M.M.M.M.M.M.M.M.V.M.M.M.M.M.M.M.M.M.M.M.M.M.M.M.M.M.M.M.V.V.M.M.M.V.M.M.M.M.M.M.M.M.M.M.M.M.M.M.M.M.M.M.M.M.M.M.M.M.M.M.M.M.M.M.M.M.M.M.M.M.M.M.V.M.M.M.M.M.M.M.M.M.M.M.M.J.x.f @ *                                                                                                                                                                                                                                                                                                                                                                                                                                                                                                                                                                                                                   t.",
"t.                                                                                                                                                  @ @ 5 9.M.D.M.M.M.M.M.M.M.M.V.M.M.M.M.M.M.M.M.M.M.M.M.M.M.V.M.M.M.M.M.M.M.M.M.M.M.M.M.M.M.M.M.M.M.V.M.M.M.M.M.M.M.M.M.M.M.M.M.M.M.M.M.M.M.M.M.M.M.M.M.M.M.M.M.M.M.M.M.M.M.M.M.M.M.M.M.M.M.M.M.M.M.M.M.M.M.M.M.M.M.M.M.M.M.M.M.M.M.M.M.M.M.M.M.M.M.M.M.M.M.M.M.M.M.M.M.M.M.M.M.M.M.M.M.M.M.M.M.M.M.M.M.M.M.M.M.M.M.M.M.M.M.M.M.M.M.M.M.M.M.M.M.M.M.M.M.M.M.M.M.M.M.M.M.M.M.M.M.C.J.q.% @                                                                                                                                                                                                                                                                                                                                                                                                                                                                                                                                                                                                                   t.",
"t.                                                                                                                                                @ @ 5 0.Z.Z.M.M.M.M.M.M.M.M.M.M.M.M.M.M.M.M.M.M.M.M.M.M.M.M.M.M.M.M.V.M.M.V.M.M.M.M.M.V.M.M.M.M.M.M.M.M.M.M.M.M.M.M.M.M.V.M.M.M.M.M.M.M.M.M.M.M.M.M.M.M.M.M.M.M.M.M.M.M.M.M.M.M.M.M.M.M.M.M.M.M.M.M.M.M.M.M.M.M.M.M.M.M.M.M.M.M.M.M.V.M.M.M.M.M.M.V.M.M.M.M.V.M.M.M.M.M.M.M.M.M.M.M.M.M.M.M.M.M.M.M.M.M.M.M.M.M.M.M.M.M.M.M.M.M.M.M.M.M.M.M.M.M.M.M.M.M.M.M.M.M.M.M.V.M.M.M.M.M.M.D.b.G @ @                                                                                                                                                                                                                                                                                                                                                                                                                                                                                                                                                                                                                 t.",
"t.                                                                                                                                              * @ : 0.D.D.M.M.M.M.M.M.M.M.M.M.M.M.M.M.M.M.V.V.V.M.M.M.M.M.M.M.M.M.M.V.M.M.M.M.M.M.V.M.M.M.M.M.M.M.M.M.M.M.M.M.M.M.M.V.M.M.M.M.M.M.M.M.M.M.M.M.V.M.M.M.M.M.M.M.V.V.M.M.M.M.M.M.M.M.M.M.M.M.M.V.M.M.M.M.M.M.M.V.M.M.M.M.M.M.M.M.M.M.M.M.V.V.M.M.M.M.M.M.M.M.M.M.M.M.M.M.M.M.V.M.M.M.V.M.M.M.M.M.M.M.M.M.M.M.M.M.M.M.M.M.M.M.M.V.M.M.M.M.M.M.M.V.M.M.M.M.M.M.M.M.M.M.M.M.V.V.M.M.M.M.V.J.p.5 @                                                                                                                                                                                                                                                                                                                                                                                                                                                                                                                                                                                                                 t.",
"t.                                                                                                                                            * @ : 8.Z.Z.M.M.M.M.M.M.M.M.M.M.M.M.M.M.M.M.M.M.M.M.M.M.M.M.M.M.M.M.M.M.M.M.M.M.M.M.M.M.M.M.M.M.M.M.M.M.M.M.V.M.M.M.M.M.M.M.M.M.M.M.M.M.M.V.M.M.M.V.M.M.M.M.V.M.M.M.M.M.M.M.M.V.M.V.V.M.M.M.M.M.M.M.M.M.V.M.M.M.M.M.M.V.V.M.M.M.M.M.M.M.M.M.M.M.M.M.M.M.M.M.M.M.M.M.M.V.M.M.M.M.M.M.M.V.M.M.M.M.V.M.M.M.M.V.M.M.M.V.V.M.M.M.M.M.M.M.M.M.V.M.M.M.M.M.M.V.V.M.M.M.M.M.M.M.M.M.M.M.M.M.M.M.Z.M.I @ @                                                                                                                                                                                                                                                                                                                                                                                                                                                                                                                                                                                                               t.",
"t.                                                                                                                                          , @ % E m.Z.M.M.M.M.M.M.M.M.M.M.M.M.M.M.M.M.M.M.M.M.M.M.M.M.M.M.M.M.M.M.M.M.M.M.M.M.M.V.V.M.M.M.M.M.M.M.M.M.M.M.M.M.M.M.V.V.M.M.M.M.M.M.M.M.M.M.M.M.M.M.M.V.M.M.M.M.M.M.V.M.M.M.M.M.M.M.M.M.M.M.M.M.M.M.M.M.M.M.M.M.M.M.M.M.M.M.M.M.M.M.M.M.M.V.M.M.M.M.M.M.M.M.V.M.M.M.M.M.M.M.M.M.M.V.M.M.M.M.M.M.V.V.M.M.M.M.M.M.M.M.M.M.M.M.M.M.M.M.M.M.M.M.M.M.M.M.M.M.M.M.M.M.M.M.M.M.M.V.M.M.M.M.M.M.H.s.7 @                                                                                                                                                                                                                                                                                                                                                                                                                                                                                                                                                                                                               t.",
"t.                                                                                                                                          @ @ U n.D.M.M.M.M.M.M.M.M.M.M.M.M.M.M.M.M.M.M.M.M.M.M.M.M.M.V.M.M.M.M.M.M.M.M.M.M.M.M.M.M.M.M.V.M.M.M.M.M.M.M.M.V.M.M.M.M.M.V.V.M.M.M.M.M.M.M.M.M.V.M.M.M.V.M.M.M.M.M.M.M.M.M.M.M.M.M.M.M.M.M.V.M.M.M.M.M.M.V.M.M.M.M.V.M.M.M.M.M.M.M.M.V.M.M.M.M.M.M.M.M.M.M.M.V.M.M.M.M.M.M.M.M.M.M.V.M.M.M.M.V.M.M.M.M.M.M.V.M.M.M.M.M.M.M.V.M.M.M.M.M.M.V.M.M.M.M.V.M.M.M.M.M.M.M.M.V.M.M.M.M.M.M.M.M.M.C.m.U @ @                                                                                                                                                                                                                                                                                                                                                                                                                                                                                                                                                                                                             t.",
"t.                                                                                                                                        @ @ G c.J.V.M.M.V.M.M.M.M.V.M.M.M.M.M.M.M.M.V.M.V.M.M.M.M.V.M.V.M.M.M.M.M.M.M.M.V.M.M.M.M.M.M.M.V.M.M.M.M.M.V.M.M.M.M.M.M.M.M.M.M.M.M.M.M.M.M.M.M.M.M.M.M.M.M.M.M.M.V.M.M.M.M.M.M.M.M.M.M.M.V.M.M.M.M.V.V.M.M.M.M.M.M.M.M.M.M.V.M.M.M.M.M.M.M.M.M.M.M.M.M.V.V.M.M.M.M.V.M.M.M.M.M.M.V.M.M.M.M.M.M.M.M.M.M.M.M.M.M.M.M.M.M.M.V.M.M.M.M.V.V.M.M.M.M.M.M.M.M.M.M.V.M.M.M.M.M.M.M.M.M.M.M.M.M.M.M.V.H.d.7 @                                                                                                                                                                                                                                                                                                                                                                                                                                                                                                                                                                                                             t.",
"t.                                                                                                                                      @ @ s g.J.V.M.M.M.M.M.M.M.M.M.M.M.M.V.V.M.M.M.M.M.V.M.M.M.M.M.M.M.M.M.M.M.V.M.M.M.M.M.M.M.M.M.M.M.M.M.M.M.M.M.M.M.M.M.M.M.M.M.M.M.M.M.M.M.M.M.V.M.M.M.M.M.M.M.M.M.M.M.M.M.M.M.M.V.M.M.M.M.M.M.V.M.M.M.M.M.M.M.M.M.M.M.M.M.M.M.M.M.M.M.M.M.M.M.M.M.M.M.M.M.M.M.M.M.M.M.M.M.M.M.M.M.M.M.V.M.M.M.M.M.M.M.M.M.M.M.M.M.M.M.M.M.M.M.V.M.M.M.M.M.M.M.M.M.M.M.M.M.M.M.M.M.M.M.M.M.M.M.M.M.M.M.M.M.M.M.M.M.Z.V.U @ @                                                                                                                                                                                                                                                                                                                                                                                                                                                                                                                                                                                                           t.",
"t.                                                                                                                                    , @ 5 y.D.V.M.M.M.M.M.M.M.M.V.M.M.M.M.M.M.M.M.M.M.M.M.M.M.M.M.M.M.M.M.M.M.M.M.M.M.M.V.V.M.M.M.M.M.M.M.M.M.M.M.M.M.M.M.M.M.M.M.M.M.M.M.M.M.M.M.M.M.M.M.M.M.M.M.M.M.M.M.M.M.M.M.M.M.M.M.M.M.M.M.M.M.M.M.M.M.M.M.M.M.V.M.M.M.M.M.M.M.M.M.M.M.M.M.M.M.M.M.M.M.M.M.M.M.M.M.M.M.M.M.M.V.M.M.M.M.M.M.M.M.M.M.M.M.M.M.M.V.M.V.M.M.M.M.M.M.M.M.M.M.M.M.M.M.V.M.M.M.M.M.M.M.M.M.M.M.M.M.M.M.M.M.M.M.V.M.M.M.M.V.J.s.5 @                                                                                                                                                                                                                                                                                                                                                                                                                                                                                                                                                                                                           t.",
"t.                                                                                                                                    @ @ E M.Z.M.M.M.M.M.M.M.M.M.M.M.M.M.M.M.M.M.M.M.M.M.M.M.M.M.M.M.M.M.M.M.M.M.M.M.M.M.M.M.M.M.M.M.M.M.M.M.M.M.M.M.M.M.M.M.V.M.M.M.M.M.M.M.M.M.M.M.M.M.M.V.V.M.M.M.V.M.M.M.M.M.M.M.M.M.M.M.M.M.M.M.M.M.M.M.M.M.M.M.M.M.M.M.M.V.M.M.M.M.M.M.M.M.M.M.M.M.M.M.M.M.M.M.M.M.M.M.M.M.M.M.M.M.M.M.M.M.M.M.M.M.M.M.M.M.M.M.V.M.M.M.M.M.M.M.M.M.M.M.M.M.M.M.M.M.M.M.M.V.M.M.M.M.M.M.M.M.M.M.M.M.M.M.M.M.M.M.M.M.M.D.m.L @ @                                                                                                                                                                                                                                                                                                                                                                                                                                                                                                                                                                                                         t.",
"t.                                                                                                                                  @ @ G v.H.M.M.M.M.M.M.M.M.M.M.M.M.M.M.M.M.M.M.M.M.M.V.M.M.M.M.M.M.V.M.M.M.M.M.M.M.M.M.M.M.M.M.M.M.M.M.M.M.M.M.M.M.M.M.M.M.V.M.M.M.M.M.V.M.M.M.M.M.V.M.M.M.M.M.M.M.M.M.M.V.M.M.M.M.M.M.M.M.M.M.M.M.M.M.M.M.M.V.M.M.M.M.M.M.M.M.M.M.M.V.M.M.M.M.M.V.M.M.M.M.M.M.M.M.M.M.M.M.V.M.M.M.M.M.M.M.M.M.M.M.M.V.M.M.M.M.M.M.M.M.M.M.M.M.M.M.M.M.M.M.M.V.M.M.M.M.M.M.M.M.M.M.M.V.M.M.M.M.M.V.M.M.M.M.M.M.M.M.M.M.M.V.J.i.: @                                                                                                                                                                                                                                                                                                                                                                                                                                                                                                                                                                                                         t.",
"t.                                                                                                                                * @ 6 d.L.V.M.M.M.M.M.M.M.M.M.M.M.M.M.M.M.M.M.V.M.M.M.M.M.M.M.M.M.M.M.M.M.M.V.V.M.M.M.M.M.M.M.V.M.M.M.M.V.M.M.M.M.M.V.M.M.M.M.M.V.M.M.M.M.M.M.M.M.M.M.M.M.M.M.M.M.M.M.M.M.M.M.M.M.V.V.M.M.M.M.M.M.M.M.V.M.M.M.M.M.M.M.M.M.M.M.M.M.M.M.V.M.M.M.M.M.V.M.M.M.M.V.M.M.M.V.M.M.M.M.M.M.M.M.M.M.M.M.M.M.M.V.M.M.M.M.M.M.M.M.M.M.M.M.M.M.M.M.V.M.M.M.M.M.M.M.M.M.M.M.M.M.M.M.V.M.M.M.M.M.V.M.M.M.M.V.M.M.M.M.M.M.M.Z.b.G @ *                                                                                                                                                                                                                                                                                                                                                                                                                                                                                                                                                                                                       t.",
"t.                                                                                                                                @ @ W Z.Z.M.M.M.M.M.M.M.M.M.M.M.M.V.V.M.M.M.M.M.M.M.M.M.M.M.M.M.M.M.M.M.M.M.M.M.M.M.M.V.M.M.M.M.M.M.M.M.M.M.M.M.M.M.M.V.M.M.M.M.M.M.M.M.M.V.M.M.M.M.M.M.M.M.M.M.M.M.M.M.V.M.M.M.M.M.M.M.M.M.M.M.M.M.M.M.M.M.M.M.M.V.V.M.M.M.M.M.M.M.M.M.M.M.M.V.M.M.M.M.V.M.M.M.M.M.M.V.M.M.M.M.M.V.M.M.M.M.V.M.M.M.M.M.M.M.V.M.M.M.M.V.M.M.M.M.M.M.M.M.M.M.M.M.M.V.V.M.M.M.M.M.M.M.M.M.M.M.M.V.M.M.M.M.V.M.M.M.M.M.M.M.M.V.V.D.0.% @                                                                                                                                                                                                                                                                                                                                                                                                                                                                                                                                                                                                       t.",
"t.                                                                                                                              @ @ j c.D.M.M.M.M.M.M.M.M.M.M.M.M.M.M.M.V.V.M.M.M.M.M.M.M.M.M.M.M.M.M.M.M.M.M.M.M.M.M.V.M.M.M.M.M.M.M.M.M.M.M.M.V.M.M.M.M.M.M.M.M.M.V.M.M.M.M.M.M.M.M.M.M.M.M.M.M.M.V.M.M.M.M.M.M.M.V.V.M.M.M.M.M.M.M.M.V.M.M.M.M.M.M.M.V.V.M.M.M.M.M.M.M.M.M.M.M.M.M.M.M.V.M.M.V.M.M.M.M.M.M.M.M.M.M.M.M.M.M.V.M.M.M.M.M.M.M.M.M.M.M.M.V.M.M.M.M.M.M.M.V.M.M.M.M.M.M.M.V.V.M.M.M.M.M.M.M.M.M.M.M.M.M.M.M.V.M.M.M.M.M.M.M.M.M.M.Z.k.f @ ,                                                                                                                                                                                                                                                                                                                                                                                                                                                                                                                                                                                                     t.",
"t.                                                                                                                              @ 5 u.D.M.M.M.V.M.M.M.M.M.M.M.M.M.M.M.M.M.M.M.M.M.M.M.M.M.M.M.M.M.M.M.M.M.M.M.M.M.M.M.M.M.M.M.M.M.M.M.M.M.M.M.M.V.M.M.M.M.M.M.M.M.M.M.M.M.M.M.M.M.M.V.M.M.M.M.M.M.M.M.M.M.M.M.M.M.M.M.M.V.M.M.M.M.M.V.M.M.M.M.M.M.M.M.M.M.M.M.M.M.M.M.M.M.M.M.M.M.M.M.M.M.M.M.M.M.M.M.M.M.M.M.M.M.M.M.M.M.M.M.M.M.M.M.M.M.M.M.M.M.M.M.M.M.M.M.M.M.M.V.M.M.M.M.M.M.M.M.M.M.M.M.M.M.M.M.M.M.M.M.M.M.M.M.M.M.M.M.M.M.M.M.M.M.M.M.M.V.Z.E @ @                                                                                                                                                                                                                                                                                                                                                                                                                                                                                                                                                                                                     t.",
"t.                                                                                                                            @ @ Y M.Z.M.M.M.M.M.M.M.M.V.M.M.M.M.M.M.M.M.M.M.M.M.M.M.V.M.M.V.M.M.V.V.M.V.M.M.M.M.M.M.M.M.M.M.M.M.M.M.V.V.M.M.M.M.M.M.M.M.M.M.M.M.M.M.M.M.M.M.M.M.M.M.M.M.M.V.V.M.M.M.M.M.M.M.M.M.M.M.M.M.M.M.M.M.M.M.M.M.M.M.M.M.M.M.M.M.M.M.M.V.M.M.M.M.V.M.M.M.M.M.M.M.M.M.M.M.M.M.M.M.M.M.M.M.M.M.M.M.M.M.M.M.M.V.M.M.M.M.M.M.M.M.M.M.M.M.M.M.M.M.M.M.M.M.M.M.M.M.M.M.M.M.M.V.M.M.M.M.V.M.M.M.M.M.M.M.M.M.M.M.M.M.M.M.M.M.M.V.H.d.7 @                                                                                                                                                                                                                                                                                                                                                                                                                                                                                                                                                                                                     t.",
"t.                                                                                                                          , @ i f.H.V.M.M.M.M.V.M.M.M.M.M.M.M.M.M.M.M.M.M.M.M.M.M.M.M.M.M.M.M.M.M.M.M.M.M.M.M.M.M.M.M.M.M.M.M.M.M.M.M.M.M.M.M.M.M.M.M.M.M.M.M.M.M.M.M.M.M.M.M.M.V.M.M.M.M.M.M.M.M.M.M.M.M.M.M.M.M.M.M.M.M.M.M.M.M.M.M.M.M.M.M.M.M.M.M.M.M.M.M.M.M.M.M.M.M.V.M.M.M.M.M.M.M.M.M.M.M.M.M.M.M.M.M.M.M.M.M.M.M.M.M.M.M.M.M.M.M.V.M.M.M.M.M.M.M.M.M.M.M.M.M.M.M.M.M.M.M.M.M.M.M.M.M.M.M.M.M.M.M.V.M.M.M.M.M.M.M.M.M.M.M.M.M.M.M.M.M.M.D.m.J @ *                                                                                                                                                                                                                                                                                                                                                                                                                                                                                                                                                                                                   t.",
"t.                                                                                                                          @ @ R Z.Z.M.M.M.M.M.V.M.M.M.M.M.M.V.M.M.M.M.M.M.M.M.M.M.M.M.M.M.M.M.M.M.M.M.M.M.M.M.M.M.M.M.M.M.M.M.V.M.M.M.M.M.M.V.M.M.M.M.V.M.M.M.M.M.M.M.M.M.M.M.M.M.M.M.M.M.M.M.M.M.M.M.M.M.M.M.M.M.M.M.M.M.M.M.M.M.M.M.M.M.M.M.M.M.M.M.M.M.M.M.M.M.M.M.M.M.V.M.M.M.M.M.M.M.M.M.M.M.M.M.V.V.M.M.M.M.V.M.M.M.M.M.M.M.V.V.M.M.M.M.M.M.M.M.M.V.M.M.M.M.M.M.M.M.M.M.M.M.M.M.M.M.M.M.M.M.M.M.M.M.V.M.M.M.M.M.M.M.M.M.M.M.M.M.M.M.M.M.M.C.H.w.$ @                                                                                                                                                                                                                                                                                                                                                                                                                                                                                                                                                                                                   t.",
"t.                                                                                                                        * @ s k.J.M.M.M.M.V.M.M.M.M.M.M.M.M.M.M.M.M.M.M.V.M.M.M.M.M.M.M.V.M.M.M.M.V.M.M.M.M.M.M.V.V.M.M.M.M.M.M.M.M.M.M.M.M.M.M.V.M.M.M.M.M.M.M.M.V.V.M.M.M.M.M.M.M.M.M.M.M.M.M.M.V.M.M.M.M.M.M.M.M.M.M.M.M.M.M.M.M.V.M.M.M.M.M.M.M.M.M.V.M.M.M.M.M.M.M.M.M.M.M.M.M.M.M.V.M.M.M.V.M.M.M.M.M.M.M.M.M.M.M.M.M.M.M.M.M.M.M.M.M.M.M.M.M.V.M.M.M.M.M.M.M.V.M.M.M.M.M.M.M.M.M.V.M.M.M.M.M.M.M.M.M.M.M.M.M.M.M.V.M.M.M.M.M.M.M.M.M.V.M.M.J.z.s @ ,                                                                                                                                                                                                                                                                                                                                                                                                                                                                                                                                                                                                 t.",
"t.                                                                                                                        @ @ W D.Z.M.M.M.M.M.M.M.M.M.M.M.M.M.M.M.V.M.M.M.M.M.M.M.V.M.M.M.V.M.M.M.M.M.M.M.M.V.M.M.M.M.M.M.M.V.M.M.M.M.M.M.M.M.M.M.M.M.M.M.M.M.M.M.M.M.M.V.V.M.M.M.M.M.M.M.M.M.M.M.M.V.M.M.M.M.V.M.M.M.M.V.M.M.M.M.M.M.V.M.M.M.M.M.V.M.M.M.M.M.M.M.M.M.M.M.M.M.M.M.M.V.M.M.M.M.M.M.V.M.M.M.M.M.M.M.M.M.M.M.M.V.M.M.M.M.M.M.M.M.M.M.M.M.M.M.M.M.M.M.M.M.V.M.M.M.M.M.V.M.M.M.M.M.M.M.M.M.M.M.M.M.M.M.M.V.M.M.M.M.M.M.M.V.V.M.M.M.M.M.M.Z.Z.Y @ @                                                                                                                                                                                                                                                                                                                                                                                                                                                                                                                                                                                                 t.",
"t.                                                                                                                      , @ a k.H.M.M.M.M.M.M.M.M.V.M.M.M.M.M.M.M.M.V.M.M.M.M.V.M.M.M.V.M.M.M.M.M.M.M.V.V.M.M.M.V.M.M.M.M.V.M.M.M.M.M.M.M.V.V.M.M.M.M.M.M.M.M.M.M.M.M.M.M.M.M.M.M.M.M.M.M.M.M.V.M.V.M.M.M.M.M.M.V.V.M.M.M.M.M.M.M.M.M.M.M.M.M.V.M.V.M.M.M.M.M.M.V.V.M.M.M.M.M.M.M.M.M.M.M.M.M.M.M.M.V.M.M.M.M.M.M.M.M.M.M.M.M.M.M.M.M.M.M.M.M.M.M.M.M.M.M.M.M.M.M.M.M.M.M.M.M.V.M.V.M.M.M.M.M.M.V.V.M.M.M.M.M.M.M.M.M.M.M.M.M.M.M.M.V.M.M.M.M.V.M.M.M.J.i.: @                                                                                                                                                                                                                                                                                                                                                                                                                                                                                                                                                                                                 t.",
"t.                                                                                                                      @ @ E Z.V.M.M.M.M.M.M.M.M.M.M.M.M.M.V.V.M.M.M.M.M.M.M.V.M.M.M.M.M.M.M.M.M.M.M.M.M.M.M.M.M.M.M.M.M.M.M.M.M.V.M.M.M.M.M.M.M.M.M.M.M.M.M.M.M.M.M.M.M.M.M.M.M.M.M.V.M.M.M.M.M.V.M.M.M.M.V.M.M.M.M.M.M.V.M.M.M.M.M.V.M.M.M.M.M.V.M.M.M.M.V.M.M.M.M.M.M.V.M.M.M.M.M.M.M.M.M.M.M.M.M.M.M.M.M.M.M.M.M.M.M.V.M.M.M.M.M.M.V.M.M.M.M.M.M.M.M.M.M.V.M.M.M.V.M.M.M.M.M.V.M.M.M.M.V.M.M.M.M.M.M.V.M.M.M.M.M.M.M.M.M.M.M.M.V.M.M.M.M.M.M.M.M.D.x.h @ ,                                                                                                                                                                                                                                                                                                                                                                                                                                                                                                                                                                                               t.",
"t.                                                                                                                    2 @ a g.D.M.M.M.M.M.M.M.M.M.M.M.M.M.M.M.M.M.M.M.M.M.M.M.M.M.M.M.M.M.M.M.M.M.M.M.M.M.M.M.M.M.M.M.M.M.M.M.M.M.M.M.M.M.M.M.M.V.M.M.M.M.V.V.M.M.M.M.M.M.M.M.M.M.M.M.M.M.M.M.M.M.M.M.M.M.M.M.M.M.M.M.M.M.M.M.M.M.M.M.M.M.M.M.M.M.M.M.M.M.M.M.M.M.M.M.M.M.M.M.M.M.M.M.M.M.M.M.M.M.M.M.M.M.M.M.M.M.M.M.V.M.M.M.M.V.V.M.M.M.M.M.M.V.M.M.M.M.M.M.M.M.M.M.M.M.M.M.M.M.M.M.M.M.M.M.M.M.M.M.M.M.M.M.M.M.M.M.M.M.M.M.M.M.M.M.M.M.M.M.M.M.M.M.V.Z.R @ *                                                                                                                                                                                                                                                                                                                                                                                                                                                                                                                                                                                               t.",
"t.                                                                                                                    @ @ T V.C.M.M.M.M.M.M.M.M.M.M.M.M.M.M.M.M.M.M.M.M.M.M.M.M.M.M.M.M.M.M.M.M.M.M.M.M.M.M.M.M.M.M.M.M.M.M.M.M.M.M.M.M.M.M.M.M.M.M.M.M.M.M.M.M.M.M.M.V.M.M.V.M.M.M.M.M.M.M.M.M.M.M.M.M.M.M.M.M.M.M.M.M.M.M.M.M.M.M.M.M.M.M.M.M.M.M.M.M.M.M.M.M.M.M.M.M.M.M.M.M.V.V.M.M.M.V.M.M.M.M.M.M.V.M.M.M.M.M.M.V.M.M.M.M.M.M.M.M.M.M.M.M.V.M.M.M.M.M.M.M.M.M.M.M.M.M.M.M.M.M.M.M.M.M.M.M.M.M.M.M.M.M.M.M.V.V.M.M.M.V.M.M.M.M.M.M.M.M.M.M.M.M.M.M.D.p.5 @                                                                                                                                                                                                                                                                                                                                                                                                                                                                                                                                                                                               t.",
"t.                                                                                                                    @ 5 s.H.V.M.M.V.M.M.M.M.V.V.M.M.M.M.V.M.M.M.M.M.M.M.M.M.M.M.M.M.M.V.M.M.M.M.M.M.M.M.M.M.M.M.M.M.M.M.M.M.M.M.M.V.M.M.M.M.V.M.M.M.M.M.M.M.M.M.M.M.M.M.M.M.M.M.M.V.M.M.M.M.M.M.M.M.M.M.M.M.M.M.M.M.V.M.V.M.M.M.M.V.M.M.M.M.M.M.M.M.M.M.M.M.M.M.M.M.V.M.V.M.M.M.M.M.M.M.M.M.M.M.M.M.M.M.M.M.M.M.M.M.M.M.M.M.M.M.M.M.M.V.M.M.M.M.V.M.M.M.M.M.M.M.M.V.M.M.M.M.M.M.M.M.M.M.M.M.M.M.M.M.V.M.V.M.M.M.M.M.M.M.M.M.M.M.M.M.M.M.M.M.M.M.M.M.M.Z.x.h @ ,                                                                                                                                                                                                                                                                                                                                                                                                                                                                                                                                                                                             t.",
"t.                                                                                                                  * @ J n.D.M.M.M.V.M.M.M.M.M.M.M.M.M.M.V.M.M.M.M.V.M.M.M.M.M.M.M.M.M.V.M.M.M.M.M.M.V.M.M.M.M.M.M.M.M.M.V.M.M.M.M.M.M.M.M.M.M.M.M.M.M.M.M.M.V.M.M.M.M.M.M.M.M.M.M.V.M.V.M.M.M.M.M.M.M.M.M.M.M.M.M.M.V.M.M.M.M.M.M.V.M.V.M.M.M.M.M.M.M.M.M.M.M.M.M.M.V.M.M.M.M.M.M.M.M.M.M.M.M.M.M.M.M.M.M.M.M.M.M.M.M.M.M.M.M.M.M.M.M.M.M.M.M.M.V.M.M.M.M.V.M.M.M.V.M.V.M.M.M.M.M.M.M.M.M.M.M.M.M.M.V.M.M.M.M.M.M.M.M.M.M.M.M.M.M.M.M.M.M.M.M.M.M.M.M.C.V.R @ @                                                                                                                                                                                                                                                                                                                                                                                                                                                                                                                                                                                             t.",
"t.                                                                                                                  @ % w.H.C.M.M.M.M.M.M.M.M.M.M.M.M.M.M.M.M.M.M.M.M.M.M.M.M.M.M.M.V.M.M.M.M.M.M.M.M.M.M.V.M.M.M.M.M.M.M.V.M.M.M.M.M.M.M.M.M.M.M.M.M.M.M.M.M.V.M.M.M.M.M.V.M.M.M.M.M.M.M.M.M.M.M.M.M.M.V.M.M.M.M.M.M.M.M.M.M.M.M.M.M.M.M.M.M.M.M.M.M.M.V.M.M.M.M.M.M.M.M.M.M.M.M.M.M.M.M.M.V.M.M.M.M.M.M.M.M.M.M.M.M.M.M.M.M.M.V.M.M.M.M.M.M.M.M.M.M.M.M.M.M.M.M.M.M.M.M.M.M.M.M.M.M.M.V.M.M.M.M.M.M.M.M.M.M.M.M.M.M.M.M.M.V.M.M.M.V.M.M.M.M.M.M.M.M.M.V.D.i.: @                                                                                                                                                                                                                                                                                                                                                                                                                                                                                                                                                                                             t.",
"t.                                                                                                                , @ s z.J.M.M.M.M.M.M.M.M.M.M.M.M.M.M.M.M.M.M.M.M.M.M.M.M.V.M.M.M.M.M.M.M.M.M.M.M.M.M.M.M.M.M.M.V.V.M.M.M.M.M.M.M.M.M.M.M.M.M.V.M.M.M.M.M.M.M.M.V.M.M.M.V.M.M.M.M.M.M.M.M.M.M.M.M.M.V.M.M.M.M.M.M.M.M.M.M.M.M.M.M.M.M.M.M.M.M.M.M.M.V.M.M.M.M.M.M.M.M.M.M.M.M.M.M.V.M.M.M.M.M.M.M.V.V.M.M.M.M.M.M.M.M.V.M.M.M.M.M.M.M.M.M.M.M.M.M.M.M.M.M.M.M.M.M.M.M.M.M.M.M.M.M.M.V.M.M.M.M.M.M.M.M.M.M.M.M.M.M.V.M.M.M.M.M.M.M.M.M.M.M.M.M.M.M.M.M.M.D.z.d @                                                                                                                                                                                                                                                                                                                                                                                                                                                                                                                                                                                             t.",
"t.                                                                                                                @ @ Y C.Z.M.M.M.V.M.M.M.M.M.M.M.M.M.M.M.M.M.M.M.V.M.M.M.V.M.M.M.M.M.M.M.M.M.M.M.M.M.V.V.M.M.M.M.M.M.M.M.M.M.M.M.M.M.M.M.M.V.M.M.M.M.M.M.M.M.M.M.M.M.M.M.M.M.M.M.M.M.M.M.M.V.V.M.M.M.M.M.M.M.M.M.M.M.V.V.M.M.M.M.M.M.M.M.M.M.M.M.M.M.M.M.M.M.M.M.M.M.M.M.M.M.M.M.M.M.M.M.M.M.M.M.M.M.M.M.M.M.M.M.M.M.M.M.M.M.M.V.M.M.M.M.M.M.M.M.M.M.M.M.M.M.M.M.M.V.M.M.M.M.M.M.M.M.M.M.M.M.M.M.V.M.M.M.M.M.M.M.M.M.M.M.M.M.M.M.M.M.M.M.M.M.M.M.M.M.M.M.Z.V.I @ *                                                                                                                                                                                                                                                                                                                                                                                                                                                                                                                                                                                           t.",
"t.                                                                                                                @ : i.J.V.M.M.M.M.M.M.M.M.M.V.M.M.M.M.M.M.M.M.M.V.M.M.M.M.M.M.M.M.M.M.M.M.M.M.M.M.M.V.V.M.M.M.M.M.M.M.M.M.M.M.M.M.V.M.M.M.M.M.M.M.M.M.M.M.M.M.M.M.M.M.M.M.M.M.V.M.M.M.M.M.M.M.M.M.M.M.M.M.M.M.M.M.M.V.V.M.M.M.M.M.M.M.M.M.M.M.M.M.M.M.M.M.M.M.M.M.M.M.V.C.V.M.M.M.M.M.M.M.M.M.V.M.M.M.M.M.M.M.M.M.M.M.M.M.M.M.M.M.M.M.V.M.M.M.M.M.M.M.V.V.M.M.M.M.M.M.M.V.M.M.M.M.M.M.M.M.M.M.M.M.M.M.M.M.V.V.M.M.M.M.M.M.M.M.M.M.M.M.M.M.M.M.M.V.M.M.M.C.J.0.$ @                                                                                                                                                                                                                                                                                                                                                                                                                                                                                                                                                                                           t.",
"t.                                                                                                              , @ h c.D.M.M.M.M.M.M.M.M.M.M.M.V.V.M.M.M.M.M.M.M.M.M.M.M.M.M.M.M.M.M.M.V.M.M.M.M.M.M.M.M.M.M.M.M.M.M.V.M.M.M.M.M.M.M.M.M.M.M.M.M.M.M.M.M.M.V.M.M.M.M.M.M.M.V.M.M.M.M.M.M.M.M.M.M.M.M.M.V.M.M.M.M.M.M.M.M.M.M.M.M.M.M.C.C.V.M.M.M.M.M.M.M.V.M.M.M.M.M.V.m.b.Z.Z.V.M.M.M.M.M.M.M.M.M.M.M.M.M.M.V.M.M.M.M.M.M.M.M.M.M.M.M.M.M.M.M.M.M.M.V.M.M.M.M.M.M.M.M.M.M.M.M.M.M.M.M.M.M.M.M.M.M.M.M.M.M.M.M.V.M.M.M.M.M.M.V.M.M.M.M.M.M.M.M.V.M.M.M.M.M.J.g.7 @                                                                                                                                                                                                                                                                                                                                                                                                                                                                                                                                                                                           t.",
"t.                                                                                                              * @ R Z.V.M.M.M.M.M.M.M.M.M.M.M.M.M.M.M.M.M.M.V.M.M.M.M.M.M.M.M.M.M.V.M.M.M.M.M.M.M.M.M.M.M.M.M.M.M.M.M.M.V.M.M.M.M.M.M.M.M.M.M.V.M.M.M.M.M.M.M.V.M.M.M.M.M.M.M.M.M.M.M.M.M.M.M.M.M.V.M.M.M.M.M.M.M.M.M.M.M.M.M.M.V.M.z.b.H.Z.M.M.M.M.M.M.M.V.M.M.M.V.Z.k.L W v.J.V.M.M.M.M.M.M.M.M.M.M.M.M.M.V.M.V.M.M.M.M.M.M.M.M.M.M.M.M.M.M.M.M.M.M.M.M.M.M.M.M.M.M.M.M.M.M.M.M.V.M.M.M.V.V.M.M.M.M.M.M.M.M.M.M.M.M.M.M.M.V.M.M.V.M.M.M.V.V.M.M.M.M.M.M.D.b.F @ ,                                                                                                                                                                                                                                                                                                                                                                                                                                                                                                                                                                                         t.",
"t.                                                                                                              @ 5 i.D.M.M.M.M.V.M.M.M.M.M.M.M.M.M.M.V.M.M.M.M.M.M.V.V.M.M.V.M.M.M.M.M.M.M.M.M.M.M.M.M.M.M.M.M.M.M.M.M.M.M.M.M.M.V.V.M.V.M.M.M.V.M.M.M.M.V.M.M.M.M.M.M.V.V.M.M.M.M.M.M.M.M.M.M.M.M.M.M.M.M.M.M.M.M.M.M.M.M.M.M.M.Z.C.8.J f.D.Z.M.M.M.M.M.M.M.M.M.M.M.C.n.E 5 G j.J.C.M.M.M.M.M.M.M.M.M.M.M.V.M.M.M.M.M.M.M.V.V.M.M.M.M.M.V.M.M.M.M.M.M.M.M.M.M.M.M.M.M.M.M.M.M.M.M.M.M.M.M.M.M.V.M.M.M.M.V.M.M.M.M.M.V.M.M.M.M.M.M.M.M.M.M.M.M.M.M.M.M.M.M.Z.Z.R @ @                                                                                                                                                                                                                                                                                                                                                                                                                                                                                                                                                                                         t.",
"t.                                                                                                            2 @ f z.Z.M.M.M.M.V.M.M.M.M.V.M.M.M.M.M.M.M.M.M.M.M.M.M.M.M.M.M.M.M.M.M.M.M.M.M.M.M.M.M.M.M.M.M.M.M.M.M.M.M.M.M.M.M.M.M.M.M.M.M.M.M.M.M.M.M.M.M.M.M.M.M.M.M.M.M.M.M.M.V.M.M.M.M.V.M.M.M.M.M.M.M.M.M.M.M.M.M.M.M.M.M.V.Z.x.J 7 0.C.Z.M.M.M.M.M.M.M.M.M.M.V.Z.V.8.% d g.D.V.M.M.M.V.M.V.M.M.M.M.V.M.M.M.V.M.M.M.M.M.M.M.M.V.M.V.M.M.M.M.M.M.M.M.M.M.M.M.M.M.M.M.M.M.M.M.M.M.M.M.M.M.M.M.M.M.M.V.M.M.M.M.M.M.M.M.M.M.M.M.M.M.M.M.M.M.M.M.M.M.M.M.V.J.y.% @                                                                                                                                                                                                                                                                                                                                                                                                                                                                                                                                                                                         t.",
"t.                                                                                                            * @ Y V.C.M.M.M.M.M.M.M.M.M.M.M.M.M.M.M.M.M.M.M.M.M.M.M.M.M.M.M.M.M.M.V.V.M.M.M.M.M.V.M.M.M.M.V.M.M.M.M.M.V.V.M.M.M.M.M.M.M.M.M.M.M.M.M.M.M.M.M.M.M.M.M.M.M.M.M.M.M.M.M.M.M.M.M.M.M.M.V.V.M.M.M.M.M.V.M.M.M.M.V.M.M.M.M.H.c.j $ 8.Z.D.M.M.M.M.M.V.M.M.M.M.M.D.C.R @ F x.Z.M.M.M.M.M.M.M.M.M.M.M.M.M.M.M.M.M.M.M.M.M.M.M.M.M.M.M.M.M.M.M.M.M.M.M.M.M.M.M.M.M.V.M.M.M.V.M.M.M.M.M.M.M.M.M.M.M.M.M.M.M.M.M.M.M.M.M.M.M.V.M.M.M.M.M.M.M.M.M.M.M.M.M.H.g.i @                                                                                                                                                                                                                                                                                                                                                                                                                                                                                                                                                                                         t.",
"t.                                                                                                            @ ; e.D.V.M.M.M.M.M.M.M.M.M.M.M.M.M.M.M.M.M.M.M.M.M.M.M.M.M.M.M.M.M.M.M.M.M.M.M.V.M.M.M.M.M.M.M.M.V.M.M.M.M.M.M.M.M.M.M.M.M.M.M.M.M.M.M.M.M.M.M.M.M.M.M.M.M.M.M.M.M.M.M.M.M.M.M.M.M.M.M.M.M.M.M.V.M.M.M.M.M.M.M.M.M.M.M.V.J.g.p % y.D.C.M.M.M.M.M.M.M.M.M.M.M.J.v.f @ 9.Z.V.M.M.M.M.M.M.M.M.M.M.M.M.M.M.M.M.M.M.M.M.M.M.M.M.M.M.M.M.M.M.V.M.M.M.M.V.M.M.M.M.V.M.M.M.M.M.M.M.V.M.M.M.M.M.M.M.M.M.M.M.M.M.M.M.M.M.M.M.M.M.M.M.V.M.M.M.M.M.M.M.M.M.Z.b.G @ ,                                                                                                                                                                                                                                                                                                                                                                                                                                                                                                                                                                                       t.",
"t.                                                                                                            @ i g.D.V.M.M.M.M.M.M.M.M.M.M.M.M.M.M.M.M.M.M.M.M.M.M.M.M.M.V.M.M.M.M.M.M.M.M.M.M.M.M.M.M.M.M.V.V.M.M.M.M.V.M.M.M.M.M.M.M.M.M.M.M.M.M.M.M.M.M.M.M.M.M.M.M.M.M.M.M.M.M.M.M.M.M.M.M.M.M.M.V.M.M.M.M.V.V.M.M.M.M.M.M.M.M.M.M.C.H.w.@ d z.D.M.M.M.M.M.M.M.M.M.M.M.C.J.8.@ G n.C.M.M.M.M.M.M.M.M.M.M.M.M.M.M.M.M.M.M.M.M.M.M.V.M.M.M.M.M.M.M.M.M.M.M.V.M.M.M.M.M.M.M.M.M.M.V.V.M.M.M.M.M.M.M.M.M.M.M.M.M.M.M.M.M.M.M.M.M.M.M.M.M.M.M.M.M.M.M.M.M.M.M.V.C.T @ *                                                                                                                                                                                                                                                                                                                                                                                                                                                                                                                                                                                       t.",
"t.                                                                                                          , @ G n.D.M.M.M.M.M.M.M.M.M.M.M.M.M.M.M.M.M.M.M.M.M.M.M.V.M.M.M.M.M.M.M.M.M.M.M.M.M.M.M.V.M.M.M.M.M.M.M.M.M.M.M.M.M.M.V.M.M.M.M.M.M.M.M.M.M.M.M.M.M.M.M.M.M.M.M.M.M.M.M.M.M.M.M.M.M.M.M.M.M.M.M.M.M.M.M.M.M.M.V.M.M.M.M.M.M.M.D.b.F @ 0.Z.V.M.M.M.M.M.M.M.M.M.M.M.J.i.$ f c.Z.M.M.M.M.M.M.M.M.M.M.M.M.M.M.M.M.M.M.M.M.M.M.M.V.M.M.M.M.M.M.M.M.M.M.V.M.M.M.M.M.M.M.M.M.M.M.M.M.M.M.M.M.M.M.M.M.M.M.M.M.M.M.M.M.M.M.M.M.M.M.M.N.N.M.M.M.M.M.M.M.M.M.M.D.q.; @                                                                                                                                                                                                                                                                                                                                                                                                                                                                                                                                                                                       t.",
"t.                                                                                                          @ @ R Z.Z.M.M.M.M.M.V.M.M.M.M.V.M.M.M.M.M.M.M.M.M.M.M.M.M.M.M.M.M.M.M.M.M.M.M.M.M.M.M.M.M.M.M.M.M.M.M.M.M.M.M.M.M.M.M.V.M.M.M.M.M.M.M.M.V.M.M.M.M.M.M.M.M.M.M.M.M.M.M.M.V.M.M.M.M.M.M.M.M.M.M.M.M.M.M.M.M.M.M.M.M.M.M.M.M.M.M.Z.D.W @ I m.C.M.M.M.M.M.M.M.M.M.M.V.J.y.$ F b.Z.M.M.M.M.M.M.M.M.M.M.M.M.M.M.M.M.M.M.M.M.M.M.M.M.M.M.M.M.M.M.M.M.M.M.M.M.M.M.M.M.M.M.M.M.M.M.M.M.M.M.M.M.M.M.M.M.V.M.M.M.M.M.M.M.M.N.N.V.M.M.M.N.N.N.N.V.V.M.M.M.M.M.M.D.d.7 @                                                                                                                                                                                                                                                                                                                                                                                                                                                                                                                                                                                       t.",
"t.                                                                                                          @ % y.J.V.M.M.M.M.M.V.M.M.M.M.M.M.M.M.M.M.V.M.M.M.M.M.M.M.M.M.M.M.M.M.V.M.M.M.M.M.M.M.M.M.M.M.M.M.M.M.M.M.M.M.M.M.M.M.M.M.M.M.M.V.M.M.M.M.M.M.M.V.M.M.M.M.M.V.M.M.M.M.M.V.M.M.M.M.V.M.M.M.M.M.M.M.M.M.M.M.M.M.M.M.M.M.M.M.M.M.C.J.q.@ J n.C.M.M.M.M.M.M.M.M.M.M.C.D.E @ R C.V.M.M.M.M.V.M.M.V.M.M.M.M.M.M.M.V.V.M.M.M.M.M.M.M.M.M.M.M.M.V.V.M.M.M.M.M.M.M.V.M.M.M.M.M.M.M.M.M.M.M.M.V.M.M.M.M.M.M.M.M.M.M.M.M.M.N.N.V.V.C.Z.Z.D.D.D.D.D.Z.M.M.V.V.M.Z.z.h @                                                                                                                                                                                                                                                                                                                                                                                                                                                                                                                                                                                       t.",
"t.                                                                                                          @ 7 g.J.V.M.M.M.M.M.M.M.M.M.M.M.M.M.M.M.M.M.M.M.M.V.M.M.M.M.M.M.M.M.M.M.V.M.M.M.M.V.M.M.M.M.M.M.M.M.M.M.M.M.M.M.M.M.M.M.M.M.M.M.M.V.M.V.V.M.M.M.M.M.V.M.M.M.M.M.M.M.M.M.M.M.M.M.M.M.M.M.M.M.M.M.M.M.M.M.M.M.M.M.M.M.M.M.M.M.M.C.H.0.@ I N.C.M.M.M.M.M.M.M.M.M.M.H.b.h 5 s.D.M.M.M.M.M.M.M.M.M.M.M.M.V.M.M.M.M.M.M.M.M.M.M.M.M.M.M.M.M.M.M.M.M.M.M.M.M.M.M.M.M.M.M.M.V.M.M.M.V.M.M.M.M.M.M.M.M.M.M.M.M.M.M.V.V.Z.Z.J.J.J.D.C.n.z.d.a.s.k.C.Z.M.M.M.V.Z.n.L @ f                                                                                                                                                                                                                                                                                                                                                                                                                                                                                                                                                                                     t.",
"t.                                                                                                        , @ h v.H.M.M.M.M.M.M.M.M.M.M.M.M.M.M.V.V.M.M.M.M.M.M.M.M.M.M.M.M.M.M.M.M.V.M.M.M.M.M.M.M.M.M.M.M.M.M.M.M.M.M.V.V.M.M.M.M.M.M.M.M.M.M.M.M.M.M.M.M.M.M.V.M.M.M.M.M.M.V.M.M.M.M.M.M.M.M.M.M.V.V.M.M.M.M.M.M.M.M.M.M.M.M.M.M.M.M.M.Z.Z.R @ 8.Z.V.M.M.M.M.M.M.M.M.M.V.L.u.% U m.C.M.M.M.M.M.M.M.M.M.M.M.M.M.M.M.M.M.M.M.M.M.M.M.M.M.M.M.M.M.M.M.V.M.M.V.M.V.V.M.M.M.M.M.M.V.M.M.M.M.M.M.M.M.M.M.M.M.M.M.V.Z.Z.J.J.D.V.b.c.f.u.9.Y F s 7 : 5 s R c.Z.N.M.M.C.Z.E @ s l.                                                                                                                                                                                                                                                                                                                                                                                                                                                                                                                                                                                  t.",
"t.                                                                                                        * @ U V.Z.M.M.M.M.M.M.M.M.M.M.M.M.M.V.M.M.M.M.M.M.M.M.M.M.V.M.M.M.M.M.M.M.M.M.M.M.M.M.M.M.V.M.M.M.M.M.M.M.M.V.M.M.M.M.V.M.M.M.M.M.M.M.M.M.M.M.M.M.M.M.M.M.M.M.M.M.M.M.V.V.M.M.M.M.M.M.M.M.M.M.V.M.M.M.M.M.M.M.M.V.M.M.M.M.M.M.M.D.b.h 6 f.D.M.M.M.M.M.M.M.M.M.V.D.v.F f x.H.M.M.M.M.M.M.M.V.M.M.M.M.M.M.M.M.M.M.M.M.M.M.V.M.M.M.M.V.M.M.M.M.M.M.M.M.M.M.M.M.M.M.M.M.M.V.M.M.M.M.M.V.V.V.C.Z.Z.Z.D.D.V.b.z.f.i.9.Y J d 6 ; @ @ @ @ @ @ @ @ @ U n.Z.M.M.V.D.r.@ @ a P                                                                                                                                                                                                                                                                                                                                                                                                                                                                                                                                                                                 t.",
"t.                                                                                                        * @ 8.D.V.M.V.M.M.M.M.M.V.M.M.M.M.M.M.M.M.M.M.M.M.M.M.M.M.M.M.M.M.V.V.M.M.M.M.M.M.M.M.M.M.M.M.M.V.M.M.M.M.M.M.M.M.M.M.M.M.M.M.M.M.M.M.M.M.M.M.M.M.M.V.M.M.M.M.M.M.M.M.M.M.M.M.M.M.V.M.M.M.M.M.M.M.M.M.M.M.V.M.M.M.M.M.M.M.M.V.V.D.a.5 Y V.Z.M.M.M.M.M.M.M.M.V.V.Z.8.$ 9.J.J.Z.M.M.M.M.M.M.V.M.M.M.V.M.M.M.M.M.M.M.M.M.M.V.M.M.M.M.M.M.M.M.M.M.M.M.M.M.M.M.M.M.M.M.M.M.V.V.C.Z.Z.D.D.D.Z.C.n.x.f.u.9.T J f 7 ; @ @ @ @ @ @ @ @ @ @ @ @ @ @ @ ; i.J.V.M.M.Z.x.K % @ @ @ @ 2                                                                                                                                                                                                                                                                                                                                                                                                                                                                                                                                                                           t.",
"t.                                                                                                        @ ; i.J.V.M.M.M.M.M.M.M.M.M.M.M.M.M.M.M.M.M.M.M.M.M.M.M.M.M.M.M.M.M.M.M.M.M.M.M.M.M.M.M.M.M.M.M.M.M.M.M.V.M.M.M.M.M.M.M.M.V.M.M.M.M.M.M.M.M.M.M.M.M.V.M.M.M.M.M.V.M.M.M.M.M.M.M.M.M.M.M.M.M.M.M.M.M.M.M.M.M.M.M.M.M.M.M.M.M.M.C.m.L 6 j.P.V.M.M.M.M.M.M.M.M.M.V.Z.u.d s I s.Z.Z.M.M.M.M.M.M.M.M.M.M.M.M.M.M.M.M.M.M.M.M.M.M.M.M.M.N.N.M.M.M.M.N.N.N.N.M.M.M.M.V.Z.Z.H.J.J.D.Z.n.c.g.p.0.R K h p : @ @ @ @ @ @ @ @ @ @ @ @ @ @ @ @ @ @ @ @ @ @ E Z.Z.M.M.V.Z.x.y.Y d ; @ @ @ *                                                                                                                                                                                                                                                                                                                                                                                                                                                                                                                                                                       t.",
"t.                                                                                                        @ 7 g.H.M.M.M.M.M.M.M.M.M.M.M.M.M.M.M.M.M.M.M.M.M.V.V.M.M.M.M.M.M.M.M.M.M.M.M.M.M.M.M.M.M.M.M.M.M.M.M.M.M.M.M.M.M.M.V.M.M.V.M.M.M.M.M.M.M.M.V.M.M.M.M.M.V.M.M.M.M.M.M.M.M.M.M.M.M.M.M.M.M.M.M.M.M.M.M.M.M.M.M.M.M.M.M.M.M.M.M.C.m.I 5 9.C.D.M.M.M.M.M.M.M.M.M.M.V.Z.x.R ; 5 8.M.Z.M.M.M.M.M.M.M.M.M.M.M.M.M.M.M.M.M.V.M.M.M.M.M.M.M.N.M.M.M.M.N.N.N.N.Z.Z.D.J.H.Z.m.v.j.a.0.R K d i : @ @ @ @ @ @ @ @ @ @ @ @ @ @ @ @ @ @ @ @ @ @ @ @ @ @ @ @ U V.Z.M.M.M.M.Z.D.V.x.i.U p $ @ @ @                                                                                                                                                                                                                                                                                                                                                                                                                                                                                                                                                                   t.",
"t.                                                                                                        @ f x.Z.M.M.M.M.M.M.M.M.V.M.M.M.M.V.M.M.M.M.V.M.M.M.M.M.M.M.V.M.M.V.M.M.M.M.M.M.V.M.M.M.M.M.M.M.M.M.M.M.M.M.M.M.M.M.M.M.M.M.M.M.M.M.M.M.M.M.M.M.M.M.M.M.M.M.M.M.M.M.M.V.V.M.M.M.M.V.M.M.M.M.M.M.M.M.M.M.M.M.M.M.M.M.M.M.M.M.M.M.Z.c.J % R n.Z.M.M.M.M.M.M.M.M.M.M.V.H.D.e.5 $ 8.Z.Z.M.M.M.M.M.M.M.M.M.M.M.M.M.M.M.M.M.M.M.M.M.M.M.N.N.V.V.C.Z.Z.D.D.Z.m.c.j.a.q.R L h i : @ @ @ @ @ @ @ @ @ @ @ @ @ @ @ @ @ @ @ @ @ @ @ @ @ @ @ @ @ @ @ @ @ @ E Z.Z.M.M.M.M.M.M.V.D.J.V.j.9.F : @ @ @                                                                                                                                                                                                                                                                                                                                                                                                                                                                                                                                                               t.",
"t.                                                                                                      * @ J b.C.M.M.M.M.M.M.M.M.M.M.M.M.M.M.M.M.M.M.V.M.M.M.M.M.M.M.M.M.M.V.M.V.M.M.M.M.V.M.M.M.M.V.V.M.M.V.M.M.M.M.M.M.M.M.M.M.M.M.M.V.M.M.M.M.M.M.M.M.M.M.M.M.M.M.M.M.M.M.M.M.M.M.M.M.M.M.M.M.M.V.M.M.M.V.V.M.V.M.M.V.V.M.M.M.M.M.M.M.V.L.c.f @ W V.C.M.M.M.M.V.V.M.M.M.M.M.D.H.q.$ 6 f.D.V.M.M.M.M.M.M.V.M.M.M.V.V.M.M.M.M.M.V.V.Z.Z.D.D.D.Z.Z.m.c.g.a.q.E L h p : $ @ @ @ @ @ @ @ @ @ @ @ @ @ @ @ @ @ @ @ @ @ @ @ @ @ @ @ @ @ @ @ @ @ @ @ @ @ @ : s.H.V.M.M.M.M.M.M.M.M.V.Z.J.H.b.u.L 7 @ @ *                                                                                                                                                                                                                                                                                                                                                                                                                                                                                                                                                           t.",
"t.                                                                                                      * @ Y V.V.M.M.M.M.M.M.M.M.M.M.M.M.M.M.M.M.M.M.M.M.M.M.M.M.M.V.M.M.M.M.M.M.M.M.M.M.M.V.M.M.M.M.M.M.M.M.M.V.M.M.M.M.M.M.M.M.M.M.M.M.M.M.M.M.M.M.M.M.M.M.M.M.M.V.M.M.M.V.V.M.M.M.M.M.M.M.M.M.M.M.M.M.M.M.M.M.M.M.M.M.M.M.M.M.M.M.M.M.M.V.L.a.; 5 s.H.V.M.M.M.M.M.M.M.M.V.M.M.J.n.G @ W Z.V.M.M.M.M.N.N.N.N.M.M.M.M.V.C.Z.D.J.J.J.Z.N.v.k.s.e.E I F s 6 % @ @ @ @ @ @ @ @ @ @ @ @ @ @ @ @ @ @ @ @ @ @ @ @ @ @ @ @ @ @ @ @ @ @ @ @ @ @ @ @ @ @ @ @ R M.Z.M.M.M.M.M.M.M.M.M.M.M.M.C.D.D.n.a.I 6 @ @ @                                                                                                                                                                                                                                                                                                                                                                                                                                                                                                                                                       t.",
"t.                                                                                                      @ @ 8.D.M.M.M.M.M.M.M.M.M.M.M.M.M.M.M.V.M.M.M.M.M.M.M.V.M.M.M.M.M.M.M.M.M.M.M.M.M.M.M.M.M.M.M.M.M.M.M.M.V.M.M.M.M.V.M.M.M.M.M.M.M.M.M.M.M.M.V.M.M.V.M.M.M.M.M.M.M.M.M.M.M.M.M.M.M.M.M.M.M.M.M.M.M.M.M.M.M.M.M.M.M.M.M.M.M.M.M.M.M.M.M.Z.M.I @ Y C.Z.M.M.M.M.V.M.M.M.M.M.M.Z.H.8.@ K n.Z.M.M.M.M.N.N.N.N.V.Z.D.J.J.D.V.b.z.d.r.W I j a 6 % @ @ @ @ @ @ @ @ @ @ @ @ @ @ @ @ @ @ @ @ @ @ @ @ @ @ @ @ @ @ @ @ @ @ @ @ @ @ @ @ @ @ @ @ @ @ @ @ : E n.Z.M.M.M.M.M.M.M.M.M.M.M.M.M.M.M.V.Z.H.m.s.L : @ @ *                                                                                                                                                                                                                                                                                                                                                                                                                                                                                                                                                   t.",
"t.                                                                                                      @ ; r.D.V.V.M.M.M.M.M.M.V.M.M.M.M.M.M.M.M.M.M.V.M.M.M.M.M.M.M.M.M.M.M.M.M.M.M.M.M.M.M.M.M.V.M.M.M.M.M.M.M.M.M.M.M.M.M.M.M.M.M.M.M.M.M.M.M.M.M.M.V.M.M.M.M.M.M.M.M.M.M.M.M.M.M.M.M.M.M.M.M.V.M.M.M.M.M.M.M.M.M.M.M.M.M.M.M.M.M.M.M.M.M.M.H.r.$ f v.D.M.M.M.M.M.M.M.M.M.M.M.V.J.r.@ j c.Z.V.V.C.Z.Z.Z.D.Z.M.b.k.d.y.W U F p 5 % @ @ @ @ @ @ @ @ @ @ @ @ @ @ @ @ @ @ @ @ @ @ @ @ @ @ @ @ @ @ @ @ @ @ @ @ @ @ @ @ @ @ @ @ @ @ @ @ @ @ @ @ @ @ : W V.Z.M.M.M.M.M.M.M.M.M.M.M.M.M.M.M.M.M.N.Z.J.M.p.G % @ @                                                                                                                                                                                                                                                                                                                                                                                                                                                                                                                                                 t.",
"t.                                                                                                      @ 6 a.D.M.M.M.M.M.M.V.M.V.M.M.M.M.M.M.M.M.M.M.M.M.M.M.M.M.M.M.M.M.M.M.V.M.M.M.M.M.M.M.M.M.V.M.M.M.V.M.M.M.M.M.M.M.M.M.M.M.M.M.V.M.M.M.M.M.M.M.M.M.M.M.M.M.M.M.M.M.M.M.M.V.M.M.M.M.M.M.M.M.M.M.M.M.V.M.M.M.M.M.M.M.M.M.M.V.M.M.M.M.M.M.M.D.s.; p z.J.M.M.M.M.M.M.M.M.M.M.M.V.J.y.@ j n.L.D.Z.V.b.k.s.y.W U F s 5 % @ @ @ @ @ @ @ @ @ @ @ @ @ @ @ @ @ @ @ @ @ @ @ @ @ @ @ @ @ @ @ @ @ @ @ @ @ @ @ @ @ @ @ @ @ # @ @ @ @ @ @ @ @ @ @ @ @ @ @ @ ; 9.Z.Z.M.M.M.M.M.M.M.M.V.M.M.M.M.M.M.M.M.M.V.D.L.b.9.a @ @ *                                                                                                                                                                                                                                                                                                                                                                                                                                                                                                                                             t.",
"t.                                                                                                      @ i f.Z.M.M.V.M.M.M.M.M.M.M.M.M.M.M.M.M.M.M.M.M.M.M.M.M.M.M.M.M.M.M.M.M.V.M.M.M.M.M.M.M.M.M.M.M.M.M.M.M.M.V.M.M.M.M.M.M.M.M.M.M.M.M.M.M.M.M.M.V.M.M.M.M.M.M.M.M.M.V.M.M.M.M.M.M.M.M.M.M.M.M.M.M.M.M.M.M.M.M.M.M.N.N.M.M.M.M.M.M.M.M.M.M.D.s.; p z.J.M.M.M.M.M.M.M.M.M.M.M.V.L.s.7 L k.f.u.W Y G d 7 ; @ @ @ @ @ @ @ @ @ @ @ @ @ @ @ @ @ @ @ @ @ @ @ @ @ @ @ @ @ @ @ @ @ @ @ @ @ @ @ @ @ @ @ @ @ @ @ @ 1 z z 1 @ @ @ @ @ @ @ @ @ @ @ @ @ @ @ @ 7 f.J.V.M.M.M.M.M.M.M.M.M.M.M.M.M.M.M.M.M.M.M.V.D.Z.f.L ; @ @                                                                                                                                                                                                                                                                                                                                                                                                                                                                                                                                           t.",
"t.                                                                                                      @ d j.Z.M.M.M.M.M.M.M.M.M.M.M.M.V.M.M.M.M.M.M.M.M.M.M.M.M.M.M.M.M.M.V.M.V.M.M.M.M.M.M.M.M.M.M.M.M.M.M.M.M.M.M.M.M.M.M.M.V.V.M.M.M.M.M.M.M.M.M.M.M.M.M.M.M.M.V.M.M.M.M.M.M.M.M.M.M.M.M.M.M.M.M.M.N.M.M.M.M.M.M.M.N.N.M.M.M.M.M.M.M.V.V.M.D.r.$ f v.H.M.M.M.M.M.M.M.M.M.M.M.Z.D.a.j f f 7 : @ @ @ @ @ @ @ @ @ @ @ @ @ @ @ @ @ @ @ @ @ @ @ @ @ @ @ @ @ @ @ @ @ @ @ @ @ @ @ @ @ @ @ @ @ @ @ @ 2 k m ' +.Y.~.W.b @ @ @ @ @ @ @ @ @ @ @ @ @ @ @ @ @ @ U N.Z.N.M.M.M.M.M.M.M.M.M.M.M.M.M.M.V.V.M.M.M.M.C.H.m.0.7 @ @ ,                                                                                                                                                                                                                                                                                                                                                                                                                                                                                                                                       t.",
"t.                                                                                                      @ h x.Z.M.M.M.M.M.M.M.M.M.M.V.V.M.M.M.M.M.V.M.M.V.M.M.M.M.M.M.M.M.M.M.M.M.M.M.M.M.M.M.V.M.M.M.M.M.M.V.V.M.M.M.M.M.V.M.M.M.M.M.M.M.M.M.M.M.M.M.M.M.M.M.M.M.M.M.M.M.M.M.M.M.V.M.M.M.M.M.M.V.M.M.M.N.M.M.M.M.M.M.V.N.V.V.V.Z.Z.Z.D.D.D.Z.D.J.E @ L M.Z.M.M.M.M.M.M.M.M.M.M.Z.b.8.p % @ @ @ @ @ @ @ @ @ @ @ @ @ @ @ @ @ @ @ @ @ @ @ @ @ @ @ @ @ @ @ @ @ @ @ @ @ @ @ @ @ @ @ @ @ , e b ~ ] h.E.~.&X1X9XqXqXqXO.@ @ @ @ @ @ @ @ @ @ @ @ @ @ @ @ @ @ @ a j.D.N.M.V.M.M.V.M.M.M.M.M.M.M.M.M.M.M.M.M.M.M.M.M.Z.H.d.j @ @ *                                                                                                                                                                                                                                                                                                                                                                                                                                                                                                                                     t.",
"t.                                                                                                    , @ G b.Z.M.M.M.M.V.M.M.M.M.M.M.M.M.M.M.M.M.V.M.M.M.M.M.M.V.V.M.M.M.M.M.M.M.M.M.M.M.M.M.M.V.M.M.M.M.M.M.M.M.M.M.M.M.M.M.M.M.M.M.M.M.M.M.M.M.M.M.M.M.M.M.M.M.M.M.M.M.M.M.M.M.V.M.M.M.M.M.M.V.M.M.M.N.B.V.Z.Z.D.D.D.D.Z.Z.V.n.x.g.s.r.8.E q.a.h @ 9.D.V.M.M.M.M.M.M.M.M.M.V.V.8.% @ @ @ @ @ @ @ @ @ @ @ @ @ @ @ @ @ @ @ @ @ @ @ @ @ @ @ @ @ @ @ @ @ @ @ @ @ @ @ @ @ 3 l n _ O.I.W.@X*X7XqXqXqXqXqXqXqXqXqX@X9 @ @ @ @ @ @ @ @ @ @ @ @ @ @ @ @ @ @ @ : a.D.N.M.M.M.M.M.M.M.M.M.M.M.M.M.M.M.M.M.V.M.M.M.M.M.Z.J.z.U % @ *                                                                                                                                                                                                                                                                                                                                                                                                                                                                                                                                   t.",
"t.                                                                                                    * @ L n.C.M.M.M.M.M.M.M.M.M.M.M.M.M.M.M.M.M.M.M.M.M.V.M.M.V.V.M.M.M.M.M.M.M.M.M.M.M.V.M.M.M.M.M.M.V.M.M.M.M.M.M.M.M.M.M.M.M.M.M.M.M.M.M.M.M.M.M.M.M.M.M.M.M.M.M.M.M.M.M.M.M.M.M.M.M.M.V.V.C.Z.D.J.J.J.H.Z.V.n.c.g.s.r.8.T K j s 7 ; @ @ % 7 % 7 f.H.M.V.V.M.M.V.M.M.M.M.D.k.s @ @ @ @ @ @ @ @ @ @ @ @ @ @ @ @ @ @ @ @ @ @ @ @ @ @ @ @ @ @ @ @ @ @ @ $ 3 l H ' +.U.!.#X=X7XqXqXqXqXqXqXqXqXqXqXqXqXqXqXqXI.@ @ @ @ @ @ @ @ @ @ @ @ @ @ @ @ @ @ @ @ : i.D.V.M.M.M.M.V.V.M.M.M.V.M.M.M.M.M.M.M.M.M.M.M.M.M.M.V.J.b.R % @ *                                                                                                                                                                                                                                                                                                                                                                                                                                                                                                                                 t.",
"t.                                                                                                    * @ U M.C.M.M.M.M.M.M.M.M.M.M.M.M.M.M.M.M.M.M.M.M.M.M.M.M.M.M.M.M.M.M.M.M.M.M.M.M.M.V.V.M.M.M.M.M.M.M.M.M.M.M.M.M.M.M.M.M.V.M.M.M.M.M.M.M.M.M.M.M.M.M.M.M.M.M.M.M.M.M.M.M.M.V.C.Z.D.J.J.H.Z.M.b.x.g.a.w.W U G f p 5 ; @ @ @ @ @ @ @ @ @ @ @ @ G n.Z.M.M.M.M.M.M.M.M.M.V.J.a.; @ @ @ @ @ @ @ @ @ @ @ @ @ @ @ @ @ @ @ @ @ @ @ @ @ @ @ @ @ * q z ~ o.h.E.~.&X<X9XqXqXqXqXqXqXqXqXqXqXqXqXqXqXqXqXqXqXqXqXqX] @ @ @ @ @ @ @ @ @ @ @ @ @ @ @ @ @ @ @ @ 6 d.D.V.M.M.M.M.M.M.M.M.M.M.M.M.M.M.M.M.M.M.M.M.M.M.M.M.M.N.D.M.E ; @ *                                                                                                                                                                                                                                                                                                                                                                                                                                                                                                                               t.",
"t.                                                                                                    * @ T C.C.M.M.M.M.M.M.M.M.M.M.M.M.M.M.M.M.M.M.M.M.M.M.M.M.M.M.M.M.M.M.V.M.M.M.M.M.M.M.M.M.M.M.M.M.M.M.M.M.V.M.M.M.M.M.M.M.M.M.M.M.V.M.M.M.M.V.M.M.M.M.V.V.V.V.Z.Z.Z.Z.D.D.D.C.m.v.k.f.i.0.E I F s 7 : $ @ @ @ @ @ @ @ @ @ @ @ @ @ @ @ @ @ @ @ J n.C.M.M.M.M.M.M.M.N.M.N.J.a.; @ @ @ @ @ @ @ @ @ @ @ @ @ @ @ @ @ @ @ @ @ @ @ 3 k n / O.I.W.#X=X7XqXqXqXqXqXqXqXqXqXqXqXqXqXqXqXqXqXqXqXqXqXqXqXqXqXqXqX7X~ @ @ @ @ @ @ @ @ @ @ @ @ @ @ @ @ @ @ @ @ F v.D.M.V.M.M.M.M.M.M.M.M.M.M.M.M.M.V.M.M.M.M.M.M.M.M.M.M.M.M.D.M.W : @ *                                                                                                                                                                                                                                                                                                                                                                                                                                                                                                                             t.",
"t.                                                                                                    * @ E Z.V.M.M.V.V.M.M.M.M.M.M.M.V.M.M.M.M.V.M.M.M.M.M.M.M.M.M.M.M.M.M.M.M.M.M.M.M.M.M.M.M.M.M.M.M.M.M.M.M.M.M.M.M.V.V.M.M.M.M.M.M.M.M.M.V.V.C.Z.Z.D.D.D.D.D.Z.V.n.x.g.s.y.9.T L j s 6 ; @ @ @ @ @ @ @ @ @ @ @ @ @ @ @ @ @ @ @ @ @ @ @ @ @ @ @ F v.Z.M.M.M.M.M.M.M.N.N.N.D.k.p @ @ @ @ @ @ @ @ @ @ @ @ @ @ @ @ * q z Q ] +.Y.!.$X>X9XqXqXqXqXqXqXqXqXqXqXqXqXqXqXqXqXqXqXqXqXqXqXqXqXqXqXqXqXqXqXqXqXqX1Xm @ @ @ @ @ @ @ @ @ @ @ @ @ @ @ @ @ @ @ % e.D.C.M.V.M.M.M.M.M.M.M.M.M.M.M.M.M.M.M.M.M.M.M.M.M.M.M.M.M.M.M.D.M.E % @ 2                                                                                                                                                                                                                                                                                                                                                                                                                                                                                                                           t.",
"t.                                                                                                    @ @ W Z.V.M.M.M.M.M.M.M.M.V.V.M.M.M.M.M.M.M.M.M.M.M.M.M.M.M.V.M.M.M.V.M.M.M.M.M.M.M.M.M.M.M.M.M.M.M.M.N.N.M.M.M.M.N.N.N.N.M.V.V.C.Z.D.J.J.J.D.Z.V.b.c.j.s.r.W T K j s 7 : @ @ @ @ @ @ @ @ @ @ @ @ @ @ @ @ @ @ @ @ @ @ @ @ @ @ @ @ @ @ @ @ @ @ K n.C.M.M.M.M.M.M.M.M.M.M.V.M.R @ @ @ @ @ @ @ @ @ @ * q b ~ o.h.E.~.$X<X9XqXqXqXqXqXqXqXqXqXqXqXqXqXqXqXqXqXqXqXqXqXqXqXqXqXqXqXqXqXqXqXqXqXqXqXqXqXqXqX7XH @ @ @ @ @ @ @ @ @ @ @ @ @ @ @ @ @ @ @ T m.D.M.M.M.M.M.M.M.M.M.M.M.M.M.M.M.M.M.V.M.M.M.M.M.M.M.M.M.M.M.M.M.H.b.L @ @                                                                                                                                                                                                                                                                                                                                                                                                                                                                                                                           t.",
"t.                                                                                                    @ @ 8.Z.V.M.M.M.M.M.M.M.M.M.M.M.M.M.M.M.V.M.M.M.M.M.M.M.M.M.M.M.M.M.V.M.M.M.M.M.M.M.M.M.M.M.M.M.M.M.N.N.N.M.M.M.M.V.V.Z.Z.J.J.J.Z.N.v.x.f.a.w.W U G d p 5 ; @ @ @ @ @ @ @ @ @ @ @ @ @ @ @ @ @ @ @ @ @ @ @ @ @ @ @ @ @ @ @ @ @ @ @ @ @ @ @ @ : r.D.V.M.M.M.M.M.M.M.M.M.M.M.Z.x.Y 6 % @ @ @ z _ O.I.W.#X*X1XqXqXqXqXqXqXqXqXqXqXqXqXqXqXqXqXqXqXqXqXqXqXqXqXqXqXqXqXqXqXqXqXqXqXqXqXqXqXqXqXqXqXqXqXqXqX9X/ @ @ @ @ @ @ @ @ @ @ @ @ @ @ @ @ @ s 9.b.Z.M.M.M.V.V.M.M.M.M.M.M.M.M.M.M.M.M.M.M.M.M.M.M.M.M.M.M.M.M.M.M.M.V.J.z.h @ @                                                                                                                                                                                                                                                                                                                                                                                                                                                                                                                         t.",
"t.                                                                                                    @ $ 9.Z.V.M.M.M.M.M.M.M.M.M.M.M.M.M.M.M.M.M.V.M.M.M.M.M.M.M.M.M.M.M.M.M.M.M.M.M.M.M.M.M.M.M.V.V.V.V.C.V.Z.Z.D.D.D.V.m.c.k.f.i.0.E I F d 7 : @ @ @ @ @ @ @ @ @ @ @ @ @ @ @ @ @ @ @ @ @ @ @ @ @ @ @ @ @ @ @ @ @ @ @ @ @ @ @ @ @ @ @ @ @ @ @ @ F f.Z.Z.V.N.M.M.M.M.M.M.M.M.M.M.J.m.Y @ * ] W.>X9XqXqXqXqXqXqXqXqXqXqXqXqXqXqXqXqXqXqXqXqXqXqXqXqXqXqXqXqXqXqXqXqXqXqXqXqXqXqXqXqXqXqXqXqXqXqXqXqXqXqXqXqXqXo.@ @ @ @ @ @ @ @ @ @ @ @ @ @ 5 F 9.z.Z.Z.M.M.M.M.M.M.M.M.M.M.M.M.M.M.M.M.M.M.M.M.M.M.M.M.M.M.M.M.V.M.M.M.M.M.V.J.d.i @ *                                                                                                                                                                                                                                                                                                                                                                                                                                                                                                                       t.",
"t.                                                                                                    * % 9.Z.V.M.M.M.M.M.M.M.M.M.M.M.M.M.M.M.M.M.M.M.M.M.M.M.V.M.M.M.M.M.M.M.M.M.M.B.V.C.Z.Z.D.D.D.D.D.Z.V.b.c.j.s.y.9.R L j s 6 ; @ @ @ @ @ @ @ @ @ @ @ @ @ @ @ @ @ @ @ @ @ @ @ @ @ @ @ @ @ @ @ @ @ @ @ @ @ @ @ @ @ @ @ @ @ @ @ @ @ @ @ @ @ @ @ 5 d R j.Z.C.M.M.M.M.M.M.M.M.M.V.D.a.i @ O.7XqXqXqXqXqXqXqXqXqXqXqXqXqXqXqXqXqXqXqXqXqXqXqXqXqXqXqXqXqXqXqXqXqXqXqXqXqXqXqXqXqXqXqXqXqXqXqXqXqXqXqXqXqXqXqXqXI.@ @ @ @ @ @ @ @ @ @ @ 7 G W s.b.D.J.V.m.M.M.M.M.M.M.M.M.M.M.M.V.M.M.V.M.M.M.M.M.M.M.M.M.M.M.V.M.V.M.M.M.M.M.M.C.D.9.; @                                                                                                                                                                                                                                                                                                                                                                                                                                                                                                                       t.",
"t.                                                                                                    * ; 9.Z.V.M.M.V.M.M.M.M.V.M.M.M.M.M.M.M.M.M.M.V.V.M.M.M.M.M.M.M.M.V.V.C.Z.D.J.J.J.D.Z.V.n.c.g.s.r.W T K j s 7 : $ @ @ @ @ @ @ @ @ @ @ @ @ @ @ @ @ @ @ @ @ @ @ @ @ @ @ @ @ @ @ @ @ @ @ @ @ @ @ @ @ @ @ @ @ @ @ @ @ @ # * @ @ @ @ @ @ @ @ @ @ @ @ @ h d.Z.N.M.M.M.M.M.M.M.M.Z.z.f @ ' 1XqXqXqXqXqXqXqXqXqXqXqXqXqXqXqXqXqXqXqXqXqXqXqXqXqXqXqXqXqXqXqXqXqXqXqXqXqXqXqXqXqXqXqXqXqXqXqXqXqXqXqXqXqXqXqXqX7Xh.@ @ @ @ @ @ @ : d I 9.d.v.Z.D.D.C.M.M.V.M.M.M.M.M.M.M.M.M.M.V.M.M.M.M.M.M.M.V.M.V.V.M.M.M.M.M.M.M.M.M.M.M.M.M.M.Z.b.K @ @                                                                                                                                                                                                                                                                                                                                                                                                                                                                                                                     t.",
"t.                                                                                                    @ ; 9.Z.V.M.M.V.M.M.M.M.M.V.M.M.M.M.V.M.M.M.M.M.M.M.M.M.M.M.M.V.D.J.H.Z.V.b.x.f.a.w.W Y J f p 5 ; @ @ @ @ @ @ @ @ @ @ @ @ @ @ @ @ @ @ @ @ @ @ @ @ @ @ @ @ @ @ @ @ @ @ @ @ @ @ @ @ @ @ @ @ @ @ @ @ @ @ @ @ @ , q z ! b * @ @ @ @ @ @ @ @ @ @ @ @ @ @ F x.Z.M.M.M.M.M.M.M.V.Z.9.@ z *XqXqXqXqXqXqXqXqXqXqXqXqXqXqXqXqXqXqXqXqXqXqXqXqXqXqXqXqXqXqXqXqXqXqXqXqXqXqXqXqXqXqXqXqXqXqXqXqXqXqXqXqX1X&X!.I.] m 9 @ @ @ 5 d L 8.a.z.m.S.Z.Z.V.V.M.M.M.M.M.M.M.M.M.M.M.M.M.M.M.M.M.M.M.V.V.M.M.M.M.M.M.M.M.M.V.M.M.M.M.M.M.M.M.M.M.V.H.d.i @ ,                                                                                                                                                                                                                                                                                                                                                                                                                                                                                                                   t.",
"t.                                                                                                    * % 9.Z.V.M.M.M.M.M.M.M.M.M.M.M.M.M.M.M.M.M.M.M.M.M.M.M.M.M.Z.V.k.p.0.E I F d 7 : @ @ @ @ @ @ @ @ @ @ @ @ @ @ @ @ @ @ @ @ @ @ @ @ @ @ @ @ @ @ @ @ @ @ @ @ @ @ @ @ @ @ @ @ @ @ @ @ @ @ @ @ @ # 2 w b ~ ] +.U.W.$X>XU.e @ @ @ @ @ @ @ @ @ @ @ @ @ @ @ % r.D.M.M.M.M.M.V.M.C.n.G @ I.qXqXqXqXqXqXqXqXqXqXqXqXqXqXqXqXqXqXqXqXqXqXqXqXqXqXqXqXqXqXqXqXqXqXqXqXqXqXqXqXqXqXqXqXqXqXqX7X=X#XW.h.] n w * @ @ @ 7 d L 9.s.x.M.D.J.Z.V.N.N.M.M.M.M.M.M.M.M.M.M.M.M.M.V.M.M.M.M.M.M.M.M.M.M.M.M.M.M.M.M.M.M.M.M.M.M.M.M.M.M.M.M.M.M.M.Z.Z.W $ @                                                                                                                                                                                                                                                                                                                                                                                                                                                                                                                   t.",
"t.                                                                                                    @ $ 9.Z.V.M.M.M.M.M.M.M.M.M.M.M.M.M.M.M.M.M.M.M.M.M.M.M.M.Z.c.W s ; @ @ @ @ @ @ @ @ @ @ @ @ @ @ @ @ @ @ @ @ @ @ @ @ @ @ @ @ @ @ @ @ @ @ @ @ @ @ @ @ @ @ @ @ @ @ @ @ @ @ @ @ @ * q l n / o.h.Y.!.#X>X7X0XqXqXqXqX#Xl @ @ @ @ @ @ @ @ @ @ @ @ @ @ @ @ @ W Z.V.M.M.M.M.V.M.Z.c.s # !.qXqXqXqXqXqXqXqXqXqXqXqXqXqXqXqXqXqXqXqXqXqXqXqXqXqXqXqXqXqXqXqXqXqXqXqXqXqXqXqXqX7X=X#XW.I.O.! x 9 @ @ @ @ 5 d L W y.f.c.N.D.J.J.Z.C.M.N.N.N.N.M.M.M.M.M.M.M.M.M.M.M.M.M.M.M.M.M.M.M.M.M.M.M.M.M.M.M.M.M.M.M.M.M.M.M.M.M.M.M.M.M.M.M.M.M.M.J.x.f @ *                                                                                                                                                                                                                                                                                                                                                                                                                                                                                                                 t.",
"t.                                                                                                    * @ 8.Z.V.M.M.M.M.M.M.M.M.M.M.M.M.M.M.M.M.M.M.M.M.M.M.M.Z.v.L @ @ @ @ @ @ @ @ @ @ @ @ @ @ @ @ @ @ @ @ @ @ @ @ @ @ @ @ @ @ @ @ @ @ @ @ @ @ @ @ @ @ @ @ @ @ @ @ @ * 9 l m / O.I.E.!.$X=X1XqXqXqXqXqXqXqXqXqXqXqX<XQ @ @ @ @ @ @ @ @ @ @ @ @ @ @ @ @ @ @ W Z.V.M.M.M.M.M.M.Z.c.d # !.qXqXqXqXqXqXqXqXqXqXqXqXqXqXqXqXqXqXqXqXqXqXqXqXqXqXqXqXqXqXqXqXqXqX9X<X&X~.E.I.O./ c 0 - @ @ @ % 7 f L W y.d.x.m.Z.D.D.D.Z.C.V.M.M.M.M.M.M.M.M.M.M.M.M.M.M.M.M.M.M.M.M.M.M.M.M.M.M.M.M.M.M.M.M.M.M.M.M.M.V.M.M.M.M.M.M.M.V.M.M.M.V.M.M.M.M.C.H.9.$ @                                                                                                                                                                                                                                                                                                                                                                                                                                                                                                                 t.",
"t.                                                                                                    @ @ W Z.V.M.M.M.M.M.M.M.M.M.M.M.M.M.M.M.M.M.M.M.M.M.M.V.D.0.$ @ @ @ @ @ @ @ @ @ @ @ @ @ @ @ @ @ @ @ @ @ @ @ @ @ @ @ @ @ @ @ @ @ @ @ @ @ @ @ @ @ @ 1 q l m ' O.I.W.~.&X,X7XqXqXqXqXqXqXqXqXqXqXqXqXqXqXqXqXqXqXI.@ @ @ @ @ @ @ @ @ @ @ @ @ @ @ @ @ @ % r.D.M.M.M.M.M.M.M.C.m.K @ +.qXqXqXqXqXqXqXqXqXqXqXqXqXqXqXqXqXqXqXqXqXqXqXqXqXqX9X7X>X$X~.E.I.O._ m l 3 # @ @ @ ; 7 f K T 0.a.j.v.m.Z.D.Z.Z.C.V.V.V.M.M.M.M.M.M.M.M.M.M.M.M.M.M.M.M.M.M.M.M.M.M.M.M.M.M.M.M.M.M.M.M.M.M.M.M.M.M.M.M.M.M.M.M.M.V.M.M.M.M.M.M.M.V.M.M.M.M.M.D.x.h @ *                                                                                                                                                                                                                                                                                                                                                                                                                                                                                                               t.",
"t.                                                                                                    @ @ E C.C.M.M.V.M.M.M.M.V.M.M.M.M.M.V.M.M.M.M.V.M.M.M.Z.M.L @ @ @ @ @ @ @ @ @ @ @ @ @ @ @ @ @ @ @ @ @ @ @ @ @ @ @ @ @ @ @ @ @ @ @ # 2 w b ~ ] +.U.W.#X*X1X9XqXqXqXqXqXqXqXqXqXqXqXqXqXqXqXqXqXqXqXqXqXqXqXqX*Xn @ @ @ @ @ @ @ @ @ @ @ @ @ @ @ @ @ @ d j.Z.M.M.M.M.M.M.M.V.D.w.$ w !.qXqXqXqXqXqXqXqXqXqXqXqXqX9X7X1X>X*X&X#X~.W.Y.h.O.] Q b w 3 # @ @ @ $ 5 a j L E q.a.j.v.m.Z.H.J.D.Z.C.V.M.M.M.M.M.M.M.M.V.M.M.M.M.V.M.M.M.V.M.M.M.M.M.M.M.M.V.M.V.M.M.M.M.M.M.V.M.M.M.M.M.M.M.M.M.M.M.M.M.M.M.M.M.M.M.M.M.M.M.M.M.M.M.M.M.M.M.D.9.% @                                                                                                                                                                                                                                                                                                                                                                                                                                                                                                               t.",
"t.                                                                                                    * @ T V.C.M.M.M.M.M.M.M.M.V.M.M.M.M.V.M.M.M.M.V.M.M.M.D.m.J @ @ @ @ @ @ @ @ @ @ @ @ @ @ @ @ @ @ @ @ @ @ @ @ @ @ @ @ * q l n / o.h.Y.!.#X=X7XqXqXqXqXqXqXqXqXqXqXqXqXqXqXqXqXqXqXqXqXqXqXqXqXqXqXqXqXqXqXqXqXE.* @ @ @ @ @ @ @ @ @ @ @ @ @ @ @ @ @ @ W C.V.V.C.C.Z.Z.D.D.D.L.n.I @ w o.U.E.E.Y.U.h.+.O.o.' / ~ m n z l k q 3 1 % @ @ @ @ @ $ 5 a G U W e.p.f.z.b.V.Z.J.J.J.H.Z.Z.V.M.M.M.M.M.M.M.M.M.M.M.M.M.M.M.M.M.M.V.V.M.M.M.M.M.M.V.V.M.M.M.M.M.V.M.M.M.M.V.M.V.M.M.M.V.M.M.M.M.V.M.M.M.M.M.M.M.M.M.M.M.M.M.M.M.M.M.M.M.M.M.M.D.k.d @ ,                                                                                                                                                                                                                                                                                                                                                                                                                                                                                                             t.",
"t.                                                                                                    * @ U M.C.M.M.M.M.M.M.M.M.M.M.M.M.M.M.M.M.M.M.M.M.M.M.Z.Z.T @ @ @ @ @ @ @ @ @ @ @ @ @ @ @ @ @ @ @ @ @ * 9 l m / O.h.E.!.#X=X7XqXqXqXqXqXqXqXqXqXqXqXqXqXqXqXqXqXqXqXqXqXqXqXqXqXqXqXqXqXqXqXqXqXqXqXqXqXqXqX+.@ @ @ @ @ @ @ @ @ @ @ @ @ @ @ @ @ @ j c.J.J.J.J.D.Z.m.v.k.d.i.w.Y 6 @ @ @ @ @ @ @ @ @ @ @ @ @ @ @ @ @ @ @ @ @ @ @ @ @ @ @ ; 5 i j Y q.f.b.J.P.P.J.Z.Z.V.V.M.M.M.M.M.M.M.M.M.M.M.V.M.M.M.M.M.M.M.M.M.M.M.M.M.M.V.M.M.M.M.M.M.M.M.M.M.M.M.M.M.M.M.M.M.M.M.M.M.M.M.M.M.M.M.V.M.M.M.M.M.M.M.M.M.M.M.M.V.M.M.V.M.M.M.M.M.C.C.R @ @                                                                                                                                                                                                                                                                                                                                                                                                                                                                                                             t.",
"t.                                                                                                    * @ L n.C.M.M.M.M.M.M.M.M.M.M.M.M.M.M.M.M.M.M.M.M.M.M.V.D.a.: @ @ @ @ @ @ @ @ @ @ @ @ @ * q l m _ O.I.E.~.&X,X7XqXqXqXqXqXqXqXqXqXqXqXqXqXqXqXqXqXqXqXqXqXqXqXqXqXqXqXqXqXqXqXqXqXqXqXqXqXqXqXqXqXqXqXqXqX9X] @ @ @ @ @ @ @ @ @ @ @ @ @ @ @ @ @ j j.J.b.x.d.u.8.T J h p 5 @ @ @ @ @ @ # @ @ @ # - 4 4 r r t t M M B N N N N N N N B M r @ * 1 @ @ @ 5 f U y.x.C.H.Z.M.M.M.M.M.M.M.M.V.M.M.M.M.V.M.M.M.M.M.M.M.M.M.M.M.M.V.M.M.M.M.M.M.M.M.M.M.M.M.M.M.M.M.M.M.M.M.M.M.M.M.M.M.M.M.M.M.V.M.M.M.M.M.M.M.M.M.M.M.M.M.M.M.M.M.M.M.M.M.V.D.s.6 @                                                                                                                                                                                                                                                                                                                                                                                                                                                                                                             t.",
"t.                                                                                                    * @ G v.Z.V.M.M.M.M.M.M.M.M.M.M.M.M.M.V.V.M.M.M.M.M.M.M.C.m.W 5 @ @ @ @ # 2 w b ~ ] +.U.W.#X=X1X9XqXqXqXqXqXqXqXqXqXqXqXqXqXqXqXqXqXqXqXqXqXqXqXqXqXqXqXqXqXqXqXqXqXqXqXqXqXqXqXqXqXqXqXqXqXqXqXqXqXqXqXqX7X_ @ @ @ @ @ @ @ @ @ @ @ @ @ @ @ @ i R 9.U j a 5 $ @ @ @ # 9 l n ! o.+.! @ r @.$.$.$.$.$.$.%.%.%.%.&.&.2.2.2.2.2.2.&.&.2.$.r $ O.W.I.o.Q k # @ @ p Y s.m.D.C.M.M.M.M.M.M.M.M.M.M.M.M.M.M.M.M.M.V.M.M.M.M.M.M.M.M.M.M.M.M.M.M.M.M.M.M.M.V.M.M.M.M.M.V.M.M.M.M.M.M.M.M.M.M.M.M.M.M.M.M.M.V.V.M.M.M.M.M.M.M.M.M.M.M.M.M.M.M.D.n.J @ *                                                                                                                                                                                                                                                                                                                                                                                                                                                                                                           t.",
"t.                                                                                                    * @ h x.Z.M.M.M.M.M.M.V.V.M.V.M.M.M.M.M.M.M.M.M.M.M.M.M.M.Z.V.0.i @ k +.Y.!.#X=X7X0XqXqXqXqXqXqXqXqXqXqXqXqXqXqXqXqXqXqXqXqXqXqXqXqXqXqXqXqXqXqXqXqXqXqXqXqXqXqXqXqXqXqXqXqXqXqXqXqXqXqXqXqXqXqXqXqXqXqXqX9X_ @ @ @ @ @ @ @ @ @ @ @ @ @ @ @ @ ; ; @ @ @ 2 k m _ O.I.E.Q.#X%X:X3X8X@Xl @ N %.3.3.3.3.2.2.2.2.2.&.&.&.&.&.&.&.&.&.2.&.N @ b %XqX6X3X:X@XE.o.b @ @ : I d.C.D.V.M.M.M.M.M.M.M.M.M.M.M.M.M.M.M.V.M.M.M.M.M.M.M.M.M.M.M.M.M.M.M.V.M.M.M.M.M.M.M.M.M.M.M.M.M.V.V.M.M.M.M.M.M.M.M.M.M.V.V.M.M.M.M.M.M.M.M.M.M.M.M.M.M.M.M.M.C.H.9.$ @                                                                                                                                                                                                                                                                                                                                                                                                                                                                                                           t.",
"t.                                                                                                    , @ d k.Z.M.M.V.M.M.M.M.M.M.M.M.M.M.M.M.M.M.M.M.M.M.M.V.M.Z.n.T $ 1 Y.qXqXqXqXqXqXqXqXqXqXqXqXqXqXqXqXqXqXqXqXqXqXqXqXqXqXqXqXqXqXqXqXqXqXqXqXqXqXqXqXqXqXqXqXqXqXqXqXqXqXqXqXqXqXqXqXqXqXqXqXqXqXqXqXqXqXqXO.@ @ @ @ @ @ @ @ @ @ @ % @ @ @ 3 k n _ +.U.W.@X%X:X3X5X6X6X6X6X5X5X5X5XE.k @ r @.$.&.2.2.2.2.&.&.&.&.&.&.&.&.&.2.2.%.N @ % Y.6X4X3X5X6X6X6X3X$XY./ 3 @ 7 8.b.H.V.M.M.M.M.M.M.M.M.M.M.M.M.M.V.M.M.M.M.M.M.M.M.M.M.M.M.M.M.M.M.M.M.M.M.M.M.M.M.M.M.M.M.M.M.M.M.V.M.M.M.M.M.M.M.M.M.M.M.M.M.M.M.M.M.M.M.M.M.V.V.M.M.M.M.V.V.J.g.7 @                                                                                                                                                                                                                                                                                                                                                                                                                                                                                                           t.",
"t.                                                                                                    2 @ p f.Z.M.M.M.M.M.M.M.M.M.M.M.M.M.M.M.M.M.M.M.V.M.M.V.Z.V.E @ 9 Y.9XqXqXqXqXqXqXqXqXqXqXqXqXqXqXqXqXqXqXqXqXqXqXqXqXqXqXqXqXqXqXqXqXqXqXqXqXqXqXqXqXqXqXqXqXqXqXqXqXqXqXqXqXqXqXqXqXqXqXqXqXqXqXqXqXqXqX9X+.@ @ @ @ @ @ @ @ % s L a @ Q I.W.@X%X:X4X6X5X5X4X4X3X3X3X2X2X2X2X2X2X3X4XQ.Q @ @ 4 M @.#.$.%.&.&.2.2.2.2.2.2.&.%.#.M @ % +.2X4X2X2X2X2X2X3X3X5X6X:XW.! @ @ I c.H.V.M.M.M.M.M.M.M.V.V.M.M.M.M.M.M.M.M.M.M.M.M.M.M.M.M.M.M.M.V.M.M.M.M.M.M.M.M.M.M.M.M.M.M.M.M.M.M.M.M.M.M.M.M.M.M.M.V.M.M.M.M.M.M.V.M.M.M.M.M.M.M.M.M.M.M.D.n.G @ *                                                                                                                                                                                                                                                                                                                                                                                                                                                                                                         t.",
"t.                                                                                                      @ 6 a.D.M.M.M.M.M.M.M.M.M.M.M.M.M.M.M.M.M.M.M.M.M.M.M.D.d.5 - Y.qXqXqXqXqXqXqXqXqXqXqXqXqXqXqXqXqXqXqXqXqXqXqXqXqXqXqXqXqXqXqXqXqXqXqXqXqXqXqXqXqXqXqXqXqXqXqXqXqXqXqXqXqXqXqXqXqXqXqXqXqXqX9X,X$X!.U.O./ w @ @ @ @ : p F R u.v.d.5 0 @XqX8X6X5X3X2X2X2X2X2X2X2X2X2X2X2X2X2X2X2X2X3X6X%XU.H 5 @ @ # 4 t B N @.#.#.#.#.@.N t # @ k U.2X5X2X2X2X2X2X2X2X2X2X2X5X8X:Xh.q @ K c.D.M.M.M.M.M.M.M.M.M.M.M.M.M.M.M.M.M.M.M.M.M.V.M.M.M.M.M.M.M.V.M.M.M.M.V.M.M.M.M.V.M.M.M.M.M.M.M.M.M.M.M.M.V.M.M.M.M.M.V.M.M.M.M.M.M.M.M.M.M.M.M.M.M.M.M.C.D.W @ *                                                                                                                                                                                                                                                                                                                                                                                                                                                                                                         t.",
"t.                                                                                                      @ ; r.D.M.M.M.M.M.M.M.M.M.V.V.M.V.M.M.M.M.M.M.M.M.M.C.Z.E @ / 9XqXqXqXqXqXqXqXqXqXqXqXqXqXqXqXqXqXqXqXqXqXqXqXqXqXqXqXqXqXqXqXqXqXqXqXqXqXqXqXqXqXqXqXqXqXqXqXqXqXqXqXqXqXqXqXqX7X=X#XW.U.O./ n 0 # @ @ @ ; 7 h I 8.i.g.b.Z.L.P.9.@ ! :X6X2X2X2X2X2X2X2X2X2X2X2X2X2X2X2X2X2X2X2X2X2X3X6X6X:XQ.h.) b 7 ; @ @ @ @ # - - # @ @ k o.@X6X6X2X2X2X2X2X2X2X2X2X2X2X2X2X6X6XE.w @ Y n.Z.M.M.M.M.M.M.M.M.M.M.M.M.M.M.M.M.M.M.V.M.V.M.M.M.M.M.M.M.M.M.M.M.M.M.M.M.M.M.V.M.M.M.M.V.M.M.M.M.M.M.M.M.M.M.M.M.M.M.M.M.M.M.M.M.M.M.M.M.M.M.M.M.M.M.M.J.a.: @                                                                                                                                                                                                                                                                                                                                                                                                                                                                                                         t.",
"t.                                                                                                      @ $ 8.D.V.M.M.M.M.M.M.M.M.M.M.M.M.M.M.M.M.M.M.M.M.M.Z.m.J @ I.qXqXqXqXqXqXqXqXqXqXqXqXqXqXqXqXqXqXqXqXqXqXqXqXqXqXqXqXqXqXqXqXqXqXqXqXqXqXqXqXqXqXqXqXqXqXqXqXqXqX9X1X&X~.E.I.O./ c 0 - @ @ @ $ 5 s G T 9.p.f.x.M.Z.D.D.D.Z.D.m.J @ +.5X2X2X2X2X2X2X2X2X2X2X2X2X2X2X2X2X2X2X2X2X2X2X2X2X3X6X6X4X:X$XQ.Y.h.o.^ m z l 5 : ) U.@X2X6X4X2X2X2X2X2X2X2X2X2X2X2X2X2X2X2X6X8XY.1 ; u.D.M.M.M.M.M.M.V.M.M.M.M.M.V.M.M.M.M.V.M.M.M.V.M.M.M.M.M.M.M.M.M.M.M.M.M.M.M.M.M.M.M.M.M.M.M.M.M.M.M.M.M.M.M.M.M.M.M.M.M.M.M.M.V.M.V.M.M.M.M.M.M.M.M.M.M.D.z.s @                                                                                                                                                                                                                                                                                                                                                                                                                                                                                                         t.",
"t.                                                                                                      * @ T C.V.M.M.M.M.M.M.M.M.M.M.M.M.M.M.M.M.M.M.M.M.M.D.n.G @ E.qXqXqXqXqXqXqXqXqXqXqXqXqXqXqXqXqXqXqXqXqXqXqXqXqXqXqXqXqXqXqXqXqXqXqXqXqXqXqXqXqXqXqX7X,X&X~.E.I.O._ m l 3 @ @ @ @ ; 6 d J T 9.i.g.x.n.C.D.D.Z.Z.C.V.V.V.M.M.J.j.7 3 W.6X2X2X2X2X2X2X2X2X2X2X2X2X2X2X2X2X2X2X2X2X2X2X2X2X2X2X2X3X4X5X5X6X5X2X:X%X%X@XQ * E.qX6X3X2X2X2X2X2X2X2X2X2X2X2X2X2X2X2X2X2X2X6X3Xo.@ G b.Z.M.M.M.M.M.M.M.V.M.M.M.M.M.M.M.M.V.M.M.M.V.M.M.M.M.V.M.M.M.M.M.M.M.M.M.M.M.M.M.M.M.M.M.V.V.M.M.M.M.V.M.M.M.M.M.M.M.M.M.M.M.M.M.V.M.M.M.M.M.M.M.M.M.M.Z.n.K @ *                                                                                                                                                                                                                                                                                                                                                                                                                                                                                                       t.",
"t.                                                                                                      @ @ K m.C.M.M.M.V.M.M.M.M.M.V.M.M.M.M.M.M.V.V.M.M.M.Z.V.I @ O.qXqXqXqXqXqXqXqXqXqXqXqXqXqXqXqXqXqXqXqXqXqXqXqXqXqXqXqXqXqXqXqXqX9X7X<X*X#X~.E.I.+.] ! b w 3 @ @ @ @ $ 5 a j L E q.a.j.v.m.Z.H.J.H.Z.C.V.N.N.M.M.M.M.M.M.M.V.D.e.@ m %X4X2X2X2X2X2X2X2X2X2X2X2X2X2X2X2X2X2X2X2X2X2X2X2X2X2X2X2X2X2X2X2X2X2X3X4X5X6X5Xo.@ U.6X3X2X2X2X2X2X2X2X2X2X2X2X2X2X2X2X2X2X2X2X2X8X~.9 : f.H.M.M.M.M.M.M.M.M.M.M.M.M.M.M.M.M.M.M.M.M.M.M.M.M.M.M.M.M.M.M.M.M.M.M.V.V.V.M.M.M.M.M.M.M.M.M.M.M.M.M.M.M.M.M.M.V.M.M.M.M.M.M.M.M.M.M.M.M.M.M.M.M.M.M.V.Z.E @ @                                                                                                                                                                                                                                                                                                                                                                                                                                                                                                       t.",
"t.                                                                                                      * @ j c.Z.M.M.M.V.M.M.M.M.M.M.M.M.M.V.M.M.M.M.M.M.M.C.D.r.$ 4 U.,XqXqXqXqXqXqXqXqXqXqXqXqXqXqXqXqXqXqXqX9X7X<X>X&X#X~.!.E.U.h.O.] ! n u 0 - @ @ @ @ @ % 5 a j L R 0.i.d.z.b.V.Z.H.J.J.H.Z.Z.V.M.M.M.M.M.N.N.M.M.M.M.M.M.M.Z.V.U @ O.3X3X2X2X2X2X4X5X5X3X2X2X2X2X2X2X2X2X2X2X2X2X2X2X2X2X2X2X2X2X2X2X2X2X2X2X2X2X3X4X+.@ +.5X4X2X2X2X2X2X2X2X2X2X2X2X2X2X2X2X2X2X2X2X2X6X%Xb $ i.J.V.M.M.M.M.M.M.M.M.M.M.M.M.M.M.M.M.M.M.M.M.M.M.M.M.M.M.V.V.M.M.M.M.M.M.M.M.M.M.M.M.V.M.M.M.M.M.M.M.M.M.M.M.M.M.V.M.M.M.M.M.M.M.M.M.M.M.M.M.M.M.M.M.M.M.D.r.; @                                                                                                                                                                                                                                                                                                                                                                                                                                                                                                       t.",
"t.                                                                                                      * @ a j.D.M.V.V.M.M.M.M.M.M.M.V.V.M.M.M.V.M.M.M.M.V.M.Z.b.I @ # m O.U.W.!.~.~.~.~.~.!.!.W.E.E.Y.I.h.+.O.] / Q n x w 9 - # @ @ @ @ @ $ ; 6 a h K Y W w.p.f.k.v.m.Z.Z.D.D.D.D.Z.Z.C.V.M.M.M.M.V.M.M.M.V.M.M.M.M.M.M.M.M.M.M.D.x.d - E.6X3X2X2X2X6X5X:X3X8X8X6X4X3X2X2X2X2X2X2X2X2X2X2X2X2X2X2X2X2X2X2X2X2X2X2X2X2X3X5XU.@ o.5X4X2X2X2X2X2X2X2X2X2X2X2X2X2X2X2X2X2X2X2X2X8X@Xw ; s.J.M.M.M.M.M.M.M.M.M.M.M.M.M.M.M.M.M.M.M.M.M.M.M.M.M.M.M.M.M.M.M.M.M.M.M.M.M.M.M.M.M.M.M.M.M.M.M.M.M.M.M.V.M.M.M.M.M.M.M.M.M.M.V.M.M.M.M.M.M.M.M.M.M.V.M.D.s.7 @                                                                                                                                                                                                                                                                                                                                                                                                                                                                                                       t.",
"t.                                                                                                      , @ 5 s.J.M.M.M.M.M.M.M.M.M.M.M.M.M.M.M.M.M.M.M.M.M.M.M.Z.v.W p @ @ @ # 1 3 9 9 9 4 4 - - # @ @ @ @ @ @ @ @ $ ; : 6 p d j J I R 8.w.i.d.g.x.b.m.C.D.D.D.Z.Z.Z.C.V.V.V.V.M.M.M.M.M.M.M.M.M.M.V.M.M.M.M.M.M.M.V.M.M.M.M.M.V.D.p.% z $X6X2X2X3X8X:X+.m ..E.$X:X4X6X8X5X3X2X2X2X2X2X2X2X2X2X2X2X2X2X2X2X2X2X2X2X2X2X2X6XW.1 ] 2X5X2X2X2X2X2X2X2X2X2X2X2X2X2X2X2X2X2X2X3X8X2Xo.@ ; a.J.M.M.M.M.V.M.M.M.M.M.M.M.M.M.M.M.M.M.M.M.M.M.M.M.M.M.V.M.M.M.M.M.M.M.M.M.M.M.M.M.M.M.M.M.V.M.M.M.M.M.M.M.M.M.M.M.M.M.M.M.M.M.M.V.M.M.M.M.M.M.V.M.M.V.M.Z.j.d @                                                                                                                                                                                                                                                                                                                                                                                                                                                                                                       t.",
"t.                                                                                                        @ $ q.J.V.M.M.M.M.M.M.M.M.M.M.M.M.M.M.M.M.M.M.M.M.M.M.M.Z.Z.k.w.T J j f s a s s d d f h F G K I Y R W 9.w.u.a.d.j.z.c.b.m.V.Z.D.J.J.J.D.Z.Z.C.V.V.M.M.M.M.M.M.M.M.M.M.M.M.M.M.M.M.M.M.M.M.M.M.M.M.M.M.M.M.M.M.M.M.M.M.V.Z.E @ ] 2X5X2X5X5X@X~ $ 7 6 1 w Q O.Y.~.%X2X5X6X5X4X3X3X2X2X2X2X2X2X2X2X2X2X2X2X2X2X2X2X6X@Xe ! 2X5X2X2X2X2X2X2X2X2X2X2X2X2X2X2X2X3X3X6X6X$Xo.# @ @ U V.Z.M.M.M.M.M.M.M.M.M.M.M.M.M.V.M.M.V.M.M.M.M.M.M.M.M.M.M.M.M.M.M.M.V.M.V.M.M.M.M.M.M.V.M.M.M.M.V.M.M.M.M.M.M.M.M.M.M.M.M.M.M.M.M.M.M.M.M.M.M.V.M.M.M.M.Z.v.F @ ,                                                                                                                                                                                                                                                                                                                                                                                                                                                                                                     t.",
"t.                                                                                                        @ @ R Z.Z.M.M.M.M.M.M.M.M.M.M.M.M.M.M.M.M.M.M.M.M.M.M.M.M.Z.J.H.Z.m.b.c.x.z.z.z.x.c.v.b.n.n.m.V.V.Z.Z.D.J.J.J.J.J.J.H.D.Z.Z.C.V.V.V.M.M.M.M.M.M.M.M.M.M.M.M.M.M.M.M.M.M.M.M.M.M.M.M.M.M.M.M.M.M.M.M.M.M.M.M.M.M.M.M.M.Z.v.j @ Y.6X5X8X:Xh.0 ; E v.g.8.F 5 @ @ 9 b _ h.E.@X%X2X5X6X6X6X5X5X4X3X3X2X2X2X2X2X2X2X2X6X%Xz m :X6X2X2X2X2X2X2X2X2X2X2X3X3X5X6X6X6X2X@Xh.z @ 6 I 5 6 d.J.V.M.M.M.M.M.M.M.V.V.M.M.M.M.M.M.V.M.M.M.M.V.M.M.M.M.V.M.M.M.M.M.M.M.M.M.M.M.M.M.M.V.M.M.M.M.M.M.M.M.M.M.M.M.M.V.M.M.M.M.M.M.M.M.M.M.M.M.M.M.M.M.M.M.C.m.L @ *                                                                                                                                                                                                                                                                                                                                                                                                                                                                                                     t.",
"t.                                                                                                        @ @ K m.Z.M.M.M.M.M.M.M.M.M.M.M.M.M.M.M.M.M.M.M.M.M.M.M.M.M.M.V.Z.Z.D.D.D.D.D.D.D.D.D.D.D.D.Z.Z.Z.Z.Z.C.V.V.V.V.M.M.M.M.M.M.M.M.M.M.M.M.M.M.M.M.M.M.M.M.M.M.M.M.M.M.M.M.M.M.M.M.M.M.M.M.V.M.M.V.M.M.M.M.M.M.M.M.M.M.M.D.d.: w @XqX8X#X_ @ 7 y.C.J.D.D.n.f.0.L p $ @ @ - u Q o.I.E.@X%X:X3X5X6X8X8X8X6X6X5X5X4X4X8X2XQ z %X8X3X3X3X4X4X5X5X6X8X8X8X6X4X:X@XY.o.u @ @ d u.b.L @ T Z.Z.M.M.M.M.M.M.M.V.V.M.M.V.M.M.M.M.M.M.M.M.M.M.M.M.M.M.M.M.M.V.V.M.M.M.M.M.V.M.M.M.M.M.M.M.M.M.M.M.M.M.V.M.M.M.M.M.M.M.M.M.M.M.M.M.M.M.M.M.M.M.M.M.M.C.V.T @ *                                                                                                                                                                                                                                                                                                                                                                                                                                                                                                     t.",
"t.                                                                                                        * @ d x.J.M.M.M.M.M.M.M.M.M.V.M.M.M.M.M.M.M.M.M.V.M.M.M.M.M.M.M.M.M.M.M.V.M.M.M.M.M.M.M.M.M.M.M.M.V.M.M.M.M.M.M.M.M.M.M.M.V.V.M.M.M.M.M.M.M.M.M.M.M.M.M.M.M.M.M.M.M.M.M.M.M.V.M.M.M.M.M.M.M.M.M.M.M.M.M.M.M.M.M.M.M.M.D.9.@ / 4X5XY.x @ J j.D.C.M.V.V.C.Z.D.m.k.p.W K a : @ @ @ - w b ^ o.h.U.W.@X$X%X:X:X2X3X4X8X6Xo.k $XqX6X6X5X5X4X2X:X:X%X@XW.U.O.Q k # @ $ f 8.z.D.L.p.; 7 g.D.V.M.M.M.M.M.M.M.M.M.M.M.M.M.M.M.M.M.M.M.M.M.M.V.V.M.M.M.M.M.M.M.M.M.M.M.M.M.M.M.M.V.M.M.M.M.M.M.M.M.M.M.M.V.V.M.M.M.M.M.M.M.M.M.M.M.M.M.M.M.M.M.M.V.Z.W @ *                                                                                                                                                                                                                                                                                                                                                                                                                                                                                                     t.",
"t.                                                                                                        , @ 6 d.J.V.M.M.M.M.M.M.M.M.M.M.V.M.M.M.M.M.M.M.M.M.M.M.M.M.M.M.M.M.M.M.M.M.M.M.M.M.M.M.M.M.M.M.M.M.M.M.M.M.M.M.M.M.M.M.M.M.M.M.M.M.M.M.V.M.M.M.M.M.M.M.M.M.M.M.M.M.M.M.M.M.M.M.M.M.M.M.M.M.M.M.M.M.M.M.M.V.V.M.M.M.C.m.K @ h.%Xo.# ; W m.J.V.M.M.M.M.M.M.M.C.D.J.D.m.x.d.w.R J d 6 % @ @ @ @ 1 q k b H / ' o.O.+.h.Q e O.U.I.h.+.+.o.] / m z 0 1 @ @ @ : f Y i.v.D.D.V.Z.m.K @ R V.C.M.V.M.M.M.M.M.M.M.M.M.M.M.M.M.M.M.M.M.V.M.M.M.M.M.M.M.M.M.M.M.M.M.M.M.M.M.M.M.M.M.M.M.M.V.M.M.M.M.M.M.M.M.M.M.M.M.V.M.M.M.M.V.M.M.M.M.M.M.M.M.V.V.Z.9.$ *                                                                                                                                                                                                                                                                                                                                                                                                                                                                                                     t.",
"t.                                                                                                          @ $ q.H.C.V.V.M.M.M.M.M.M.M.M.M.M.M.M.V.V.M.M.M.M.M.M.M.M.M.M.M.M.M.M.M.M.M.M.M.M.M.M.M.M.M.M.M.M.M.M.M.M.M.M.M.M.M.M.M.M.M.M.M.M.M.M.V.V.M.M.M.M.M.M.M.V.V.V.M.M.M.M.M.V.M.M.M.M.M.M.M.M.M.M.M.M.M.M.M.M.M.M.M.M.D.k.a @ m m @ a i.Z.H.V.M.M.M.M.M.M.M.M.M.M.V.C.Z.J.J.J.Z.m.x.g.p.0.R L F s 7 : $ @ @ @ @ @ @ @ @ @ @ @ @ @ @ @ @ @ @ @ % 6 s G Y 0.d.c.C.J.H.C.M.M.V.J.a.: i g.D.M.M.M.M.M.M.M.M.M.M.M.M.M.M.M.V.M.M.M.M.M.M.M.M.M.M.M.M.M.M.M.M.M.M.M.M.M.M.M.M.M.M.M.M.V.M.M.M.M.M.M.M.M.M.M.M.M.V.M.M.M.M.M.M.M.M.M.V.M.M.M.M.V.Z.q.% @                                                                                                                                                                                                                                                                                                                                                                                                                                                                                                     t.",
"t.                                                                                                          @ @ T Z.Z.M.M.M.M.M.M.M.M.M.M.M.M.M.M.M.M.M.M.M.M.M.M.M.M.M.M.M.M.M.M.M.M.M.M.M.M.M.V.M.M.M.M.M.M.M.M.M.M.M.M.M.M.M.M.M.V.M.M.M.M.M.M.M.M.M.M.M.M.M.M.M.V.M.M.M.V.M.M.M.M.M.M.M.M.M.M.M.M.M.M.M.V.V.M.M.M.M.V.M.V.J.u.; @ @ @ K g.H.Z.M.M.M.M.M.M.M.M.M.M.M.M.M.M.M.M.V.V.Z.Z.D.D.D.Z.Z.m.v.z.g.s.i.e.9.W R Y I L K K J J K K I U T W 9.r.p.f.z.b.C.D.D.D.Z.V.M.M.M.M.M.D.m.J @ E Z.V.M.M.M.M.M.M.M.M.M.M.V.M.M.M.M.M.M.M.M.M.M.M.M.M.M.M.M.M.M.M.M.M.M.M.M.M.M.M.M.V.M.M.M.M.V.M.M.M.M.M.M.M.M.M.M.M.M.V.M.M.M.M.M.M.M.M.M.M.M.M.M.V.D.r.; @                                                                                                                                                                                                                                                                                                                                                                                                                                                                                                     t.",
"t.                                                                                                          * @ F b.D.M.M.M.M.M.M.M.M.M.M.M.M.M.M.M.M.M.M.M.V.V.V.M.M.M.M.M.M.M.M.M.M.M.M.M.M.M.M.M.M.M.V.M.M.M.M.M.M.M.V.V.M.M.M.M.M.M.M.V.M.M.M.M.M.M.M.M.M.M.M.M.V.M.M.M.M.M.M.M.M.M.M.M.M.M.V.M.M.M.M.M.M.M.M.M.M.M.M.M.Z.Z.Y @ @ 5 W b.H.V.M.M.M.M.M.M.M.M.M.M.M.M.M.M.M.M.M.M.M.M.M.V.V.V.V.V.C.Z.Z.Z.Z.D.D.D.D.Z.V.V.M.m.m.m.m.m.m.M.V.Z.Z.D.D.D.Z.Z.Z.C.V.V.M.M.M.M.M.M.M.M.V.J.p.; p k.D.M.M.M.M.M.M.M.M.M.M.M.M.M.M.M.M.M.M.M.M.M.M.M.M.M.M.M.M.M.M.M.M.M.M.M.M.M.M.M.M.M.M.M.M.M.M.M.M.M.M.M.M.M.M.M.M.M.M.M.M.M.M.M.M.M.M.V.M.M.M.M.V.D.y.: @                                                                                                                                                                                                                                                                                                                                                                                                                                                                                                     t.",
"t.                                                                                                          * @ i g.D.V.M.M.M.M.M.M.M.M.M.M.M.M.M.M.M.M.M.M.M.M.M.M.M.M.M.M.M.V.M.M.M.M.M.M.M.M.M.M.M.M.M.M.M.M.M.M.M.V.M.M.M.M.M.M.M.M.M.M.M.M.M.M.M.M.M.M.M.M.M.M.M.M.M.M.M.M.M.M.M.M.M.M.V.M.M.M.M.M.M.M.M.M.M.M.M.M.M.M.H.v.f @ h i.Z.D.M.M.M.M.M.M.V.M.M.M.M.M.M.M.M.M.M.M.M.M.M.M.M.M.M.M.M.M.M.M.M.M.M.M.M.M.V.V.V.V.C.C.C.C.C.C.C.V.V.V.V.M.M.M.M.M.M.M.M.M.M.M.M.M.M.M.M.M.M.Z.n.J @ W D.C.M.M.M.M.M.M.M.M.M.M.M.M.M.M.M.M.V.M.M.M.M.M.M.M.M.M.M.V.M.M.M.M.M.M.M.M.M.M.M.M.M.M.M.M.M.M.M.M.M.M.M.M.M.M.M.M.M.M.M.M.M.M.M.M.M.M.M.M.M.M.V.D.y.: @                                                                                                                                                                                                                                                                                                                                                                                                                                                                                                     t.",
"t.                                                                                                            @ ; r.D.V.M.M.M.M.M.M.M.M.M.V.M.M.V.M.M.M.M.M.M.M.M.M.M.M.M.M.M.V.M.V.M.M.M.M.M.M.M.M.M.M.M.M.M.M.M.M.M.M.M.M.M.M.M.M.M.M.M.M.M.M.M.M.V.M.M.M.V.V.M.M.M.M.M.M.M.M.V.M.M.M.M.M.M.M.M.M.M.M.M.M.M.M.M.M.M.M.M.V.J.s.: s j.J.Z.M.M.M.M.M.M.M.M.M.M.M.M.V.V.M.V.M.M.M.M.M.M.M.M.M.M.M.M.M.V.M.M.M.M.M.M.M.M.M.M.M.M.M.M.M.M.M.M.M.M.M.M.M.M.M.M.M.M.M.M.M.M.M.M.M.M.M.M.M.M.M.H.i.; a z.J.M.M.M.M.M.M.M.M.M.M.M.M.M.M.M.M.M.M.M.M.V.M.M.V.M.M.M.M.M.M.V.M.M.M.M.V.M.M.M.M.M.M.M.M.M.M.M.M.M.M.M.V.M.M.M.M.M.M.M.M.M.M.M.M.M.M.M.M.M.M.V.D.y.: @                                                                                                                                                                                                                                                                                                                                                                                                                                                                                                     t.",
"t.                                                                                                            @ @ T V.C.M.M.M.M.M.V.M.M.M.M.M.M.M.V.M.M.M.M.M.M.M.M.M.M.M.M.V.M.M.M.M.M.M.M.V.V.M.M.M.M.M.V.M.M.M.M.M.M.M.M.M.M.M.M.M.M.M.M.M.M.M.M.M.M.M.M.M.M.M.V.M.M.V.M.M.M.M.M.M.M.V.V.M.M.M.M.M.M.M.M.M.M.M.M.M.M.M.C.D.8.@ Y Z.Z.M.M.M.M.M.M.M.M.M.M.M.M.M.M.M.M.M.M.M.M.M.M.M.M.M.M.M.M.M.M.M.M.M.M.M.M.M.M.M.M.M.M.M.M.M.M.M.M.M.M.M.V.M.M.V.M.M.M.M.M.M.M.M.M.M.M.M.M.M.M.M.M.Z.n.J @ 9.J.C.M.M.M.M.M.M.M.M.M.M.M.M.M.M.V.V.M.M.M.M.M.M.M.M.M.M.V.V.M.V.M.M.M.M.M.M.M.M.M.M.M.M.M.M.M.M.M.M.M.Z.J.D.V.M.M.M.M.M.M.M.M.M.M.M.V.M.M.M.M.V.D.r.: @                                                                                                                                                                                                                                                                                                                                                                                                                                                                                                     t.",
"t.                                                                                                            * @ F c.Z.M.M.M.M.M.M.M.M.V.V.M.M.M.M.M.M.M.M.M.M.M.V.M.M.M.M.V.M.M.M.V.M.M.M.M.M.M.M.M.V.M.V.M.M.M.M.M.M.M.M.M.M.M.M.M.M.M.M.M.M.M.M.M.M.M.M.M.M.M.M.M.M.M.M.M.M.M.M.M.M.M.M.M.M.M.M.V.M.M.M.M.V.M.M.M.M.M.Z.m.J @ r.D.V.M.M.M.M.M.M.M.M.M.M.M.M.M.M.M.M.M.M.M.M.M.M.M.M.M.M.M.M.M.V.M.M.M.M.V.M.M.M.M.M.M.M.M.M.M.M.M.M.M.M.M.M.M.M.V.M.M.M.M.M.M.M.M.V.M.M.M.M.M.M.M.M.V.H.p.; f c.D.M.M.M.M.M.M.M.V.V.M.M.M.M.M.M.M.M.M.M.M.M.M.M.M.M.M.M.M.M.M.M.M.M.M.M.V.M.M.M.M.M.M.V.M.M.M.M.V.Z.M.j.c.D.Z.M.M.M.M.M.M.M.M.M.M.V.M.M.M.M.V.Z.w.; @                                                                                                                                                                                                                                                                                                                                                                                                                                                                                                     t.",
"t.                                                                                                            , @ 7 s.D.M.M.M.M.M.M.M.M.M.M.M.M.M.M.M.M.M.M.V.M.M.M.M.M.M.M.M.M.M.M.M.M.M.M.M.M.M.M.M.M.M.M.M.M.M.M.M.M.M.M.M.M.M.M.M.M.M.V.M.M.M.V.M.M.M.M.M.M.M.M.M.M.M.M.M.M.M.M.M.M.M.M.M.M.M.M.M.M.M.M.M.M.M.M.M.M.V.D.g.7 p k.D.M.M.M.M.M.M.M.M.M.M.M.M.M.M.M.V.M.M.M.M.M.M.M.M.M.M.V.M.M.M.M.M.M.M.M.M.M.M.M.M.M.M.M.M.V.M.M.M.M.M.M.M.M.M.M.M.M.M.M.M.M.M.M.M.M.M.V.M.M.M.M.V.M.M.Z.m.K @ 0.D.V.M.M.M.V.M.M.M.M.V.M.M.M.M.M.M.M.M.M.M.M.M.M.M.M.M.M.M.M.M.M.M.M.M.M.M.M.M.M.M.M.M.V.M.M.V.V.Z.v.T 7 f y.M.D.V.M.M.M.M.M.M.M.M.M.M.M.M.M.V.Z.9.$ @                                                                                                                                                                                                                                                                                                                                                                                                                                                                                                     t.",
"t.                                                                                                              @ $ 9.D.V.M.M.M.M.M.M.M.M.M.M.M.M.M.M.M.M.M.M.M.M.M.M.M.M.M.M.M.M.M.M.M.M.M.M.M.M.M.M.M.M.M.M.M.M.M.M.V.M.M.M.M.V.M.M.M.M.V.M.M.M.M.M.M.M.V.M.M.M.M.M.M.M.M.M.M.M.M.M.M.M.M.M.M.M.M.M.M.M.M.M.M.M.M.M.M.V.D.q.@ L V.Z.M.M.M.M.M.M.M.M.V.V.M.M.M.M.M.M.M.M.M.V.M.V.V.M.M.M.M.M.M.M.M.M.M.M.M.M.M.M.V.M.M.M.M.M.M.M.M.M.M.M.M.M.M.M.M.M.M.M.M.M.M.M.M.M.M.M.M.M.M.M.M.M.M.M.V.J.a.; f c.Z.M.M.M.M.M.M.M.M.M.M.M.M.M.M.M.M.M.M.M.V.V.M.M.M.M.M.M.M.M.M.M.M.M.M.M.M.M.V.V.M.M.M.M.M.V.Z.n.U @ @ @ : T k.H.Z.V.M.M.M.M.M.M.M.M.M.M.M.V.Z.W @ @                                                                                                                                                                                                                                                                                                                                                                                                                                                                                                     t.",
"t.                                                                                                              @ @ L m.C.M.M.M.M.M.M.M.M.M.M.M.M.M.M.M.M.M.M.M.M.M.M.M.M.M.M.M.M.M.M.M.V.M.M.M.M.M.M.V.M.M.M.M.M.M.M.M.M.M.M.V.M.M.M.V.M.M.M.M.M.M.V.V.M.M.M.M.M.M.M.M.M.M.M.M.M.M.M.M.M.M.M.M.M.M.M.M.M.M.V.M.M.M.M.M.C.V.U @ 0.H.C.M.M.M.M.M.M.V.M.M.M.M.M.M.M.M.M.V.V.M.M.M.V.M.M.M.M.V.M.M.M.M.M.M.M.M.M.M.M.M.M.M.M.M.M.M.M.M.M.M.M.M.M.M.M.M.M.M.M.M.M.M.V.M.M.M.M.M.M.M.M.M.M.M.M.M.D.m.J @ w.H.M.M.M.M.M.M.M.M.M.V.M.M.M.M.M.M.M.M.M.M.M.M.M.M.M.M.M.M.M.V.M.M.M.M.M.M.M.M.M.M.M.M.M.M.M.D.v.f @ @ $ @ @ h y.N.J.V.M.M.M.M.M.M.M.M.M.M.C.C.R @ *                                                                                                                                                                                                                                                                                                                                                                                                                                                                                                     t.",
"t.                                                                                                              * @ p j.H.M.M.M.M.M.M.M.M.M.M.M.M.M.M.M.M.M.M.M.M.M.M.M.M.M.M.M.M.M.M.M.V.M.M.M.M.M.M.M.V.M.M.M.M.M.M.M.M.M.M.V.M.M.M.M.M.M.M.V.M.M.M.M.M.M.M.M.M.M.M.M.M.M.M.M.M.M.M.M.M.M.M.M.M.M.M.M.M.M.V.M.M.M.M.M.Z.z.s 7 g.J.M.M.M.V.V.M.M.M.M.M.M.V.M.M.M.M.M.M.M.M.M.M.M.M.M.M.M.M.M.M.M.M.M.M.M.M.V.V.M.M.M.M.M.M.M.M.M.M.M.M.M.M.M.M.M.M.M.M.M.M.M.M.M.M.M.M.M.M.M.V.M.M.M.M.M.M.V.J.i.; j b.Z.M.M.M.M.M.M.M.M.M.M.M.M.M.M.M.M.M.M.V.V.M.M.M.M.M.M.M.M.M.M.M.M.V.M.M.M.M.M.M.M.M.M.M.M.C.Z.i.s @ @ @ @ @ : Y z.J.Z.M.M.M.M.M.M.M.M.M.C.m.I @ *                                                                                                                                                                                                                                                                                                                                                                                                                                                                                                     t.",
"t.                                                                                                              2 @ $ w.J.V.M.M.M.M.M.M.M.M.M.M.M.M.M.V.M.M.M.M.M.M.M.M.M.M.M.M.V.M.M.M.M.M.M.M.M.M.M.M.M.M.M.M.M.M.M.M.M.M.M.M.M.M.M.M.M.M.M.M.M.M.M.M.M.M.M.M.M.V.M.M.M.M.V.M.M.M.V.M.M.M.M.M.M.M.V.V.M.M.M.M.M.M.M.M.D.i.; G m.D.M.M.M.M.M.M.M.M.M.M.M.M.M.M.M.M.M.M.M.M.M.M.M.M.M.M.M.M.M.M.M.M.M.V.M.M.M.M.M.M.M.M.M.M.V.V.M.M.M.M.M.M.M.M.M.M.V.M.M.M.M.V.M.M.M.M.M.M.M.V.M.M.M.M.M.M.V.Z.n.J $ y.J.V.M.M.M.M.V.V.M.M.M.M.M.M.M.M.M.M.M.M.M.M.M.M.M.M.M.M.M.M.M.M.M.M.M.M.M.M.M.M.M.M.M.M.M.M.C.D.z.Y 5 @ @ $ @ @ d y.n.D.V.V.M.M.M.M.M.M.Z.v.G @ *                                                                                                                                                                                                                                                                                                                                                                                                                                                                                                     t.",
"t.                                                                                                                * @ L M.Z.M.M.M.M.M.M.V.M.M.M.M.M.M.V.M.V.M.M.M.M.M.M.V.M.M.M.M.M.M.M.M.M.M.M.M.M.M.M.M.M.M.M.M.M.V.V.M.M.M.M.M.M.M.M.M.M.M.M.M.M.M.M.M.M.M.M.M.M.M.M.M.M.V.M.M.M.M.M.M.M.V.V.M.M.M.M.M.M.M.M.M.M.M.V.Z.R @ 8.D.V.M.M.M.M.M.M.M.M.M.M.M.M.M.M.M.M.M.M.M.M.M.M.M.M.M.M.M.M.M.M.M.M.M.V.M.M.M.M.V.M.M.M.M.M.M.M.M.M.M.M.V.V.M.M.M.M.M.M.M.M.M.M.M.M.M.M.M.M.M.M.M.M.M.M.M.M.V.M.D.i.; F n.D.M.M.M.M.M.M.M.M.M.M.V.M.M.M.M.M.M.M.M.M.M.M.M.M.M.V.M.M.M.M.M.M.M.M.V.M.M.M.M.V.M.M.M.M.M.C.J.C.p.j @ @ @ @ @ : U j.D.D.V.M.M.M.M.M.Z.z.f @ ,                                                                                                                                                                                                                                                                                                                                                                                                                                                                                                     t.",
"t.                                                                                                                * @ p k.J.M.M.V.M.M.M.M.M.M.M.M.M.M.M.M.M.M.M.M.M.M.M.M.M.M.M.M.M.M.M.M.M.M.M.M.M.M.M.M.M.M.M.M.M.M.M.M.M.M.M.M.M.M.M.M.M.M.M.M.M.M.M.V.M.M.M.M.M.M.M.M.M.M.V.M.V.M.M.M.M.M.M.M.M.M.M.M.M.M.M.M.M.M.Z.b.j : d.J.M.M.M.M.M.M.M.M.M.M.V.M.V.V.M.M.M.M.M.M.M.M.M.M.M.M.M.M.M.M.M.M.M.M.M.M.M.M.M.M.M.M.M.V.M.M.M.V.M.M.M.M.M.M.M.M.M.M.M.M.M.M.M.M.M.M.M.M.M.M.M.M.M.M.M.M.M.M.M.Z.n.G % p.J.V.M.M.M.M.M.M.M.M.M.M.V.M.M.M.M.M.M.M.M.M.M.M.M.V.M.M.M.M.V.M.V.V.M.M.M.M.M.M.M.M.M.M.M.M.M.N.Z.D.x.R 5 @ @ @ @ @ d y.C.J.V.M.M.M.M.Z.f.i @ 2                                                                                                                                                                                                                                                                                                                                                                                                                                                                                                     t.",
"t.                                                                                                                2 @ % w.H.C.M.V.M.M.M.M.M.M.V.V.M.M.M.M.M.M.M.M.M.M.M.M.M.M.M.M.M.M.M.V.M.M.M.M.M.M.M.M.M.M.M.M.M.M.V.M.M.V.M.M.M.V.V.M.M.M.M.M.M.M.M.M.M.M.M.M.M.M.M.M.M.M.V.M.M.M.M.M.M.M.M.M.M.M.M.M.M.M.M.M.M.M.J.f.6 h v.Z.M.M.M.M.M.M.M.M.M.M.M.M.M.M.M.M.M.M.V.M.M.M.M.M.M.M.M.M.V.M.M.M.M.M.M.M.M.M.V.M.M.M.M.M.M.M.M.M.M.M.M.M.M.V.M.M.M.M.M.M.M.M.M.V.M.M.M.M.V.V.M.M.M.M.V.M.M.M.M.V.H.i.; J m.Z.M.M.M.M.M.M.M.M.M.M.M.M.M.M.M.V.M.M.V.M.M.M.M.M.M.M.M.M.M.M.M.M.M.M.M.M.M.M.M.M.M.M.M.M.M.N.N.V.D.V.a.F @ @ @ @ @ : U k.H.Z.M.M.M.D.u.: @                                                                                                                                                                                                                                                                                                                                                                                                                                                                                                       t.",
"t.                                                                                                                  * @ K m.Z.M.M.M.M.M.M.M.M.M.M.V.M.M.M.M.M.M.M.Z.D.Z.M.M.M.M.M.V.M.M.M.M.M.M.M.V.M.M.M.M.V.M.M.M.M.M.M.M.M.M.M.M.M.M.M.M.V.M.M.M.M.M.M.M.M.M.V.M.M.M.M.M.M.M.M.M.M.M.M.M.M.M.M.M.M.M.M.M.M.V.M.M.V.J.0.$ R Z.V.V.M.M.V.M.M.M.M.M.M.M.M.M.M.M.M.M.M.M.M.V.M.M.M.M.M.M.M.V.M.M.M.M.M.V.M.M.M.M.M.M.M.M.M.M.M.M.M.M.M.M.M.M.M.M.V.M.M.M.M.M.M.M.M.M.M.M.M.M.M.M.M.M.M.M.M.M.M.M.M.Z.m.J : p.D.V.M.M.M.M.M.M.M.M.M.M.M.M.M.M.V.M.M.V.M.M.M.M.M.M.M.M.M.M.M.M.M.M.M.M.M.M.M.M.V.M.M.M.M.M.M.M.M.M.V.J.v.W i @ @ $ @ @ s r.m.D.V.V.Z.W @ @                                                                                                                                                                                                                                                                                                                                                                                                                                                                                                       t.",
"t.                                                                                                                  * @ 7 f.H.N.M.M.M.M.M.M.M.M.M.M.M.M.M.M.M.V.D.v.a.z.D.V.M.M.M.M.M.M.M.M.M.M.M.V.M.M.M.M.M.M.M.M.M.M.M.M.M.M.M.M.M.M.M.M.V.M.M.M.V.M.M.M.M.M.M.M.M.M.M.M.M.M.M.M.M.M.M.M.M.M.M.M.M.V.M.M.M.M.M.M.Z.V.L ; p.D.V.M.M.M.M.M.M.M.M.M.M.M.M.M.M.M.M.M.M.M.M.M.M.M.M.V.V.M.M.M.M.M.M.M.M.M.M.M.M.M.M.M.M.M.M.M.M.M.M.M.M.M.M.M.M.M.M.M.M.M.M.M.V.V.M.M.M.M.M.M.M.M.M.M.M.M.M.M.M.V.M.V.J.p.; K m.Z.M.M.M.M.M.M.V.V.M.M.M.M.M.M.M.M.M.M.M.M.M.M.M.M.M.M.M.M.M.M.M.M.M.V.V.M.M.M.M.M.M.M.M.M.M.M.M.M.N.V.J.D.f.K % @ @ @ @ ; U j.D.H.M.I @ @                                                                                                                                                                                                                                                                                                                                                                                                                                                                                                       t.",
"t.                                                                                                                    @ $ 8.D.V.M.M.M.M.M.M.M.M.M.M.M.M.M.M.V.J.v.I ; F x.D.N.N.M.M.M.M.M.M.M.M.M.M.M.M.M.M.V.M.M.M.M.M.M.M.M.M.M.M.M.M.M.M.V.M.M.M.M.M.M.M.M.M.M.M.M.M.M.M.M.M.M.M.M.M.M.M.M.V.M.M.M.M.M.M.M.M.M.M.J.x.a d x.Z.M.V.M.M.M.M.M.M.M.M.M.M.M.M.M.M.M.M.M.M.M.M.M.V.M.M.M.M.M.M.M.M.M.M.M.M.M.M.M.M.M.M.M.M.M.M.M.M.M.M.M.M.M.M.M.M.M.M.V.M.M.M.M.M.V.M.M.M.M.M.M.M.M.M.M.M.M.M.M.M.M.M.D.m.G : a.H.M.V.M.M.M.M.M.M.M.M.M.M.M.M.M.M.M.M.M.V.V.M.M.M.M.V.V.M.M.M.M.M.M.M.M.M.M.M.M.M.M.M.M.M.M.M.M.M.M.M.M.Z.H.b.0.a @ @ @ @ @ d e.C.c.h @ *                                                                                                                                                                                                                                                                                                                                                                                                                                                                                                       t.",
"t.                                                                                                                    @ @ F c.Z.M.V.M.M.M.M.M.M.M.M.M.M.M.V.J.v.L @ @ @ T V.Z.N.M.M.M.M.M.M.M.M.M.V.M.M.M.M.V.M.M.M.M.M.M.M.M.M.M.M.M.M.M.M.M.M.M.M.V.M.M.M.M.M.V.V.M.M.M.M.M.M.M.M.M.M.M.M.M.M.M.M.M.M.M.M.M.M.M.V.J.p.; Y C.C.M.M.M.M.M.M.M.M.M.M.M.M.M.V.M.M.V.M.M.M.M.M.M.M.M.M.M.M.M.M.M.M.M.M.M.M.M.M.M.M.M.M.M.M.M.M.M.M.V.M.M.M.M.M.M.M.M.M.V.M.M.M.M.M.V.M.M.M.M.M.M.M.M.M.M.M.M.M.M.M.M.M.V.J.i.; I M.C.V.M.M.M.M.V.M.M.M.M.M.M.M.M.V.M.M.M.M.M.M.M.M.M.M.M.M.M.M.V.M.M.M.M.M.M.M.M.M.M.M.M.M.M.M.M.M.M.V.M.M.V.Z.D.j.I % @ @ @ @ ; R u.i @ *                                                                                                                                                                                                                                                                                                                                                                                                                                                                                                       t.",
"t.                                                                                                                    , @ : u.D.M.M.M.M.M.M.M.M.M.M.M.M.V.H.c.L @ @ @ @ h b.Z.N.V.V.M.M.M.M.V.M.M.M.M.M.M.M.M.M.M.M.V.V.M.M.M.M.M.M.V.M.M.M.M.M.M.M.M.M.V.M.M.M.M.M.M.M.M.M.M.M.M.M.M.M.M.M.M.M.M.V.M.M.M.M.M.M.M.Z.Z.T ; y.D.V.M.M.M.M.M.M.M.M.M.M.M.V.M.M.M.M.V.M.M.M.M.M.M.M.M.M.M.M.M.M.M.M.M.V.V.M.M.M.M.M.M.M.M.M.M.M.M.M.M.M.M.M.M.M.M.M.M.M.M.M.M.M.M.M.M.M.M.M.M.M.M.V.M.M.M.M.M.M.M.M.M.M.M.Z.n.G 5 d.J.M.M.M.M.M.M.M.M.M.M.M.M.M.M.M.M.M.M.M.M.M.M.M.M.M.M.M.M.M.M.M.V.M.M.M.M.M.M.V.V.M.M.M.M.M.M.V.M.M.M.M.M.M.V.H.M.r.d @ @ @ @ % h 5 @                                                                                                                                                                                                                                                                                                                                                                                                                                                                                                         t.",
"t.                                                                                                                      @ @ I M.C.M.M.M.M.M.M.M.M.M.M.V.H.z.K @ @ @ @ % 8.C.Z.M.M.M.M.M.M.M.M.M.M.M.M.M.M.M.M.M.M.M.M.M.M.M.V.M.M.M.M.M.M.M.M.M.M.M.M.M.V.M.M.M.M.M.M.M.M.M.M.V.M.M.V.M.M.M.M.M.M.M.M.M.M.M.M.M.M.D.b.f p z.D.M.M.M.M.M.M.M.M.M.M.M.M.M.M.M.M.M.M.M.M.M.M.M.M.M.V.M.M.M.M.V.M.M.M.Z.Z.V.M.M.M.M.M.V.C.M.M.M.M.V.Z.V.M.M.M.M.M.M.M.M.M.M.V.M.M.M.M.M.M.M.M.M.M.M.M.V.M.M.M.M.M.M.M.M.M.M.H.u.: U Z.Z.M.M.M.M.M.M.M.M.M.V.M.M.M.M.M.M.M.M.M.M.M.M.M.M.M.M.M.M.M.M.M.M.M.M.M.M.M.M.M.M.M.M.M.M.M.M.M.M.M.M.M.M.M.M.D.J.z.T 5 @ @ @ 5 % @                                                                                                                                                                                                                                                                                                                                                                                                                                                                                                         t.",
"t.                                                                                                                      * @ i f.J.M.M.M.M.V.M.M.N.m.V.J.x.J @ @ @ @ $ R m.Z.M.M.M.M.M.M.M.M.M.M.M.M.M.M.M.M.M.M.M.M.V.M.M.M.M.M.M.M.M.M.M.M.M.M.M.M.M.M.M.M.M.M.M.M.M.M.M.M.V.M.M.M.M.M.M.M.V.M.V.M.M.M.M.M.M.V.V.D.d.5 L V.Z.M.M.M.M.M.M.M.M.M.M.M.M.M.M.M.M.M.M.M.M.M.M.M.M.M.M.M.M.M.M.M.M.M.V.g.k.Z.M.M.M.M.M.V.D.C.M.M.V.m.V.Z.M.M.M.M.M.M.M.M.M.M.M.M.M.M.M.M.M.M.M.M.M.M.M.M.V.M.M.M.M.V.M.M.M.M.Z.b.F 6 g.J.V.M.M.M.M.M.M.M.M.M.M.M.M.M.M.M.M.M.M.M.M.M.V.M.M.M.M.V.M.M.M.M.M.V.V.M.M.M.M.M.M.V.V.M.M.M.M.V.M.M.M.M.M.M.M.C.J.V.u.h @ @ % @ *                                                                                                                                                                                                                                                                                                                                                                                                                                                                                                         t.",
"t.                                                                                                                        @ @ W D.C.M.M.M.V.M.M.M.N.J.x.J @ @ @ @ % R m.D.M.M.M.M.M.M.M.M.M.M.V.M.M.M.M.M.M.M.M.M.M.M.M.M.M.M.M.M.M.M.M.M.M.M.M.M.M.M.M.M.M.M.M.M.M.M.M.M.M.M.M.M.M.V.V.M.M.M.M.M.M.M.M.M.M.M.M.V.D.8.% q.J.V.M.M.M.M.V.M.V.M.M.M.M.M.M.M.M.M.M.M.V.V.M.M.M.M.V.M.M.M.M.M.M.M.M.S.q.K v.D.M.M.M.C.g.e.M.Z.M.Z.v.0.z.Z.M.M.M.V.V.M.M.M.M.M.M.M.M.M.V.M.M.M.M.V.M.M.M.V.M.M.M.M.M.M.M.M.M.V.D.u.; T Z.Z.M.M.M.M.M.M.M.M.V.M.M.V.M.M.M.M.M.V.M.M.M.M.M.M.M.M.M.M.M.M.M.M.M.M.M.M.M.M.M.M.M.M.M.M.M.M.M.M.M.M.M.M.M.M.M.M.Z.D.x.E 7 @ @ 2                                                                                                                                                                                                                                                                                                                                                                                                                                                                                                         t.",
"t.                                                                                                                        * @ d x.J.M.M.M.M.M.M.V.J.z.G @ @ @ @ ; E M.D.M.M.M.M.M.M.M.M.M.M.M.M.M.M.M.V.M.M.M.M.M.M.M.M.M.M.M.M.M.M.M.M.M.M.M.V.M.M.M.M.M.M.M.M.M.V.M.M.M.M.M.M.M.M.M.M.M.M.M.M.M.M.M.M.M.M.M.M.C.m.J 7 k.J.M.M.M.M.M.V.M.M.M.M.M.M.M.M.M.M.M.M.M.M.M.M.M.M.M.M.M.M.M.M.M.M.V.M.Z.z.f E Z.C.M.M.Z.f.d y.H.V.Z.V.I R C.V.M.M.M.M.M.M.M.M.M.M.M.M.M.M.M.M.M.M.M.M.M.M.M.M.M.M.M.M.M.M.M.M.M.Z.m.G 7 g.H.M.M.M.M.M.M.M.M.V.M.M.M.M.M.M.V.M.M.M.M.M.M.M.M.M.M.M.M.M.M.M.M.M.M.M.M.M.M.M.M.M.M.M.M.M.M.M.M.M.M.M.M.M.M.M.M.M.V.L.M.G @ *                                                                                                                                                                                                                                                                                                                                                                                                                                                                                                           t.",
"t.                                                                                                                        , @ @ 0.J.C.M.M.M.M.V.J.k.G @ @ @ @ ; W V.H.M.M.M.M.M.V.M.M.M.M.M.M.M.M.M.M.M.V.M.M.M.M.M.M.M.M.M.M.V.M.M.V.M.M.M.M.V.M.M.M.V.M.M.M.M.M.M.M.M.M.M.M.M.M.M.M.M.M.M.M.M.M.M.M.M.M.M.M.M.Z.g.i J M.Z.M.M.M.M.M.M.M.M.M.M.M.M.M.V.V.M.M.M.M.M.M.M.M.M.M.M.M.V.V.M.M.M.M.M.V.Z.T 7 g.J.V.M.C.m.J f v.H.V.J.0.a d.D.M.M.M.M.M.M.M.V.M.M.M.M.M.M.M.M.M.M.M.M.M.M.M.M.M.M.M.M.M.M.M.M.M.V.J.p.: R Z.C.M.M.M.M.M.M.M.M.M.M.M.M.M.M.M.M.M.M.M.M.M.M.M.M.M.M.M.M.M.M.M.M.M.M.M.M.M.M.M.M.M.M.M.M.M.M.M.M.M.M.M.M.M.M.M.M.V.H.g.p @ *                                                                                                                                                                                                                                                                                                                                                                                                                                                                                                           t.",
"t.                                                                                                                          @ @ j v.D.M.N.m.V.J.k.F @ @ @ @ $ E M.H.M.M.M.M.M.V.M.M.M.M.M.M.M.M.M.M.M.M.M.M.M.M.M.M.M.V.M.M.M.M.M.V.M.M.M.M.M.M.M.V.M.M.M.V.M.M.M.M.M.M.M.M.M.M.M.M.M.M.M.M.M.M.M.V.M.M.M.M.M.M.D.r.: 9.J.V.M.M.M.M.M.V.M.M.M.M.M.M.M.M.M.M.M.M.M.M.M.M.M.M.M.M.M.M.M.M.M.M.M.M.V.D.u.; E D.C.M.V.Z.W ; r.J.V.J.s.6 R Z.V.M.M.M.M.V.M.M.M.V.M.M.M.M.M.M.M.M.M.M.M.M.M.M.M.M.M.M.M.M.M.M.M.M.D.m.G p j.D.M.M.M.M.M.M.V.M.M.M.M.M.M.M.M.M.M.M.M.V.M.M.M.M.M.M.M.M.M.M.M.M.M.M.V.M.M.M.M.M.M.M.M.M.M.M.M.M.M.M.M.M.M.M.M.M.V.Z.W $ @                                                                                                                                                                                                                                                                                                                                                                                                                                                                                                             t.",
"t.                                                                                                                          , @ ; e.D.V.N.V.J.k.j @ @ @ @ % E m.D.M.M.M.M.M.M.V.M.M.M.M.M.M.M.M.M.M.M.M.M.M.M.M.M.M.M.V.M.M.M.M.M.M.M.M.M.V.M.M.M.M.M.M.M.V.M.M.M.M.M.M.M.M.M.M.M.M.M.M.M.M.M.M.M.M.M.M.M.V.M.V.Z.Y 6 f.J.M.M.M.M.M.M.M.V.M.M.M.M.M.M.M.M.M.M.V.M.M.M.M.M.M.V.M.M.M.M.M.M.M.M.M.V.D.g.7 j n.D.M.V.D.p.; I V.Z.D.j.i j b.Z.M.M.M.M.V.M.M.M.M.M.M.M.M.M.M.M.M.M.M.M.M.M.M.M.M.M.M.M.M.M.M.M.M.V.J.i.5 W D.M.M.M.M.M.M.V.M.M.M.M.M.V.M.M.M.M.M.M.M.M.M.M.M.M.M.M.M.M.V.V.M.M.M.M.M.M.M.M.M.M.M.M.M.M.M.M.M.M.M.M.M.M.M.M.M.Z.z.h @ *                                                                                                                                                                                                                                                                                                                                                                                                                                                                                                             t.",
"t.                                                                                                                            * @ F c.Z.V.D.j.j @ @ @ @ ; W M.D.M.M.M.M.M.M.M.M.M.M.M.M.M.M.V.M.M.M.M.V.M.M.M.M.M.M.M.M.M.M.M.M.M.M.M.M.M.M.M.M.M.M.M.M.M.M.M.M.M.M.M.M.V.M.M.M.M.M.M.M.M.M.M.M.M.M.M.M.M.M.M.Z.c.f F b.Z.M.M.M.M.M.M.M.M.M.M.M.M.M.M.M.M.M.M.M.M.M.M.V.M.M.M.M.V.M.M.M.M.M.M.V.M.D.c.d p z.D.M.V.D.g.6 f v.D.Z.z.s p z.D.M.M.M.M.M.M.M.M.M.M.M.M.M.M.M.M.M.M.M.M.M.M.M.M.M.M.M.M.M.V.M.M.M.M.Z.n.J s z.D.M.M.M.M.M.M.M.M.M.M.M.V.M.M.M.M.M.M.M.M.M.M.V.Z.Z.V.M.M.M.M.M.M.M.M.M.M.M.M.M.M.M.M.M.M.M.M.V.M.M.M.M.M.M.M.V.Z.9.% @ 2                                                                                                                                                                                                                                                                                                                                                                                                                                                                                                             t.",
"t.                                                                                                                            , @ : w.J.J.f.h @ @ $ @ ; W V.H.M.M.M.M.M.M.M.M.M.M.M.M.M.M.M.V.M.M.M.M.V.M.V.M.M.M.M.M.M.M.M.M.M.M.M.M.M.M.M.M.M.M.M.M.M.M.M.M.M.M.M.V.M.V.M.M.M.V.M.M.M.M.V.M.M.M.M.M.M.M.M.M.J.d.6 E D.V.M.M.M.M.M.M.M.M.M.M.M.M.M.M.V.M.M.M.M.M.M.M.M.M.M.M.M.M.M.M.M.M.M.M.M.M.D.v.f i j.D.M.M.D.z.p p z.D.Z.x.s p k.D.M.M.M.M.M.M.M.M.M.M.M.M.V.M.M.V.V.M.M.M.M.M.M.V.M.M.M.M.M.M.M.M.M.M.M.D.i.6 9.J.C.M.M.M.M.M.M.M.M.M.M.M.M.M.M.M.M.M.M.M.M.V.Z.v.b.Z.C.M.M.M.M.M.M.M.M.M.M.V.M.M.M.M.V.M.M.M.V.M.V.M.M.M.M.M.D.c.h @ @                                                                                                                                                                                                                                                                                                                                                                                                                                                                                                               t.",
"t.                                                                                                                              @ @ F b.j.d @ @ @ @ % E N.H.M.M.M.M.M.M.M.M.M.M.V.M.M.M.M.V.M.M.M.M.M.M.M.M.M.M.M.M.M.M.M.M.M.M.M.M.M.M.M.M.M.M.M.M.M.V.M.M.V.M.M.M.M.M.M.M.M.M.M.M.M.M.V.M.M.M.M.M.M.M.M.M.V.J.9.7 a.D.M.M.M.V.M.M.M.M.M.M.M.M.M.M.M.M.M.M.M.M.M.M.M.M.M.M.M.M.M.M.M.V.V.M.M.M.M.D.z.a d c.D.M.M.D.k.i s x.D.H.j.7 f v.Z.M.M.M.M.M.V.V.M.M.V.M.M.M.M.M.M.M.M.M.V.M.M.M.M.M.M.M.M.M.M.M.M.M.M.M.Z.n.G f v.H.M.M.M.M.M.M.M.M.M.M.M.M.M.M.M.M.M.M.N.V.Z.s.G K f.J.Z.M.M.M.M.M.M.M.M.V.M.M.M.M.M.M.M.M.M.M.M.M.M.M.M.M.C.J.0.$ @ ,                                                                                                                                                                                                                                                                                                                                                                                                                                                                                                               t.",
"t.                                                                                                                              , @ : R F @ @ @ @ ; E n.D.M.M.M.M.M.M.M.M.M.V.M.M.M.M.M.M.M.M.M.M.M.M.M.M.M.M.M.M.M.V.M.M.M.M.M.M.M.M.M.M.M.M.M.M.M.M.M.M.M.M.M.M.M.M.M.M.M.M.M.M.M.M.M.M.M.V.M.M.M.M.M.M.M.Z.M.K j v.Z.M.M.M.M.M.M.M.M.M.M.M.M.M.M.M.V.M.M.V.M.M.M.M.M.M.M.M.V.M.M.M.M.M.M.M.M.V.D.f.6 I V.Z.M.V.D.d.: F n.D.J.p.: Y C.V.M.M.M.M.M.M.M.M.M.M.M.M.M.M.M.M.M.M.M.M.M.M.M.M.M.V.V.M.M.M.M.M.M.M.M.V.D.i.7 q.J.V.M.M.M.M.M.M.M.M.M.M.V.V.M.M.M.M.V.M.D.v.f @ @ d a.H.Z.M.M.M.M.M.M.M.V.M.M.M.M.M.M.M.M.M.M.M.M.M.M.M.M.J.x.f @ @                                                                                                                                                                                                                                                                                                                                                                                                                                                                                                                 t.",
"t.                                                                                                                                @ @ ; $ @ @ @ : W m.Z.M.M.M.M.M.M.M.M.M.M.M.M.M.M.M.M.M.M.M.M.M.M.M.M.M.V.C.V.M.M.M.M.V.M.M.M.M.M.M.M.V.V.M.M.M.M.M.M.M.M.M.M.M.M.V.M.M.M.M.M.M.M.M.M.M.M.M.M.M.M.M.M.M.M.J.z.s R Z.V.M.M.M.M.M.M.M.M.M.V.V.M.M.M.M.V.M.M.M.M.M.M.M.M.M.M.M.V.M.M.M.M.M.M.M.M.V.D.e.7 a.J.V.M.V.D.q.% W Z.Z.D.E 7 s.D.M.V.M.M.M.M.M.M.M.M.M.M.M.M.M.M.M.M.V.M.M.M.M.M.M.M.M.M.V.M.M.M.M.M.M.M.M.Z.M.J h v.D.M.M.M.V.M.V.V.M.M.M.M.M.M.M.M.M.M.M.D.x.a @ @ @ 7 r.Z.D.M.M.M.M.M.M.M.M.M.M.M.M.M.M.M.M.M.M.V.M.M.M.Z.Z.E @ @ ,                                                                                                                                                                                                                                                                                                                                                                                                                                                                                                                 t.",
"t.                                                                                                                                , @ @ $ @ @ ; W V.D.N.M.M.M.M.M.M.M.M.M.M.M.M.M.M.M.M.M.M.M.M.M.M.M.M.C.C.V.D.Z.M.M.M.M.M.M.M.M.M.V.V.M.M.M.M.M.M.M.M.M.M.M.M.M.M.M.M.M.M.V.V.M.M.M.M.M.M.M.M.M.M.M.M.M.V.J.u.i a.D.V.M.M.M.M.M.V.M.M.M.M.M.M.M.M.M.M.M.M.M.M.M.M.M.V.M.M.M.M.M.M.M.M.M.M.M.M.V.V.T Y C.Z.M.M.C.V.I 6 g.J.H.v.j R C.V.M.M.M.M.M.M.M.M.M.M.M.M.M.M.V.M.M.M.V.M.M.M.M.M.M.M.M.M.M.M.M.M.M.M.V.M.M.V.L.a.7 w.D.V.M.M.M.Z.z.b.C.M.M.M.M.M.M.M.M.M.M.C.Z.u.6 @ @ @ : 8.n.D.V.M.M.M.M.M.M.M.M.M.M.M.V.V.M.M.M.M.M.M.V.J.d.7 @ *                                                                                                                                                                                                                                                                                                                                                                                                                                                                                                                   t.",
"t.                                                                                                                                  @ @ @ @ ; E M.H.V.M.M.M.M.M.M.M.M.M.M.M.M.M.M.M.M.M.M.M.M.M.M.M.M.Z.V.e.Y u.V.Z.M.M.M.M.M.M.M.M.M.M.M.M.M.M.V.M.M.M.M.M.M.M.M.M.M.M.V.M.M.M.M.M.M.M.M.M.M.M.M.M.V.M.M.Z.Z.T f v.D.M.M.M.M.M.M.M.M.V.M.M.M.M.M.M.M.M.M.M.M.M.M.M.M.M.M.M.M.M.M.M.M.M.M.M.M.M.C.x.E z.D.M.M.M.Z.j.s Y Z.Z.J.f.T z.D.M.M.M.M.M.M.M.M.M.M.M.M.M.M.M.M.M.M.M.M.M.M.M.M.M.M.M.M.M.M.M.M.M.M.M.M.V.V.M.D.M.K G b.Z.M.M.M.J.p.s.Z.V.M.M.M.M.M.M.M.M.M.M.Z.D.p.p @ @ @ % Y c.J.V.m.N.M.M.M.M.M.M.M.M.M.M.M.M.M.M.M.M.D.b.K @ @                                                                                                                                                                                                                                                                                                                                                                                                                                                                                                                     t.",
"t.                                                                                                                                    @ @ 5 W m.D.M.M.M.M.M.M.M.M.M.M.M.V.M.M.M.M.M.V.M.M.M.M.M.M.M.V.J.i.: @ : E n.Z.M.M.M.M.M.M.M.M.M.M.M.M.M.M.M.M.M.V.V.M.M.M.M.M.M.M.M.M.M.V.V.M.M.M.M.M.M.M.M.M.M.M.D.b.j Y Z.Z.M.M.M.M.M.M.M.M.V.M.M.M.M.M.M.M.M.M.M.M.M.M.M.M.M.M.M.M.M.M.M.M.M.V.M.M.M.V.v.z.Z.V.M.M.M.Z.r.j k.D.M.V.n.n.C.V.M.M.M.M.M.M.M.M.M.M.M.M.M.V.M.M.M.M.M.M.M.M.M.M.M.M.M.M.M.M.M.M.V.M.M.M.M.M.M.V.J.p.p y.D.M.M.M.J.w.R m.C.M.M.M.M.M.M.M.M.M.M.M.C.D.f.h @ @ @ @ K z.J.V.N.M.M.M.M.M.M.M.M.M.M.M.V.M.M.M.C.Z.8.% @ *                                                                                                                                                                                                                                                                                                                                                                                                                                                                                                                     t.",
"t.                                                                                                                                    * @ 7 p.J.M.M.M.M.M.M.M.M.V.V.M.M.M.M.M.M.M.M.M.M.M.M.M.M.M.V.J.z.d @ @ @ : d.D.V.M.M.M.V.M.M.M.M.M.M.M.M.M.M.M.M.M.M.M.M.M.M.M.M.M.M.M.M.M.M.M.M.M.M.M.M.M.M.M.M.M.D.s.s i.J.V.M.M.M.M.M.M.M.M.M.M.M.M.V.M.M.M.M.M.M.M.M.M.M.M.M.M.M.M.M.V.V.M.M.M.M.M.M.M.C.Z.M.M.V.M.M.V.k.g.Z.M.M.M.V.C.V.M.M.M.M.M.M.M.V.M.M.M.M.M.M.M.M.M.M.M.M.M.M.M.V.M.M.M.M.V.M.M.M.M.M.M.M.M.M.M.M.M.Z.m.K J n.C.M.V.H.W h z.Z.M.M.M.M.M.M.M.M.M.M.M.M.V.J.c.J @ @ @ @ h f.D.V.M.M.M.M.M.M.M.M.M.M.M.M.M.M.C.H.p.6 @ @                                                                                                                                                                                                                                                                                                                                                                                                                                                                                                                       t.",
"t.                                                                                                                                      @ @ G v.D.M.M.M.M.M.M.M.M.M.M.M.M.M.M.M.M.M.M.M.M.M.M.M.M.D.M.U @ @ @ @ h z.D.M.M.M.M.M.M.V.M.M.M.M.M.M.M.M.M.M.M.M.M.M.M.M.M.M.M.M.M.M.M.M.M.M.M.M.M.M.M.M.M.M.V.Z.8.f c.J.M.M.M.M.M.M.M.M.M.M.M.M.M.M.M.M.M.M.V.M.M.M.M.M.V.V.M.M.M.M.M.M.M.M.M.M.M.M.M.M.M.M.M.M.M.M.M.Z.H.V.M.M.M.M.M.M.M.M.M.M.M.M.M.M.M.M.M.M.M.V.M.M.M.M.V.M.M.M.M.V.M.M.M.M.M.M.M.M.M.M.M.M.M.M.M.M.M.M.D.d.W v.Z.M.Z.C.I 7 f.Z.V.V.M.M.M.V.M.M.M.M.M.M.M.V.L.n.U @ @ @ @ a u.Z.Z.M.M.M.V.M.M.M.M.M.M.M.M.V.J.k.f @ @                                                                                                                                                                                                                                                                                                                                                                                                                                                                                                                         t.",
"t.                                                                                                                                      , @ $ 8.D.Z.M.M.M.M.M.M.M.M.M.M.V.M.M.M.M.M.M.M.M.M.M.M.V.D.r.: @ @ @ : i.H.V.M.M.M.M.M.M.M.V.M.M.M.M.V.M.M.M.M.M.V.M.M.M.M.M.V.M.M.M.M.M.M.M.V.Z.V.M.M.M.M.M.M.C.m.L U Z.Z.M.M.M.M.M.M.M.M.M.M.M.M.M.M.V.M.M.M.M.M.M.M.M.M.M.M.M.M.M.V.M.M.M.M.V.M.M.M.M.M.M.M.M.M.M.M.M.V.V.M.M.M.M.M.M.M.M.M.M.M.M.V.M.M.V.V.M.M.M.M.M.M.M.M.M.M.M.M.V.M.M.M.M.M.M.M.M.M.M.M.M.M.C.Z.M.M.M.M.V.V.m.M.M.M.D.n.j 5 d.Z.M.M.M.M.M.M.M.M.M.M.M.M.M.M.V.H.m.E % @ @ @ 6 0.C.H.M.M.M.M.M.M.M.M.M.M.M.J.b.K @ @ ,                                                                                                                                                                                                                                                                                                                                                                                                                                                                                                                         t.",
"t.                                                                                                                                        @ @ i f.J.V.M.M.M.M.M.M.M.M.M.M.M.M.M.M.M.M.M.M.M.M.M.D.g.s @ @ @ @ R C.Z.M.M.M.M.M.M.M.M.V.M.M.M.M.M.M.M.M.V.M.M.M.M.M.M.M.M.M.M.M.M.V.M.V.n.v.M.V.M.M.M.M.M.Z.j.h y.J.V.M.M.M.M.M.M.M.M.M.V.M.M.M.M.V.M.M.M.M.M.M.V.M.V.M.M.M.M.M.M.M.M.M.M.M.M.M.M.M.M.M.M.M.M.M.M.M.M.M.M.M.M.M.M.M.M.M.M.M.M.M.M.M.M.M.M.M.M.M.M.V.V.M.M.M.M.M.M.V.M.M.M.M.M.M.M.M.M.M.M.V.M.v.n.D.M.M.M.M.V.C.M.M.M.J.g.6 i g.Z.M.M.M.M.M.M.M.M.M.M.M.M.M.M.M.M.Z.V.q.5 @ @ @ : W m.H.M.M.V.M.N.M.M.M.M.D.m.T $ @ *                                                                                                                                                                                                                                                                                                                                                                                                                                                                                                                           t.",
"t.                                                                                                                                          @ @ J b.D.M.M.M.V.M.V.M.M.M.M.M.M.M.M.M.V.V.M.M.M.Z.b.K @ @ @ @ j c.D.M.M.M.M.M.M.M.M.M.M.M.M.M.M.M.M.M.M.M.M.M.M.M.M.M.M.M.M.V.M.M.M.M.D.z.0.v.Z.M.M.M.M.M.D.r.h k.D.M.M.M.M.M.M.M.M.M.M.M.M.M.V.M.M.M.M.M.M.M.M.M.M.M.M.M.M.M.M.M.V.M.M.M.M.M.M.M.M.M.V.M.M.M.M.M.M.M.M.M.M.M.M.M.V.M.M.M.M.M.M.M.M.M.M.M.M.M.M.M.M.M.M.M.V.M.M.M.M.M.M.M.M.M.M.V.M.M.M.M.V.Z.x.w.j.J.Z.V.M.M.M.M.M.Z.H.W @ G b.Z.M.M.M.M.M.M.V.M.M.V.M.M.M.M.V.M.M.Z.J.i.i @ @ @ $ U c.D.V.V.M.M.M.V.V.Z.M.E % @ *                                                                                                                                                                                                                                                                                                                                                                                                                                                                                                                             t.",
"t.                                                                                                                                          * @ $ W Z.Z.V.V.V.M.M.M.M.M.M.M.M.M.M.M.M.M.M.M.Z.D.W @ @ @ @ 7 a.D.M.M.M.V.M.M.M.M.M.M.M.M.M.M.M.M.M.M.M.M.M.M.M.M.M.M.M.M.M.V.M.M.M.M.Z.b.U d.J.V.M.M.M.V.C.T I V.V.M.M.M.M.M.M.M.M.M.M.M.M.M.M.M.M.M.M.M.M.M.M.M.M.M.M.M.M.M.M.M.M.M.M.M.M.M.M.M.M.M.M.M.M.M.M.M.M.M.M.M.M.M.M.M.M.M.M.M.M.M.M.M.M.M.M.M.M.M.M.M.M.M.M.M.M.M.M.M.M.M.M.M.M.M.M.M.M.M.M.M.M.V.D.d.I 0.b.D.D.Z.C.C.D.L.d.i @ 0.Z.V.M.M.V.M.M.M.M.M.M.M.M.M.M.M.V.M.M.M.Z.J.f.d @ @ @ @ G g.H.Z.M.M.M.M.D.C.8.; @ @                                                                                                                                                                                                                                                                                                                                                                                                                                                                                                                               t.",
"t.                                                                                                                                            @ @ 5 a.J.N.N.M.M.M.M.M.V.M.M.M.M.M.M.M.M.M.V.L.f.7 @ @ @ $ W C.Z.M.M.M.M.M.M.M.V.M.M.M.M.M.M.M.M.M.M.M.M.M.M.M.M.M.V.V.M.M.M.M.M.M.M.Z.Z.I R Z.V.M.M.M.Z.v.F 0.D.M.M.M.M.M.M.V.V.M.M.M.M.M.M.M.M.M.V.M.M.M.M.M.M.M.M.M.M.M.M.V.V.M.M.M.M.M.M.M.M.M.M.M.M.M.M.M.M.M.M.M.M.M.M.M.M.M.M.M.M.M.M.M.M.M.M.M.M.M.M.M.M.M.M.M.M.M.M.M.M.M.M.M.M.M.M.M.M.M.M.M.M.M.M.C.D.a.f j q.x.Z.D.D.Z.s.f @ F v.D.V.M.M.M.M.M.M.M.M.M.M.M.M.M.M.M.M.M.M.M.C.J.j.F @ @ @ @ d d.J.Z.M.M.D.Z.9.: @ @                                                                                                                                                                                                                                                                                                                                                                                                                                                                                                                                 t.",
"t.                                                                                                                                            @ @ @ j z.D.N.M.M.M.M.M.M.M.M.M.M.M.M.M.M.M.D.b.G @ @ @ @ G v.D.M.M.M.M.M.M.M.M.M.M.M.M.M.M.M.M.M.M.M.M.M.M.M.M.M.M.M.V.M.M.M.M.M.M.M.V.H.W s g.D.M.M.M.C.b.0.k.C.M.M.M.M.M.C.M.n.V.M.M.M.M.M.M.V.M.M.M.M.M.M.V.V.V.M.M.M.M.M.M.M.M.M.M.M.M.M.M.M.M.M.M.M.M.M.M.M.M.M.M.M.M.M.M.M.M.M.M.M.V.M.M.M.M.M.M.M.M.M.M.M.M.M.M.M.M.M.M.M.M.M.M.V.M.M.M.M.M.V.M.M.M.M.M.V.D.d.h % s Y 9.0.I 6 @ d f.H.V.M.M.M.M.M.M.M.M.M.M.M.M.M.M.M.M.M.M.M.M.M.V.J.v.L @ @ @ @ p u.Z.Z.Z.V.8.: @ @                                                                                                                                                                                                                                                                                                                                                                                                                                                                                                                                   t.",
"t.                                                                                                                                            @ @ ; @ I n.D.N.M.M.M.M.M.M.M.M.M.M.M.M.M.C.V.W $ @ @ @ i f.J.V.M.M.M.M.M.M.M.M.M.M.M.M.M.M.M.M.M.M.M.M.M.V.Z.Z.V.M.M.M.M.M.M.M.M.M.M.V.J.p.: U V.Z.M.M.M.V.Z.C.M.M.M.M.M.Z.b.s.n.V.M.M.M.M.M.M.M.M.M.M.M.M.M.M.M.M.M.M.M.M.M.M.M.M.V.M.M.M.M.V.M.M.M.M.M.M.M.M.M.M.M.M.M.M.M.M.M.M.M.V.M.V.M.M.M.M.M.M.M.M.V.M.M.M.M.V.V.M.M.M.M.M.M.M.M.M.V.M.M.M.V.M.M.M.M.M.M.V.H.x.T 6 @ @ @ @ $ J g.D.V.M.M.M.M.M.M.M.M.M.V.M.V.M.M.V.M.M.M.M.M.M.V.M.V.J.m.R % @ @ @ 5 W V.M.E ; @ @                                                                                                                                                                                                                                                                                                                                                                                                                                                                                                                                     t.",
"t.                                                                                                                                            @ @ j 6 @ W Z.D.M.M.M.M.M.M.M.M.M.M.M.M.V.H.p.6 @ @ @ % 9.D.Z.M.M.M.M.M.M.M.M.M.M.M.M.M.M.V.M.M.M.V.V.M.V.C.c.z.V.Z.V.M.M.M.M.M.M.M.M.M.Z.c.d % u.J.Z.M.M.M.V.V.M.M.M.C.J.v.E i.Z.M.M.M.M.M.M.M.M.M.M.M.M.M.M.M.M.M.M.M.M.M.M.M.M.M.M.M.M.M.M.V.M.M.M.V.M.M.M.M.V.M.M.M.V.M.V.V.M.M.M.M.M.M.M.M.M.M.V.M.M.M.M.M.M.M.M.M.M.M.M.V.M.M.M.M.M.M.M.M.M.M.M.M.M.M.M.M.M.M.V.J.C.f.8.I K T u.b.H.V.M.M.M.M.M.M.M.M.M.M.V.M.M.M.M.M.M.M.M.M.M.M.M.M.M.M.H.C.9.5 @ @ @ ; T Y $ @ *                                                                                                                                                                                                                                                                                                                                                                                                                                                                                                                                       t.",
"t.                                                                                                                                            @ @ T W @ 5 u.H.Z.M.M.M.M.V.M.M.M.M.M.N.D.x.h @ @ @ @ K v.Z.M.M.M.M.M.M.M.M.M.V.M.V.M.M.M.M.M.M.M.M.N.N.D.g.F d W x.Z.M.M.M.M.M.M.M.M.M.V.Z.8.@ s g.L.Z.M.M.M.M.M.V.H.J.j.J I n.C.M.V.M.M.M.M.M.M.V.M.M.M.M.V.M.M.M.M.M.M.M.M.M.M.M.M.M.M.M.M.M.V.M.M.M.M.M.M.M.V.M.M.M.M.M.M.M.M.M.M.M.M.M.M.M.M.M.M.M.M.M.V.V.M.M.M.V.M.M.M.M.M.M.M.M.M.M.M.M.M.M.M.M.M.M.M.M.M.M.M.M.Z.D.D.M.n.V.D.Z.V.M.M.M.M.M.M.M.V.M.M.M.M.M.M.M.M.M.V.M.M.M.M.M.M.M.M.M.M.Z.Z.y.7 @ @ @ $ @ @ @                                                                                                                                                                                                                                                                                                                                                                                                                                                                                                                                         t.",
"t.                                                                                                                                            @ @ R n.U @ i a.D.V.M.M.M.V.M.M.M.M.N.Z.C.T @ @ @ @ s f.D.M.M.M.M.M.M.M.V.M.M.V.M.V.M.M.M.M.M.M.M.N.m.Z.N.I @ @ @ I b.Z.M.M.M.M.M.M.M.M.M.Z.c.G @ f d.Z.J.Z.Z.Z.D.J.n.e.p p g.H.M.M.M.M.M.M.M.V.M.M.M.M.M.M.V.M.M.M.M.V.M.M.M.M.V.M.M.M.M.M.M.M.V.M.V.M.M.M.M.M.M.M.M.M.M.M.M.M.M.M.M.M.M.M.M.M.M.M.M.M.M.M.M.M.M.M.M.M.M.M.M.M.M.M.M.M.M.M.M.M.M.M.M.M.M.M.M.M.M.M.M.M.M.V.V.C.C.C.V.M.M.M.M.M.M.M.M.M.M.M.M.M.M.M.M.M.M.V.M.M.M.M.M.M.M.M.M.M.M.M.Z.J.d.f $ @ @ @ *                                                                                                                                                                                                                                                                                                                                                                                                                                                                                                                                           t.",
"t.                                                                                                                                            @ @ U H.v.G @ a d.H.C.M.M.M.M.M.M.N.V.J.y.; @ @ @ : e.Z.V.M.M.M.M.M.M.M.M.M.M.M.M.M.M.M.M.M.M.M.M.M.V.J.i.: @ @ @ f c.D.M.M.M.M.M.M.M.M.M.V.H.g.f @ 6 T d.c.n.b.z.y.G @ 6 p.J.C.M.M.M.M.M.M.M.V.M.M.M.M.M.M.M.M.M.M.M.M.M.M.M.M.M.V.M.M.M.M.M.M.M.M.M.M.M.M.M.M.M.M.M.M.M.M.V.M.M.M.M.M.V.M.M.M.M.M.M.M.M.M.M.M.M.M.M.M.M.M.M.M.M.M.M.M.M.V.M.M.M.V.M.M.M.M.M.M.M.M.M.M.M.M.M.M.M.M.M.M.M.M.M.M.M.M.M.M.M.M.M.M.M.V.M.M.M.M.M.M.M.M.M.M.M.M.M.M.M.N.V.J.N.R $ @ @ *                                                                                                                                                                                                                                                                                                                                                                                                                                                                                                                                             t.",
"t.                                                                                                                                            * @ I M.L.j.h @ d g.J.Z.M.M.M.M.M.N.D.k.d @ @ @ @ U N.D.N.M.M.M.M.M.M.M.M.M.M.M.M.M.M.M.M.M.M.M.M.M.D.b.G @ @ @ @ W D.Z.M.M.M.M.M.M.M.M.M.M.C.J.g.J @ @ : d F F p $ @ s p.D.Z.M.M.M.M.M.M.M.M.M.M.M.M.M.M.M.M.M.M.M.M.M.M.M.M.M.M.M.M.M.M.M.M.M.M.M.M.M.M.M.M.M.M.M.V.M.M.M.M.M.M.M.M.M.M.M.M.M.V.V.M.M.M.M.M.M.M.M.M.M.M.M.M.M.V.M.M.M.M.V.M.M.M.M.M.M.M.M.M.M.M.M.M.M.M.M.M.M.M.M.M.M.M.M.M.M.M.M.M.M.M.M.M.M.M.V.M.M.M.M.M.M.M.M.M.M.M.M.M.M.V.Z.D.f.I 5 @ @ ,                                                                                                                                                                                                                                                                                                                                                                                                                                                                                                                                               t.",
"t.                                                                                                                                            * @ L v.Z.H.f.d @ h g.J.Z.M.M.M.M.Z.m.U @ @ @ @ d k.J.V.M.M.M.M.M.V.M.M.M.M.V.M.M.M.M.M.M.M.M.M.M.V.D.w.; @ @ @ d x.J.V.M.M.M.M.M.M.M.M.M.M.M.V.D.v.q.G 6 $ @ @ % a R j.D.C.M.M.M.M.M.M.M.M.M.M.M.M.M.M.V.V.M.M.M.M.M.M.M.M.M.M.V.M.M.M.M.M.M.M.M.M.M.M.M.M.M.M.V.M.M.M.M.M.M.M.M.M.M.M.M.M.M.M.M.M.M.M.M.M.M.M.M.M.M.M.M.M.M.M.M.M.M.M.M.M.M.M.M.M.M.M.M.M.M.M.M.M.M.M.M.M.M.M.M.M.M.M.M.M.M.M.M.M.M.M.M.M.M.M.M.M.M.M.M.M.M.V.M.M.M.M.M.M.M.Z.J.M.r.d @ @ @                                                                                                                                                                                                                                                                                                                                                                                                                                                                                                                                                   t.",
"t.                                                                                                                                            * @ J b.Z.V.H.f.d @ f d.D.C.M.M.V.D.q.; @ @ @ : y.H.V.M.M.M.M.M.M.M.M.M.M.M.M.M.M.M.V.M.M.M.M.M.M.D.z.h @ @ @ $ 0.D.C.M.M.M.M.M.M.M.M.M.M.M.M.M.V.Z.D.b.f.u.0.q.p.z.V.Z.V.M.M.M.V.M.M.M.M.M.M.M.V.M.M.M.M.M.M.M.M.M.M.M.V.M.M.M.M.M.M.M.M.M.M.M.M.V.M.M.M.M.M.M.M.M.M.M.M.M.M.M.M.M.M.M.M.M.M.M.M.V.M.M.M.M.M.M.M.M.M.M.M.M.M.V.V.M.M.M.M.M.M.M.M.M.M.M.M.M.M.M.M.V.M.M.M.M.M.M.M.M.M.M.M.M.M.M.M.M.V.M.M.M.M.M.M.M.M.M.M.M.M.M.M.M.M.M.M.M.D.H.j.I : @ @ *                                                                                                                                                                                                                                                                                                                                                                                                                                                                                                                                                     t.",
"t.                                                                                                                                            * @ F c.Z.M.V.J.f.f @ i i.D.Z.V.H.f.p @ $ % $ T V.Z.M.M.M.M.M.M.M.M.M.M.M.M.M.M.M.M.M.M.M.M.M.M.V.Z.W $ @ @ @ j c.D.M.M.V.M.M.M.M.M.M.M.M.M.M.M.M.M.M.Z.H.J.H.J.J.D.V.M.M.M.M.M.V.M.M.M.M.M.M.M.M.M.M.M.M.M.M.M.M.M.M.M.M.M.M.M.M.M.M.M.M.M.M.M.M.V.M.M.M.M.M.M.M.M.M.M.M.M.M.M.M.M.V.V.M.M.M.M.V.M.M.M.M.M.M.M.M.M.M.M.M.M.M.M.M.V.V.M.M.M.M.V.M.M.M.M.M.M.M.M.M.M.M.M.M.M.M.M.M.M.V.M.M.V.M.M.M.M.M.M.M.M.M.M.M.M.M.M.M.M.M.M.M.M.M.V.C.D.b.0.s @ @ @ ,                                                                                                                                                                                                                                                                                                                                                                                                                                                                                                                                                       t.",
"t.                                                                                                                                            * @ f z.Z.M.M.C.J.g.j @ 5 q.V.P.n.J @ @ : @ j z.D.M.M.M.M.M.V.M.M.M.M.M.M.M.M.M.M.M.M.M.M.M.M.M.J.g.p @ @ @ : r.D.M.M.M.M.M.M.M.M.M.V.V.M.M.M.M.M.M.M.M.M.V.V.V.V.M.M.M.M.M.M.M.M.M.M.M.V.M.M.M.M.M.M.M.M.M.M.M.M.M.M.M.M.M.M.M.M.M.M.M.M.M.M.V.M.M.M.M.M.M.M.M.M.V.M.M.M.M.V.M.M.M.M.M.M.M.M.M.M.M.M.M.M.M.M.M.V.V.M.M.M.M.M.M.M.M.M.M.M.M.M.M.M.M.M.V.M.M.M.V.V.M.M.M.M.M.M.M.V.M.V.M.M.M.M.M.M.M.M.M.M.M.M.M.M.M.M.M.M.M.M.M.M.V.Z.J.m.i.G % @ @ *                                                                                                                                                                                                                                                                                                                                                                                                                                                                                                                                                           t.",
"t.                                                                                                                                            , @ s g.Z.M.M.M.V.H.k.K @ ; W b.9.$ @ ; $ 6 i.H.V.M.M.M.M.M.M.M.M.M.M.M.M.M.M.M.M.M.M.M.M.M.M.Z.Z.Y @ @ $ @ J v.Z.M.M.M.M.M.M.M.M.M.M.M.M.M.M.V.M.M.M.M.M.M.V.M.M.M.M.M.M.M.M.M.M.M.M.M.M.M.M.M.M.M.M.M.M.M.M.M.M.M.M.V.M.M.M.M.M.V.V.M.M.M.M.M.M.M.M.M.M.M.M.M.M.M.M.M.M.M.M.M.M.M.M.M.M.M.M.M.M.M.M.M.M.M.M.V.M.M.V.M.M.M.M.M.M.M.M.M.M.M.M.M.M.M.M.M.M.M.M.M.M.M.M.M.M.M.M.M.M.M.M.M.M.M.V.M.M.M.M.M.M.M.M.M.M.V.M.M.M.M.M.M.Z.J.Z.f.U 6 @ @ @ 2                                                                                                                                                                                                                                                                                                                                                                                                                                                                                                                                                             t.",
"t.                                                                                                                                            , @ i d.Z.M.M.M.M.V.H.v.T $ $ j i @ % % @ E Z.Z.M.M.M.M.M.M.M.V.M.M.M.M.M.M.V.M.M.V.M.M.M.M.V.J.s.6 @ $ @ 5 i.H.V.M.M.M.M.M.M.M.M.M.M.V.M.M.M.M.M.M.M.M.M.M.M.M.M.M.M.M.M.M.M.M.M.M.M.M.V.M.M.V.M.M.M.M.M.V.M.M.M.M.M.V.M.V.M.M.M.M.M.M.M.M.V.M.M.M.V.V.M.M.M.M.V.M.M.M.M.M.M.M.M.V.M.M.M.M.M.M.M.M.V.M.M.M.M.M.M.M.M.M.M.M.M.M.M.M.M.M.M.M.M.M.V.M.M.M.M.M.M.M.M.M.V.M.M.M.M.M.M.M.M.M.M.M.M.M.M.M.M.M.M.M.M.M.M.M.M.M.M.M.C.J.Z.g.T i @ @ @ *                                                                                                                                                                                                                                                                                                                                                                                                                                                                                                                                                                 t.",
"t.                                                                                                                                            2 @ 5 i.D.M.M.M.M.M.M.D.M.9.6 @ @ $ ; @ G v.D.M.M.M.M.M.M.M.M.M.M.M.M.M.M.M.V.M.M.M.M.M.M.V.D.n.K @ @ $ @ L n.Z.M.M.M.M.M.M.M.M.M.M.M.M.M.M.M.M.M.M.M.M.M.M.M.M.M.M.M.M.M.M.M.V.M.M.M.M.V.M.M.M.M.M.M.V.M.M.M.M.M.M.M.M.M.M.M.M.M.M.M.M.M.M.M.M.M.M.M.M.M.M.M.M.M.M.M.M.M.M.M.V.M.V.M.M.M.M.M.M.M.M.V.M.M.M.M.M.M.M.M.M.M.M.M.V.M.M.M.M.M.M.M.M.M.M.V.M.M.M.M.M.M.V.M.M.M.M.M.M.M.M.M.M.M.M.M.M.M.M.M.M.V.M.M.M.M.M.M.V.C.D.C.g.E p @ @ @ *                                                                                                                                                                                                                                                                                                                                                                                                                                                                                                                                                                     t.",
"t.                                                                                                                                              @ ; w.D.M.M.M.M.M.M.M.D.D.a.f @ @ @ i f.P.V.M.M.M.M.M.M.M.M.M.M.M.V.V.M.M.M.M.M.M.M.M.M.V.H.u.: @ @ @ 6 s.J.B.M.M.M.M.V.M.M.M.M.M.M.M.M.M.M.M.M.M.M.M.M.M.M.M.M.M.M.M.M.M.M.M.M.M.M.M.M.M.M.M.M.M.M.M.M.M.M.M.M.M.M.M.M.M.M.M.M.M.M.M.M.M.M.M.M.M.M.M.M.M.M.M.M.M.V.V.M.M.M.M.M.M.M.M.M.M.M.M.V.M.M.M.M.M.M.M.M.M.M.M.M.M.M.M.M.V.M.M.M.M.M.M.M.M.M.M.M.M.V.M.M.M.M.M.M.M.M.M.M.V.M.M.M.M.M.M.M.M.M.M.V.M.M.M.M.C.D.H.M.d.T p @ @ @ %                                                                                                                                                                                                                                                                                                                                                                                                                                                                                                                                                                         t.",
"t.                                                                                                                                              @ @ W Z.V.M.M.M.M.V.V.M.Z.H.k.I @ @ 7 i.Z.J.C.M.M.M.M.M.M.M.M.M.M.M.M.M.M.M.M.M.M.M.M.M.Z.c.G @ @ @ @ U V.Z.N.M.M.M.M.M.M.M.V.V.M.M.M.M.M.M.V.M.M.M.M.M.M.M.M.M.M.M.M.M.M.V.M.M.M.M.M.M.V.M.M.M.M.M.M.M.M.M.M.V.M.M.M.M.M.M.M.M.M.M.M.M.M.M.M.M.M.M.M.M.M.M.M.M.M.M.M.M.M.M.M.M.M.M.M.M.M.M.M.M.M.M.M.M.M.M.M.M.M.M.M.M.M.M.M.V.M.M.M.M.M.M.M.M.M.M.M.M.M.M.M.M.V.M.M.M.M.M.M.M.M.M.M.M.V.M.M.M.M.M.M.M.M.M.Z.J.H.n.a.U i @ @ @ * 2                                                                                                                                                                                                                                                                                                                                                                                                                                                                                                                                                                           t.",
"t.                                                                                                                                              @ @ Y V.V.N.M.M.M.M.M.M.M.V.D.m.9.7 @ : Y k.D.D.M.M.M.M.M.M.M.M.M.M.M.M.M.M.M.M.M.M.M.B.Z.9.; @ @ @ 7 d.D.N.M.M.M.M.V.M.M.M.M.M.M.V.M.M.M.M.V.M.M.M.M.M.V.M.M.M.M.M.M.M.M.M.M.M.V.M.M.M.M.M.M.M.V.M.M.M.M.M.M.M.V.V.M.M.M.M.M.M.M.M.M.M.M.M.M.M.M.M.M.M.M.M.V.M.M.M.M.M.M.M.M.M.M.M.M.M.M.M.M.M.V.M.M.M.M.M.M.M.M.M.M.M.M.M.M.V.M.M.M.M.M.M.M.M.M.M.M.M.M.M.M.M.M.M.M.M.M.M.M.M.M.M.M.M.M.M.M.M.M.M.M.M.Z.J.D.x.w.G 6 @ @ @ * 2                                                                                                                                                                                                                                                                                                                                                                                                                                                                                                                                                                               t.",
"t.                                                                                                                                              * @ J b.Z.M.M.M.M.M.M.M.M.M.M.Z.H.j.U ; @ a 9.v.D.Z.V.M.M.M.M.V.V.V.M.M.M.M.M.M.M.M.N.D.k.d @ @ @ @ R V.C.M.M.M.M.M.M.M.M.M.M.M.M.M.M.M.M.M.M.M.M.M.M.M.M.M.M.M.M.M.M.M.M.M.M.M.V.M.M.M.M.M.M.M.V.M.M.M.M.M.M.M.M.M.M.M.M.M.M.M.M.M.M.V.M.M.V.M.M.M.M.V.M.M.M.M.V.M.M.M.M.M.M.V.M.V.M.M.M.M.M.M.M.M.M.M.M.M.M.M.M.M.M.M.M.M.M.M.M.M.M.M.M.M.V.M.V.M.M.M.M.M.M.M.M.M.M.M.M.V.M.M.M.M.M.M.M.M.M.M.V.C.D.D.b.d.E d % @ @ @ *                                                                                                                                                                                                                                                                                                                                                                                                                                                                                                                                                                                     t.",
"t.                                                                                                                                              * @ f z.D.M.M.M.M.M.M.M.M.M.M.M.C.J.V.u.h @ @ j u.n.H.Z.V.M.M.V.M.M.M.M.M.M.M.M.M.M.Z.Z.E @ @ @ @ s f.D.M.M.M.M.M.M.M.M.M.M.M.M.M.M.M.M.M.M.M.M.M.M.M.M.M.M.M.M.M.M.M.V.M.M.M.M.M.M.M.M.M.M.M.M.M.M.M.M.M.M.M.M.M.M.M.M.M.M.M.V.M.M.M.M.M.M.M.M.M.M.M.M.M.M.M.M.M.M.M.M.M.M.M.M.M.M.M.M.M.M.M.V.M.M.M.M.V.M.M.M.M.M.V.V.M.M.M.M.M.M.M.M.M.M.V.M.V.M.M.M.M.M.M.M.M.M.M.M.M.M.M.M.M.M.M.M.M.V.Z.D.D.m.g.0.J 6 @ @ @ @ *                                                                                                                                                                                                                                                                                                                                                                                                                                                                                                                                                                                         t.",
"t.                                                                                                                                              , @ 7 f.J.M.M.M.V.M.M.M.M.M.M.M.M.V.Z.D.z.E 7 @ ; L a.M.J.D.V.M.M.M.M.V.M.M.M.M.M.V.J.g.i @ @ @ @ W Z.C.M.M.M.M.M.M.V.M.V.M.M.M.M.M.M.M.M.M.M.M.M.M.M.M.M.V.M.M.M.M.M.V.M.M.M.M.M.M.M.M.M.M.M.M.M.M.M.M.M.M.M.M.M.M.M.M.M.M.V.M.M.M.V.V.M.M.M.M.M.M.M.M.M.M.M.M.M.M.M.V.V.M.M.M.M.M.V.M.M.M.M.V.M.M.M.M.M.M.M.M.M.M.M.M.M.M.M.M.V.M.M.M.M.V.M.M.M.M.M.M.V.M.M.M.M.V.M.M.M.M.M.M.M.M.V.Z.J.J.V.z.r.I s ; @ @ @ * ,                                                                                                                                                                                                                                                                                                                                                                                                                                                                                                                                                                                             t.",
"t.                                                                                                                                              2 @ ; u.J.V.M.M.M.M.M.M.M.M.M.M.M.M.M.V.Z.Z.g.U 5 @ : L s.M.J.Z.M.M.M.M.M.M.M.M.M.Z.V.U @ @ @ @ d z.D.M.M.M.M.M.M.M.M.M.V.M.M.M.M.M.M.M.M.M.M.M.M.M.M.V.M.V.M.M.M.M.M.M.M.M.M.M.M.M.M.M.V.M.M.M.M.V.V.M.M.M.M.V.M.M.M.M.M.M.M.M.M.M.M.M.M.M.M.M.M.M.M.M.M.M.M.V.M.M.M.M.M.M.M.M.M.M.M.M.M.M.M.M.M.V.M.M.V.M.M.M.M.M.M.V.M.M.V.M.M.M.M.M.M.M.M.M.M.M.M.M.M.M.M.M.M.V.M.M.V.M.M.V.Z.J.H.M.l.y.U d ; @ @ @ @ *                                                                                                                                                                                                                                                                                                                                                                                                                                                                                                                                                                                                   t.",
"t.                                                                                                                                                @ @ W Z.C.M.M.M.M.M.M.M.M.M.M.M.M.M.M.M.V.J.V.s.L : @ : K i.b.D.Z.V.V.M.M.M.M.V.H.a.6 @ @ @ $ 9.H.C.M.M.M.M.M.M.M.M.M.M.M.M.M.M.M.M.V.M.M.M.M.M.M.M.M.M.M.M.M.M.M.M.M.M.M.M.M.M.V.M.M.M.M.M.M.M.M.M.M.M.M.M.M.M.V.M.M.M.M.M.M.M.M.M.M.M.M.M.V.M.M.M.M.M.M.M.V.M.M.M.M.M.M.M.M.M.M.M.M.M.M.M.M.M.M.M.M.V.M.M.M.M.M.M.M.M.M.M.M.M.M.M.M.M.M.M.M.M.M.M.M.M.M.M.M.M.M.V.V.Z.Z.D.Z.b.f.0.L a % @ @ @ @ * 2                                                                                                                                                                                                                                                                                                                                                                                                                                                                                                                                                                                                       t.",
"t.                                                                                                                                                @ @ K m.Z.M.M.M.M.M.M.M.M.M.M.M.M.M.M.M.M.M.Z.J.M.a.I : @ % F w.x.Z.D.Z.V.M.M.Z.b.J @ @ @ @ h v.J.M.M.M.M.M.M.M.M.M.M.M.M.M.M.M.M.M.M.V.M.M.M.M.M.M.M.M.M.M.M.M.M.M.M.M.V.M.M.M.M.M.M.M.M.M.M.M.M.M.M.M.M.M.M.M.M.M.M.M.M.M.M.M.M.M.M.M.M.M.V.M.M.M.V.M.M.M.M.M.M.M.M.M.M.M.M.M.M.M.M.M.M.M.M.M.M.M.M.M.M.M.M.M.M.M.M.M.M.M.M.M.M.M.M.M.M.M.M.M.M.M.M.M.M.V.C.Z.D.D.Z.m.j.i.E G 7 $ @ @ @ @ * 2                                                                                                                                                                                                                                                                                                                                                                                                                                                                                                                                                                                                             t.",
"t.                                                                                                                                                * @ d c.J.M.M.V.M.M.M.M.M.M.M.M.M.M.M.M.M.M.M.V.Z.H.n.a.I 6 @ @ f W f.M.J.J.Z.D.e.: $ % @ % q.H.C.M.M.M.M.M.M.M.M.M.M.M.M.M.M.M.M.M.M.M.M.M.M.M.M.M.M.M.M.M.M.M.M.M.M.M.M.M.M.M.M.M.M.M.M.M.M.M.M.M.M.M.M.M.M.V.M.M.M.M.M.M.M.M.M.M.M.M.M.M.M.M.M.M.M.M.M.V.M.M.M.M.M.M.M.M.M.M.M.M.M.M.M.M.M.M.M.M.M.M.M.M.M.M.M.M.M.M.M.M.M.M.M.M.M.M.M.M.M.M.M.V.Z.D.J.J.D.M.z.s.W L d 5 @ @ @ @ * * 2                                                                                                                                                                                                                                                                                                                                                                                                                                                                                                                                                                                                                   t.",
"t.                                                                                                                                                , @ 5 s.J.V.M.M.M.M.M.M.M.M.V.M.M.M.M.M.M.M.M.M.M.V.C.D.M.f.R a @ @ 7 L y.x.J.v.j @ % ; @ F v.Z.M.M.M.M.M.M.M.M.M.M.M.M.M.M.M.M.M.M.M.M.M.M.M.M.M.M.M.M.M.M.Z.D.J.J.D.Z.V.M.M.M.M.M.M.M.M.M.M.M.M.M.M.M.M.V.M.M.M.M.M.M.M.M.M.M.M.M.M.M.M.M.M.M.M.M.M.M.M.V.M.M.M.M.M.M.M.M.M.M.M.M.M.M.M.M.M.M.M.M.M.M.M.M.M.M.M.M.M.M.M.M.M.M.M.M.M.M.M.V.Z.D.J.J.Z.n.k.p.8.L d 6 @ @ @ @ @ * *                                                                                                                                                                                                                                                                                                                                                                                                                                                                                                                                                                                                                           t.",
"t.                                                                                                                                                  @ @ 9.D.V.N.M.M.M.M.M.M.M.V.M.V.M.M.M.M.M.M.M.M.M.M.M.C.J.Z.z.9.F : @ $ d E R : $ ; % 6 u.D.M.M.M.M.M.M.M.M.M.M.M.M.M.M.M.M.M.M.M.M.M.M.M.M.M.M.M.V.M.Z.D.n.k.f.d.j.v.Z.D.C.M.M.M.M.M.M.M.M.M.M.M.M.M.M.M.M.M.M.M.M.M.M.M.V.M.V.M.M.M.M.M.M.M.M.M.M.M.M.M.M.M.M.M.M.M.M.M.M.M.M.M.M.M.M.M.M.M.M.M.M.M.M.M.M.M.M.M.M.M.V.V.V.V.C.Z.Z.D.D.C.b.k.s.q.T F a : @ @ @ @ @ @ * ,                                                                                                                                                                                                                                                                                                                                                                                                                                                                                                                                                                                                                                 t.",
"t.                                                                                                                                                  @ @ K M.Z.N.M.M.M.M.M.M.M.M.M.M.M.M.M.M.M.V.M.M.M.M.M.M.M.Z.J.H.b.a.Y a @ @ @ @ $ % @ I V.L.Z.C.V.M.M.M.M.M.M.M.M.M.M.M.V.V.M.M.V.M.M.M.M.M.M.M.M.V.D.v.e.J i : : 7 j E d.M.D.V.M.M.M.M.M.M.V.V.M.M.M.M.M.M.M.M.M.M.M.M.M.M.M.V.M.M.M.M.M.M.M.M.M.M.M.M.M.M.M.M.M.M.M.M.M.M.M.M.M.M.M.M.M.M.M.M.M.M.M.M.V.V.C.Z.Z.D.D.D.D.Z.Z.m.c.g.p.0.T J d 5 % @ @ @ @ @ @ * ,                                                                                                                                                                                                                                                                                                                                                                                                                                                                                                                                                                                                                                         t.",
"t.                                                                                                                                                  * @ s k.D.M.M.M.M.M.M.M.M.M.M.M.V.M.M.M.M.V.M.M.M.M.M.M.M.M.M.C.D.H.V.j.w.K 7 @ @ @ @ J i.z.M.H.J.H.Z.V.M.M.M.M.M.M.M.M.M.M.M.M.M.M.M.M.M.M.M.M.V.J.z.K @ @ - r r 4 @ @ 5 R c.J.V.M.M.M.M.M.V.V.M.M.M.M.M.M.M.M.M.M.M.M.M.M.M.M.V.M.M.M.M.V.M.M.M.M.M.M.M.M.M.M.M.M.M.M.M.M.M.M.V.M.N.M.V.V.C.Z.Z.D.H.J.J.J.H.Z.C.n.x.g.p.q.E L j a 5 % @ @ @ @ @ @ * * ,                                                                                                                                                                                                                                                                                                                                                                                                                                                                                                                                                                                                                                                 t.",
"t.                                                                                                                                                  2 @ : y.D.V.V.M.M.M.M.V.V.M.M.M.M.M.M.M.M.M.M.M.M.M.M.M.M.M.M.M.M.V.C.Z.D.m.g.9.G 6 $ @ @ a L 9.d.v.V.J.J.Z.C.V.M.M.M.M.M.N.M.M.M.V.M.M.M.M.M.M.H.c.F @ 9 { T.(.(.R.4.C - @ G z.H.M.M.M.M.M.M.M.M.M.M.M.M.M.V.V.M.M.M.M.M.M.M.M.M.M.M.M.M.M.M.M.V.M.M.M.M.M.M.V.V.V.V.V.C.Z.Z.Z.D.D.J.J.J.H.D.Z.M.n.c.k.d.i.0.W U G f i 5 % @ @ @ @ @ @ * * * ,                                                                                                                                                                                                                                                                                                                                                                                                                                                                                                                                                                                                                                                           t.",
"t.                                                                                                                                                    @ @ Y M.C.M.M.M.M.M.M.M.M.M.M.M.M.M.M.M.M.M.M.M.M.M.M.M.M.M.M.M.M.M.M.M.C.H.J.m.g.0.I s % @ @ 5 f U 0.d.x.m.Z.D.Z.Z.C.V.V.V.M.M.M.M.M.M.M.M.Z.M.Y @ y 7.OX-XOXOX+X+X].5.y @ K v.Z.M.M.M.M.M.M.M.M.M.M.V.M.M.M.M.M.M.M.M.M.M.M.M.M.M.M.M.M.M.M.V.C.D.D.D.D.D.D.Z.Z.V.M.m.n.v.c.z.j.f.a.u.0.W T I G f p 6 : $ @ @ @ @ @ @ @ @ @ * * 2                                                                                                                                                                                                                                                                                                                                                                                                                                                                                                                                                                                                                                                                     t.",
"t.                                                                                                                                                    * @ d j.Z.M.M.M.M.M.M.M.M.M.M.M.M.M.M.M.M.M.V.M.M.M.M.M.M.M.M.M.M.M.M.M.M.M.V.D.J.H.V.z.i.E F 7 @ @ @ : d L W u.f.c.M.Z.Z.D.D.D.Z.Z.Z.V.V.V.D.e.% 3 6.-XOX}.}.}.}.}.+X-XT.0 @ 9.Z.V.M.M.M.M.M.M.M.M.M.M.M.M.M.M.M.M.M.M.M.M.M.M.M.M.M.M.M.M.V.Z.v.u.q.0.0.9.8.E R Y I K G h d a p 7 5 ; $ @ @ @ @ @ @ @ @ @ @ @ * * , 2                                                                                                                                                                                                                                                                                                                                                                                                                                                                                                                                                                                                                                                                                 t.",
"t.                                                                                                                                                    2 @ ; e.D.M.M.M.M.M.M.M.M.M.M.M.M.M.M.V.M.M.M.M.M.M.M.M.M.M.V.V.M.M.M.M.M.M.V.V.V.C.Z.D.D.Z.v.f.e.Y h 6 $ @ @ % p j I W y.d.z.b.V.Z.H.J.J.P.z.d @ {  XOX}.}.}.}.}.}.}.OXOX} @ j m.P.J.D.Z.V.V.M.M.M.M.M.M.M.M.M.M.M.M.M.M.M.M.M.M.M.M.M.M.M.Z.Z.W ; @ @ @ @ @ @ @ @ @ @ @ @ @ @ @ @ @ @ @ @ * @ * * * , 2                                                                                                                                                                                                                                                                                                                                                                                                                                                                                                                                                                                                                                                                                               t.",
"t.                                                                                                                                                      * @ K n.Z.M.M.M.M.M.M.M.M.V.M.M.M.M.V.M.M.M.M.M.M.M.M.M.M.M.M.M.M.V.M.M.M.V.V.M.M.M.M.V.V.Z.Z.D.V.v.g.u.E K f : @ @ @ ; 7 d F I E 0.u.d.g.Y @ x ).+X}.}.}.}.}.}.}.}.}.+X^.4 : q.j.x.n.C.D.J.J.D.Z.V.V.M.M.M.M.M.M.M.M.M.M.M.M.M.M.M.M.M.M.D.b.j @ x A A S ( ( [ { } ,.4.6.6.A @ @ *                                                                                                                                                                                                                                                                                                                                                                                                                                                                                                                                                                                                                                                                                                                   t.",
"t.                                                                                                                                                      * @ 6 s.J.V.M.M.M.M.M.M.M.M.M.M.M.M.M.M.M.M.M.M.M.M.V.M.M.M.M.M.M.V.M.M.M.M.M.M.M.M.M.M.M.M.M.M.V.Z.H.J.J.M.9.6 @ @ @ @ @ @ @ @ @ % : 6 6 @ * 5.+X X}.}.}.}.}.}.}.}.}.OX_.x @ ; 6 s G Y 8.i.f.z.b.V.D.D.Z.Z.Z.C.V.V.V.M.M.M.M.M.M.M.M.M.M.D.x.s - 7.}.[.[.{.}. X.XOXOX+X-X;X).C @ @ *                                                                                                                                                                                                                                                                                                                                                                                                                                                                                                                                                                                                                                                                                                                 t.",
"t.                                                                                                                                                        @ @ Y C.Z.M.M.M.M.M.M.M.M.M.M.M.M.M.M.V.M.M.M.M.M.M.M.M.M.M.M.M.M.M.M.M.M.M.M.M.M.M.M.M.M.M.M.M.M.V.D.N.0.p @ @ ,     , * * @ @ @ @ @ @ @ C '.OX{.}.}.}.}.}.}.}.}.}.OX_.c @ 4 4 # @ @ @ % 6 s G U 8.y.d.k.b.V.Z.D.D.D.D.Z.C.V.V.M.M.M.V.J.j.7 0 (.;XOXOXOX.X.X X X}.}.}. X-X).C @ @ *                                                                                                                                                                                                                                                                                                                                                                                                                                                                                                                                                                                                                                                                                                               t.",
"t.                                                                                                                                                        * @ i j.J.V.M.V.M.M.M.M.M.M.M.M.M.M.M.V.M.M.M.M.V.M.M.M.M.M.M.M.M.M.M.M.M.M.M.M.M.M.M.M.M.M.M.M.V.J.m.E : @ @ 2                     * @ 3 6.OX}.}.}.}.}.}.}.}.}.}.}.OX).x @ V D Z B M t 4 - # @ @ @ % 7 d G Y 8.u.d.z.n.V.D.J.J.J.D.H.J.P.f.: u _.;X-XOX X}.}.}.}.}.}.}.}.}.+X/.c @ @ ,                                                                                                                                                                                                                                                                                                                                                                                                                                                                                                                                                                                                                                                                                                             t.",
"t.                                                                                                                                                          @ @ R Z.Z.M.V.M.M.M.M.M.M.M.M.M.M.M.M.M.M.M.M.M.M.M.M.M.M.M.M.M.M.M.M.M.M.M.M.M.M.M.M.M.M.M.V.J.v.U % @ @                         @ @ ( ]..X}.}.}.}.}.}.}.}.}.}.}.+X^.9 - *.:.:.:.;.=.*.D Z V M t r - # @ @ @ % 6 s F U W y.d.x.b.v.j.i.I $ 0 } 6.^.'.OXOX}.{.}.}.}.}.}.}.}.OX^.c @ @ ,                                                                                                                                                                                                                                                                                                                                                                                                                                                                                                                                                                                                                                                                                                           t.",
"t.                                                                                                                                                          * @ 7 f.H.V.M.M.M.M.M.M.M.V.M.M.M.M.M.M.M.M.M.M.M.M.M.M.M.M.M.M.M.M.M.M.M.M.M.M.M.M.M.M.M.C.D.g.G @ @ @                         * @ 9 7.OX}.}.}.}.}.}.}.}.}.}.}..X;X7.* 4 Z D D D D *.=.;.:.:.;.=.*.D Z V M t r 4 - @ @ @ % 6 s h d 7 % @ @ @ @ @ 9 v >./.}.OX}.}.}.}.}.}.}.}.OX^.x @ @ 2                                                                                                                                                                                                                                                                                                                                                                                                                                                                                                                                                                                                                                                                                                         t.",
"t.                                                                                                                                                            @ @ I m.Z.M.M.M.M.M.M.M.M.V.M.M.M.M.M.M.M.M.M.M.M.V.M.M.M.M.V.M.M.M.M.M.M.M.M.M.M.M.V.D.Z.i.d @ @ *                           @ @ S [.OX}.}.}.}.}.}.}.}.}.OXOX[.R.( # - - - # - 4 r t M V D *.;.:.:.:.;.-.=.*.D Z V B t 4 # @ @ @ @ f L Y T I j 6 @ @ 0 } ).OX.X}.}.}.}.}.}. X+XT.w @ @                                                                                                                                                                                                                                                                                                                                                                                                                                                                                                                                                                                                                                                                                                         t.",
"t.                                                                                                                                                            * @ 5 u.H.N.M.M.M.M.M.M.M.M.M.M.M.M.M.M.M.M.M.M.M.M.M.M.M.M.M.M.M.M.M.M.M.M.M.M.M.V.J.V.0.7 @ @ *                           , @ * 6.+X X}.}.}.}.}.}.{.}.+X{.T.( 4 @ @ ; 7 a a 7 5 $ @ @ @ - r M V *.=.;.:.:.;.;.:.:.*.B r @ @ 6 F 0.x.m.V.V.M.v.f.9.h @ @ v T.OXOX{.}.}.}.}.}..XOX5.9 @ *                                                                                                                                                                                                                                                                                                                                                                                                                                                                                                                                                                                                                                                                                                       t.",
"t.                                                                                                                                                              @ @ h z.H.M.M.N.M.M.M.M.M.M.M.M.M.M.M.M.M.M.M.M.M.M.M.M.M.M.M.M.M.M.M.M.M.M.M.C.H.z.Y ; @ @ ,                             @ @ v `.+X}.}.}.}.}.}.{. X+X).[ 1 @ : G 8.a.g.j.j.g.d.u.8.I f 5 @ @ # 4 t B D *.-.:.=.Z r @ $ f 9.j.M.D.Z.C.C.C.C.Z.D.D.v.w.s @ 0 4. X.X{.}.}.}.}.}..X X<.1 @ @                                                                                                                                                                                                                                                                                                                                                                                                                                                                                                                                                                                                                                                                                                     t.",
"t.                                                                                                                                                              , @ @ U M.D.M.M.M.M.V.V.M.M.M.M.M.M.M.M.M.M.M.M.M.M.M.M.M.M.M.M.M.M.M.M.N.V.D.Z.p.h @ @ *                               2 @ @ 1.OX X}.}.}.}.}.}..X X7.x @ ; I s.m.H.J.H.D.D.D.J.J.D.V.v.f.0.I d : @ @ - r M V t # @ @ $ G f.J.J.V.M.M.M.M.M.M.M.M.D.J.k.K @ - 1..X.X}.}.}.}.}.{.OX}.} * @ *                                                                                                                                                                                                                                                                                                                                                                                                                                                                                                                                                                                                                                                                                                   t.",
"t.                                                                                                                                                                * @ ; 0.D.Z.M.M.V.V.M.M.M.M.M.M.M.V.M.M.M.M.V.M.V.M.M.M.M.M.M.M.M.M.V.Z.J.v.W 6 @ @ *                                 * @ u (.OX}.}.}.}.}.}.OX{.1.4 @ f i.M.J.D.V.M.M.M.M.M.M.V.C.Z.H.J.H.V.x.p.E J a % @ @ @ - M t 4 % 6 U k.J.Z.M.M.M.M.M.M.M.M.C.L.b.Y @ 3 6.+X X}.}.}.}.}.}.+X[.( @ @ *                                                                                                                                                                                                                                                                                                                                                                                                                                                                                                                                                                                                                                                                                                 t.",
"t.                                                                                                                                                                  * @ 7 p.J.C.M.M.M.M.M.M.M.M.M.V.M.M.M.M.M.M.M.M.M.M.M.M.M.M.M.M.C.J.Z.s.G % @ @ ,                                   @ @ { }. X}.}.}.}.}.OX X<.- @ K k.J.D.V.M.M.M.M.M.M.M.M.M.M.M.M.V.C.Z.D.D.L.n.9.i @ @ r Z -.;.Z 4 @ @ f d.H.Z.M.M.M.M.M.M.M.M.V.H.b.I @ x (.+X}.}.}.}.}.}.}.-X).v @ @ 2                                                                                                                                                                                                                                                                                                                                                                                                                                                                                                                                                                                                                                                                                               t.",
"t.                                                                                                                                                                    @ @ s s.H.V.M.M.M.M.M.M.M.M.V.M.M.M.M.M.M.M.M.M.M.M.M.M.M.M.Z.J.x.E 6 @ @ *                                     , @ 0 T.OX}.}.}.}.}..XOX4.1 @ Y b.D.V.M.M.M.M.M.M.M.M.M.M.M.M.M.M.M.M.M.V.J.n.9.p @ 4 B *.;.:.*.M - @ # @ i u.Z.C.M.M.V.M.M.M.M.M.V.H.x.h @ [ [. X}.}.}.}.}.}.}.OXR.y @ @                                                                                                                                                                                                                                                                                                                                                                                                                                                                                                                                                                                                                                                                                               t.",
"t.                                                                                                                                                                    , @ @ s a.D.Z.M.M.M.M.M.M.M.M.M.M.M.M.M.M.M.M.M.M.M.M.V.Z.D.b.w.f @ @ @ *                                       @ @ A '. X}.}.}.}.}.OX6.9 @ R m.D.M.M.M.M.M.V.M.M.M.M.M.M.M.M.M.M.M.M.Z.D.f.G @ @ t D ;.;.-.D r @ # M Z t @ 6 y.Z.V.M.M.M.M.M.M.M.M.C.P.s.5 4 7.OX}.}.}.}.}.}.}.}.OX6.9 @ *                                                                                                                                                                                                                                                                                                                                                                                                                                                                                                                                                                                                                                                                                             t.",
"t.                                                                                                                                                                      , @ @ p u.Z.D.V.M.M.M.M.M.M.M.M.M.M.M.M.V.M.M.V.Z.D.H.b.y.F % @ @ *                                           @ * 4.OX}.}.}.}.}.OX^.u @ I m.J.C.Z.C.M.M.M.M.M.M.M.M.M.M.M.M.M.M.V.H.M.q.i @ - B =.:.:.=.V 4 @ 4 V -.:.*.t @ 7 a.H.V.M.M.M.M.M.V.Z.D.Z.z.G @ S {.-X.X}.}.}.}.}.{..X.X>.# @                                                                                                                                                                                                                                                                                                                                                                                                                                                                                                                                                                                                                                                                                             t.",
"t.                                                                                                                                                                        , @ @ 7 8.b.J.Z.M.M.M.M.M.M.M.M.M.M.M.M.V.D.J.D.v.y.J : @ @ * ,                                           * @ y /.OX}.}.}.{.OX].S @ h x.J.Z.M.c.n.V.M.M.M.M.V.V.M.M.M.M.M.M.C.J.x.T ; @ r Z -.;.;.*.M # @ r D -.-.=.;.*.t @ f z.J.M.M.M.M.Z.J.b.u.I d 5 @ 1 1.'.OX-XOX}.}.}.}.}.OX'.S @ @                                                                                                                                                                                                                                                                                                                                                                                                                                                                                                                                                                                                                                                                                           t.",
"t.                                                                                                                                                                          2 @ @ % J s.Z.J.Z.V.V.M.M.M.V.V.Z.Z.J.D.m.g.W h ; @ @ @ *                                               @ @ ( }.OX}.}.}. XOX4.# 5 a.J.Z.C.0.j u.Z.V.M.M.C.D.C.M.M.M.M.M.Z.J.f.F @ # M *.;.;.-.D r @ # M *.-.=.=.=.-.;.V - @ U M.Z.M.V.D.Z.d.G ; @ - 0 1 @ * c } R.].OXOX}.}.}.}.+X/.u @ @                                                                                                                                                                                                                                                                                                                                                                                                                                                                                                                                                                                                                                                                                         t.",
"t.                                                                                                                                                                              @ @ @ 6 Y s.c.M.D.D.D.D.D.Z.m.x.d.9.J 7 @ @ @ @ *                                                   @ * 6.+X}.}.}.}.+X).u @ W Z.Z.D.p.: @ y.Z.V.M.Z.b.d.x.V.V.M.M.Z.Z.y.i @ 4 V =.;.-.=.V 1 @ 4 V =.;.=.=.-.;.*.M 1 # @ : y.D.Z.D.x.E 6 @ @ C 7./.7.[ u @ @ 3 C 4._.}.}.}.}. X+X6.3 @ ,                                                                                                                                                                                                                                                                                                                                                                                                                                                                                                                                                                                                                                                                                       t.",
"t.                                                                                                                                                                                * @ @ @ 5 h U W 0.w.q.8.R L f 6 @ @ @ @ * ,                                                     , @ x _.+X}.}.}..XOX>.@ f z.D.Z.k.f @ I n.Z.M.Z.M.E 6 9.Z.C.M.Z.n.E : @ r D ;.;.;.*.M @ @ r D ;.-.=.=.-.=.Z r @ # M t @ h c.D.i.h @ # # 1 6.;X-X-X X(.4.A 9 @ @ { ]. X}.}.{..X}.{ @ @                                                                                                                                                                                                                                                                                                                                                                                                                                                                                                                                                                                                                                                                                       t.",
"t.                                                                                                                                                                                    * @ @ @ @ @ $ % % $ @ @ @ @ @ @ *                                                           @ @ [  X.X}.}.}.OX_.x @ 9.D.Z.V.T @ s k.J.V.M.D.a.5 @ r.H.V.V.D.9.$ @ M =.:.;.-.D r @ # M *.;.-.=.-.;.*.B - @ 4 V =.*.4 ; E W 6 @ 4 M - y /.OX}.}.OXOXOX].R.} C ,.]. X}.}.}.}.OX).v @ *                                                                                                                                                                                                                                                                                                                                                                                                                                                                                                                                                                                                                                                                                     t.",
"t.                                                                                                                                                                                        , * @ @ @ @ @ @ @ @ * ,                                                                 @ 1 7.+X}.}.}.}.OX6.- a z.H.J.s.5 $ r.J.V.M.Z.v.F @ K n.D.M.H.g.7 @ # M D =.=.V 4 @ 4 V =.-.=.=.-.-.D r @ @ t D -.;.:.B $ ; $ @ M *.B @ S ]. X}.}.}.}.}. XOX X'.[.}.}.}.}.}.}.}.OX6.3 @                                                                                                                                                                                                                                                                                                                                                                                                                                                                                                                                                                                                                                                                                     t.",
"t.                                                                                                                                                                                                                                                                              , @ c _.OX}.}.}. X}.[ @ Y Z.L.m.K @ K n.Z.M.C.H.0.@ 7 f.H.M.Z.V.U @ * 1 @ - t M * @ r D ;.-.=.=.-.*.B - @ 4 V =.;.-.;.=.M @ @ 4 V -.=.r @ <.OX}.}.}.}.}.}.}.}.}..X X}.}.}.}.}.}.}.OX{.( @ *                                                                                                                                                                                                                                                                                                                                                                                                                                                                                                                                                                                                                                                                                   t.",
"t.                                                                                                                                                                                                                                                                              @ @ { }.}.}.}.}..X_.v $ y.J.L.s.: 5 a.H.M.V.J.x.d @ E Z.C.V.J.p.: 4 1.6.S 9 @ @ @ M *.;.-.=.;.-.D r @ @ t D ;.;.-.-.D t @ # t D ;.:.Z # w ^.OX}.}.}.}.}.}.}.}.}.}.}.}.}.}.}.}.}.}.}.-XR.9 @                                                                                                                                                                                                                                                                                                                                                                                                                                                                                                                                                                                                                                                                                   t.",
"t.                                                                                                                                                                                                                                                                              @ 1 6.OX}.}.}.}.OX(.y : d.P.Z.T @ K n.Z.M.Z.H.8.@ s k.D.M.D.b.F @ ( {.-X].T.S # @ t *.-.=.;.=.B 4 @ 1 B *.;.-.;.=.V 4 @ 4 V =.:.:.-.M @ S {.OX}.}.}.}.}.}.}.}.}.}.}.}.}.}.}.}.}.}.}.OX[.S @ *                                                                                                                                                                                                                                                                                                                                                                                                                                                                                                                                                                                                                                                                                 t.",
"t.                                                                                                                                                                                                                                                                              @ x (.OX}.}.}.}.OX/.y 5 g.P.c.f $ e.D.V.M.D.x.f @ 8.Z.V.V.Z.9.$ y ^.+X}. X+X[.1.9 @ t =.;.D t @ @ t D -.-.-.;.D t @ @ @ 4 M V D *.D - # 6.+X}.}.}.}.}.}.}.}.}.}.}.}.}.}.}.}.}.}.}.}.}.OX1.@ @                                                                                                                                                                                                                                                                                                                                                                                                                                                                                                                                                                                                                                                                                 t.",
"t.                                                                                                                                                                                                                                                                            * @ [ {. X}.}.}.}..X_.v @ 9.P.f.5 i j.D.M.V.D.w.$ s z.H.M.D.j.a @ ,.OX.X}.}.}.OX+X6.9 @ B V 4 @ 1 B *.;.-.-.=.Z 4 @ - r 4 @ @ @ - r 4 @ C '.OX}.}.}.}.}.}.}.}.}.}.}.}.}.}.}.}.}.}.}.}.}.-XR.3 @                                                                                                                                                                                                                                                                                                                                                                                                                                                                                                                                                                                                                                                                                 t.",
"t.                                                                                                                                                                                                                                                                            @ * 5.OX}.}.}.}.}.}. X>.@ 5 R Y @ j b.D.M.C.n.L @ R Z.Z.C.Z.R @ c `.+X}.}.}.}.{.OXOX} $ # # @ r D -.;.-.-.D M * @ r Z *.D V M r 4 @ @ # 5.+X}.}.}.}.}.}.}.}.}.}.}.}.}.}.}.}.}.}.}.}.}.}.+X^.0 @                                                                                                                                                                                                                                                                                                                                                                                                                                                                                                                                                                                                                                                                                 t.",
"t.                                                                                                                                                                                                                                                                            @ y /.OX}.}.}.}.}.}.OX_.( @ @ @ @ h n.D.M.D.x.s ; p.J.V.J.f.6 @ 5.OX X}.}.}.}.}.{.OX(.x @ 1 B *.;.-.;.-.B 4 @ # M *.:.;.-.-.=.=.D r @ C '.OX}.}.}.}.}.}.}.}.}.}.}.}.}.}.}.}.}.}.}.}.}.}.-XT.1 @                                                                                                                                                                                                                                                                                                                                                                                                                                                                                                                                                                                                                                                                                 t.",
"t.                                                                                                                                                                                                                                                                          * @ A ].OX}.}.}.}.}.}.}.OX`.5.( x @ 7 g.P.J.L.p.; 6 k.P.J.M.L @ C '.OX}.}.}.}.}.}.}. X X{ @ t =.;.=.;.*.B @ @ @ - M D *.-.;.-.-.:.V # 9 T.OX}.}.}.}.}.}.}.}.}.}.}.}.}.}.}.}.}.}.}.}.}.}. XOX,.@ @                                                                                                                                                                                                                                                                                                                                                                                                                                                                                                                                                                                                                                                                                 t.",
"t.                                                                                                                                                                                                                                                                          * @ >.OX.X}.}.}.}.}.}.}.{..XOX.X).v @ L g.k.w.d @ ; u.L.M.W @ 9 T.OX}.}.}.}.}.}.}.}.}.OX7.* r *.:.-.D r @ * x x * @ # r M Z *.;.D 4 $ >. X X}.}.}.}.}.}.}.}.}.}.}.}.}.}.}.}.}.}.}.}.}.}.+X_.c @ *                                                                                                                                                                                                                                                                                                                                                                                                                                                                                                                                                                                                                                                                                 t.",
"t.                                                                                                                                                                                                                                                                          @ 3 T.-X}.}.}.}.}.}.}.}.}.}.}.OX;X7.9 @ 6 7 @ @ 3 @ i U J $ # ,. X X}.}.}.}.}.}.}.}.}.OX/.w - D -.V - @ w 1.`.).5.( w @ @ @ 4 M r @ C '.;XOXOX X}.}.}.}.}.}.}.}.}.}.}.}.}.}.}.}.}.}.}.+X X} @ @                                                                                                                                                                                                                                                                                                                                                                                                                                                                                                                                                                                                                                                                                   t.",
"t.                                                                                                                                                                                                                                                                          @ x _.+X}.}.}.}.}.}.}.}.}.{.}.+X}.1.3 @ @ 4 x } 6.C @ @ @ 3 } [.OX}.}.}.}.}.}.}.}.}.}.OX_.x @ V M @ @ C R..X+XOXOX[.^.1.S w @ @ @ @ x <.R._.}.OX+X-XOXOX X}.{.}.}.}.}.}.}.}.}.}.}.OX-X{.1.3 @ *                                                                                                                                                                                                                                                                                                                                                                                                                                                                                                                                                                                                                                                                                   t.",
"t.                                                                                                                                                                                                                                                                        * @ ( {.OX}.}.}.}.}.}.}.}.{. XOX).[ * @ S 7.R.). X+X_.4.{ } R.{..X}.}.}.}.}.}.}.}.}.}.}.OX].C @ - @ 9 } `.+X X}.}.}. XOXOX[./.5.( y @ @ @ 9 c ( ,.7./.'.{.OX+X+X+XOXOXOX.X.XOXOX-X+X}.^.[ 3 @ *                                                                                                                                                                                                                                                                                                                                                                                                                                                                                                                                                                                                                                                                                     t.",
"t.                                                                                                                                                                                                                                                                        @ @ <.OX}.}.}.}.}.}.}.}.}..X}.7.x @ 3 >.].-X+XOX}.}.OXOX.XOXOX X{.}.}.}.}.}.}.}.}.}.}. X-X/.x @ @ c T..XOX}.}.}.}.}.}.}.}. XOX+X}.6.3 @ @ @ @ @ @ 1 w v ( } 4.T.^.(._.`.`.`._.(.R.5.( w @ @ *                                                                                                                                                                                                                                                                                                                                                                                                                                                                                                                                                                                                                                                                                       t.",
"t.                                                                                                                                                                                                                                                                        @ 3 T.+X}.}.}.}.}.}.}.}. X[.<.1 @ x 7..X+X}.}.}.}.}.}.}. X X}.}.}.}.}.}.}.}.}.}.}.}.OX}.7.c @ 3 { ).+XOX{.}.}.}.}.}.}.}.}.}.}.}.}./.u @ *   * @ @ @ @ @ @ @ # 3 0 u c v C C c u 9 # @ @ @ *                                                                                                                                                                                                                                                                                                                                                                                                                                                                                                                                                                                                                                                                                         t.",
"t.                                                                                                                                                                                                                                                                        @ x ).OX}.}.}.}.}.}.}.}.OX(.x @ ( (.OX.X}.}.}.}.}.}.}.}.}.}.}.}.}.}.}.}.}.}.}.}..X-X`.} 1 @ u 6.}.OX}.{.}.}.}.}.}.}.}.}.}.}.}.}.}.(.c @ *         2 * * @ @ @ @ @ @ @ @ @ @ @ @ @ @ * *                                                                                                                                                                                                                                                                                                                                                                                                                                                                                                                                                                                                                                                                                             t.",
"t.                                                                                                                                                                                                                                                                      * @ S ]. X}.}.}.}.}.}.}.}. X`.5.5.'.OX}.}.}.}.}.}.}.}.}.}.}.}.}.}.}.}.}.}.}.}.}.OX.XT.C @ # ( (.OX.X}.}.}.}.}.}.}.}.}.}.}.}.}.}.}.}.).v @ *                     2 , * * * * * * * ,                                                                                                                                                                                                                                                                                                                                                                                                                                                                                                                                                                                                                                                                                                   t.",
"t.                                                                                                                                                                                                                                                                      @ @ } .X}.}.}.}.}.}.}.}.}.}.}..XOX.X}.}.}.}.}.}.}.}.}.}.}.}.}.}.}.}.}.}.}.}. XOX`.} 9 @ u 5.{.OX}.{.}.}.}.}.}.}.}.}.}.}.}.}.}.}.}.}._.C * *                                                                                                                                                                                                                                                                                                                                                                                                                                                                                                                                                                                                                                                                                                                                           t.",
"t.                                                                                                                                                                                                                                                                      @ 1 6.OX}.}.}.}.}.}.}.}.}.}.}.}.}.}.}.}.}.}.}.}.}.}.}.}.}.}.}.}.}.}.}.}.}.OX.XT.C @ @ ( /.+XOX}.}.}.}.}.}.}.}.}.}.}.}.}.}.}.}.}.}.}._.A * *                                                                                                                                                                                                                                                                                                                                                                                                                                                                                                                                                                                                                                                                                                                                           t.",
"t.                                                                                                                                                                                                                                                                      @ w R.OX}.{.}.}.}.}.}.}.}.}.}.}.}.}.}.}.}.}.}.}.}.}.}.}.}.}.}.}.}.}.{..X-X`.>.9 @ y 1.].+X X}.}.}.}.}.}.}.}.}.}.}.}.}.}.}.}.}.}.}.}.`.A * *                                                                                                                                                                                                                                                                                                                                                                                                                                                                                                                                                                                                                                                                                                                                           t.",
"t.                                                                                                                                                                                                                                                                      @ c ).OX}.}.}.}.}.}.}.}.}.}.}.}.}.}.}.}.}.}.}.}.}.}.}.}.}.}.}.}.}.}.OX.XT.C @ @ S /.OX.X}.}.}.}.}.}.}.}.}.}.}.}.}.}.}.}.}.}.}.}.}.}.`.S * *                                                                                                                                                                                                                                                                                                                                                                                                                                                                                                                                                                                                                                                                                                                                           t.",
"t.                                                                                                                                                                                                                                                                    , @ A '. X}.}.}.}.}.}.}.}.}.}.}.}.}.}.}.}.}.}.}.}.}.}.}.}.}.}.}.}. XOX_.} 9 @ y 4.[.+X}.}.}.}.}.}.}.}.}.}.}.}.}.}.}.}.}.}.}.}.}.}.}.}.'.( * *                                                                                                                                                                                                                                                                                                                                                                                                                                                                                                                                                                                                                                                                                                                                           t.",
"t.                                                                                                                                                                                                                                                                    * @ [ {. X}.}.}.}.}.}.}.}.}.}.}.}.}.}.}.}.}.}.}.}.}.}.}.}.}.}. XOX{.7.v @ # ( /.OXOX}.}.}.}.}.}.}.}.}.}.}.}.}.}.}.}.}.}.}.}.}.}.}.}.}.].( * *                                                                                                                                                                                                                                                                                                                                                                                                                                                                                                                                                                                                                                                                                                                                           t.",
"t.                                                                                                                                                                                                                                                                    * @ { }. X}.}.}.}.}.}.}.}.}.}.}.}.}.}.}.}.}.}.}.}.}.{.}.}.}.OX+X).{ 1 @ y 5.].+X X}.}.}.}.}.}.}.}.}.}.}.}.}.}.}.}.}.}.}.}.}.}.}.}.}.}.].[ * @                                                                                                                                                                                                                                                                                                                                                                                                                                                                                                                                                                                                                                                                                                                                           t.",
"t.                                                                                                                                                                                                                                                                    * @ ( [. X}.}.}.}.}.}.}.}.}.}.}.}.}.}.}.}.}.}.}.}.}.}.{.}.+X[.6.x @ * ( /.OXOX}.}.}.}.}.}.}.}.}.}.}.}.}.}.}.}.}.}.}.}.}.}.}.}.}.}.}.}.[.{ @ @                                                                                                                                                                                                                                                                                                                                                                                                                                                                                                                                                                                                                                                                                                                                           t.",
"t.                                                                                                                                                                                                                                                                    2 @ v ).OX}.}.}.}.}.}.}.}.}.}.}.}.}.}.}.}.}.}.}.}.}.}.OX.XR.S # @ c 6.}.OX}.{.}.}.}.}.}.}.}.}.}.}.}.}.}.}.}.}.}.}.}.}.}.}.}.}.}.}.}.}.{.{ @ @                                                                                                                                                                                                                                                                                                                                                                                                                                                                                                                                                                                                                                                                                                                                           t.",
"t.                                                                                                                                                                                                                                                                      @ 3 6.+X}.}.}.}.}.}.}.}.}.}.}.}.}.}.}.}.}.}.}.}.OXOX_.{ 9 @ 9 } _.-XOX}.}.}.}.}.}.}.}.}.}.}.}.}.}.}.}.}.}.}.}.}.}.}.}.}.}.}.}.}.}.}.{.} @ @                                                                                                                                                                                                                                                                                                                                                                                                                                                                                                                                                                                                                                                                                                                                           t.",
"t.                                                                                                                                                                                                                                                                      * @ C `.+X}.}.}.}.}.}.}.}.}.}.}.}.}.}.}.{.}.OX-X[.6.C @ @ * 1. XOX X}.}.}.}.}.}.}.}.}.}.}.}.}.}.}.}.}.}.}.}.}.}.}.}.}.}.}.}.}.}.}.}.{.} @ *                                                                                                                                                                                                                                                                                                                                                                                                                                                                                                                                                                                                                                                                                                                                           t.",
"t.                                                                                                                                                                                                                                                                        @ @ { }.OX}.}.}.}.}.}.}.}.}.}.}.}.}.{.}.+X.XR.S 1 @ @ @ 3 T.OX}.}.}.}.}.}.}.}.}.}.}.}.}.}.}.}.}.}.}.}.}.}.}.}.}.}.}.}.}.}.}.}.}.}.}.>.@ *                                                                                                                                                                                                                                                                                                                                                                                                                                                                                                                                                                                                                                                                                                                                           t.",
"t.                                                                                                                                                                                                                                                                        * @ 1 } ].+X X}.}.{.}.}.}.}.}.}.}.}.OX X/.{ 0 @ @ @ * @ w ^..X}.}.}.}.}.}.}.}.}.}.}.}.}.}.}.}.}.}.}.}.}.}.}.}.}.}.}.}.}.}.}.}.}.}.}.,.@ @                                                                                                                                                                                                                                                                                                                                                                                                                                                                                                                                                                                                                                                                                                                                           t.",
"t.                                                                                                                                                                                                                                                                          @ @ * ( /..XOXOX X}.}.}.}. XOXOXOX(.} y @ @ @ *   * @ x (. X}.}.}.}.}.}.}.}.}.}.}.}.}.}.}.}.}.}.}.}.}.}.}.}.}.}.}.}.}.}.}.}.}.}.}.1.@ @                                                                                                                                                                                                                                                                                                                                                                                                                                                                                                                                                                                                                                                                                                                                           t.",
"t.                                                                                                                                                                                                                                                                            @ @ @ u >./.}.OX+X-X-X+XOX{./.>.c @ @ @ *       * @ c (.}.}.}.}.}.}.}.}.}.}.}.}.}.}.}.}.}.}.}.}.}.}.}.}.}.}.}.}.}.}.}.}.}.}.}.}.4.@ *                                                                                                                                                                                                                                                                                                                                                                                                                                                                                                                                                                                                                                                                                                                                           t.",
"t.                                                                                                                                                                                                                                                                              * @ @ @ u ( ,.7.R.R.T.1.( y @ @ @ * 2         * @ c (.}.}.}.}.}.}.}.}.}.}.}.}.}.}.}.}.}.}.}.}.}.}.}.}.}.}.}.}.}.}.}.}.}.}.}.}.4.@ @                                                                                                                                                                                                                                                                                                                                                                                                                                                                                                                                                                                                                                                                                                                                           t.",
"t.                                                                                                                                                                                                                                                                                2 * @ @ @ @ 1 9 9 3 @ @ @ @ * 2             * @ c (.}.}.}.}.}.}.}.}.}.}.}.}.}.}.}.}.}.}.}.}.}.}.}.}.}.}.}.}.}.}.}.}.}.}.}.}.5.@ @                                                                                                                                                                                                                                                                                                                                                                                                                                                                                                                                                                                                                                                                                                                                           t.",
"t.                                                                                                                                                                                                                                                                                      * @ @ @ @ @ @ @ @ *                   * @ x /.{.}.}.}.}.}.}.}.}.}.}.}.}.}.}.}.}.}.}.}.}.}.}.}.}.}.}.}.}.}.}.}.}.}.}.}.6., @                                                                                                                                                                                                                                                                                                                                                                                                                                                                                                                                                                                                                                                                                                                                           t.",
"t.                                                                                                                                                                                                                                                                                              , , 2                         * @ x /.}.}.}.}.}.}.}.}.}.}.}.}.}.}.}.}.}.}.}.}.}.}.}.}.}.}.}.}.}.}.}.}.}.}.}.}.6., @                                                                                                                                                                                                                                                                                                                                                                                                                                                                                                                                                                                                                                                                                                                                           t.",
"t.                                                                                                                                                                                                                                                                                                                            * @ u /.}.}.}.}.}.}.}.}.}.}.}.}.}.}.}.}.}.}.}.}.}.}.}.}.}.}.}.}.}.}.}.}.}.}.}.}.7., @                                                                                                                                                                                                                                                                                                                                                                                                                                                                                                                                                                                                                                                                                                                                           t.",
"t.                                                                                                                                                                                                                                                                                                                            * @ u /.}.}.}.}.}.}.}.}.}.}.}.}.}.}.}.}.}.}.}.}.}.}.}.}.}.}.}.}.}.}.}.}.}.}.}.}.7., @                                                                                                                                                                                                                                                                                                                                                                                                                                                                                                                                                                                                                                                                                                                                           t.",
"t.                                                                                                                                                                                                                                                                                                                            * @ y /.}.}.}.}.}.}.}.}.}.}.}.}.}.}.}.}.}.}.}.}.}.}.}.}.}.}.}.}.}.}.}.}.}.}.}.}.T., @                                                                                                                                                                                                                                                                                                                                                                                                                                                                                                                                                                                                                                                                                                                                           t.",
"t.                                                                                                                                                                                                                                                                                                                            * @ w ^.}.}.}.}.}.}.}.}.}.}.}.}.}.}.}.}.}.}.}.}.}.}.}.}.}.}.}.}.}.}.}.}.}.}.}.{.R.@ @                                                                                                                                                                                                                                                                                                                                                                                                                                                                                                                                                                                                                                                                                                                                           t.",
"t.                                                                                                                                                                                                                                                                                                                            * @ w ^.}.}.}.}.}.}.}.}.}.}.}.}.}.}.}.}.}.}.}.}.}.}.}.}.}.}.}.}.}.}.}.}.}.}.}.}.R.@ @                                                                                                                                                                                                                                                                                                                                                                                                                                                                                                                                                                                                                                                                                                                                           t.",
"t.                                                                                                                                                                                                                                                                                                                            * @ 0 ^.}.}.}.}.}.}.}.}.}.}.}.}.}.}.}.}.}.}.}.}.}.}.}.}.}.}.}.}.}.}.}.}.}.}.}.}.^.@ @                                                                                                                                                                                                                                                                                                                                                                                                                                                                                                                                                                                                                                                                                                                                           t.",
"t.                                                                                                                                                                                                                                                                                                                            , @ 0 ^.}.}.}.}.}.}.}.}.}.}.}.}.}.}.}.}.}.}.}.}.}.}.}.}.}.}.}.}.}.}.}.}.}.}.}.}.^.0 @                                                                                                                                                                                                                                                                                                                                                                                                                                                                                                                                                                                                                                                                                                                                           t.",
"t.                                                                                                                                                                                                                                                                                                                            , @ 0 ^.}.}.}.}.}.}.}.}.}.}.}.}.}.}.}.}.}.}.}.}.}.}.}.}.}.}.}.}.}.}.}.}.}.}.}.}./.w @                                                                                                                                                                                                                                                                                                                                                                                                                                                                                                                                                                                                                                                                                                                                           t.",
"t.                                                                                                                                                                                                                                                                                                                            2 @ 9 R.}.}.}.}.}.}.}.}.}.}.}.}.}.}.}.}.}.}.}.}.}.}.}.}.}.}.}.}.}.}.}.}.}.}.}.}.(.w @                                                                                                                                                                                                                                                                                                                                                                                                                                                                                                                                                                                                                                                                                                                                           t.",
"t.                                                                                                                                                                                                                                                                                                                              @ 9 R.}.}.}.}.}.}.}.}.}.}.}.}.}.}.}.}.}.}.}.}.}.}.}.}.}.}.}.}.}.}.}.}.}.}.}.}.(.u @ 2                                                                                                                                                                                                                                                                                                                                                                                                                                                                                                                                                                                                                                                                                                                                         t.",
"t.                                                                                                                                                                                                                                                                                                                              @ , R.}.}.}.}.}.}.}.}.}.}.}.}.}.}.}.}.}.}.}.}.}.}.}.}.}.}.}.}.}.}.}.}.}.}.}.}.).u @ ,                                                                                                                                                                                                                                                                                                                                                                                                                                                                                                                                                                                                                                                                                                                                         t.",
"t.                                                                                                                                                                                                                                                                                                                              @ , R.}.}.}.}.}.}.}.}.}.}.}.}.}.}.}.}.}.}.}.}.}.}.}.}.}.}.}.}.}.}.}.}.}.}.}.}.).u @ ,                                                                                                                                                                                                                                                                                                                                                                                                                                                                                                                                                                                                                                                                                                                                         t.",
"t.                                                                                                                                                                                                                                                                                                                              @ , T.}.}.}.}.}.}.}.}.}.}.}.}.}.}.}.}.}.}.}.}.}.}.}.}.}.}.}.}.}.}.}.}.}.}.}.}._.u @ ,                                                                                                                                                                                                                                                                                                                                                                                                                                                                                                                                                                                                                                                                                                                                         t.",
"t.                                                                                                                                                                                                                                                                                                                              @ @ T.}.}.}.}.}.}.}.}.}.}.}.}.}.}.}.}.}.}.}.}.}.}.}.}.}.}.}.}.}.}.}.}.}.}.}.}._.x @ *                                                                                                                                                                                                                                                                                                                                                                                                                                                                                                                                                                                                                                                                                                                                         t.",
"t.                                                                                                                                                                                                                                                                                                                              @ @ T.}.}.}.}.}.}.}.}.}.}.}.}.}.}.}.}.}.}.}.}.}.}.}.}.}.}.}.}.}.}.}.}.}.}.}.}.`.c @ *                                                                                                                                                                                                                                                                                                                                                                                                                                                                                                                                                                                                                                                                                                                                         t.",
"t.                                                                                                                                                                                                                                                                                                                              @ @ T.}.}.}.}.}.}.}.}.}.}.}.}.}.}.}.}.}.}.}.}.}.}.}.}.}.}.}.}.}.}.}.}.}.}.}.}.`.c @ *                                                                                                                                                                                                                                                                                                                                                                                                                                                                                                                                                                                                                                                                                                                                         t.",
"t.                                                                                                                                                                                                                                                                                                                              @ @ T.}.{.}.}.}.}.}.}.}.}.}.}.}.}.}.}.}.}.}.}.}.}.}.}.}.}.}.}.}.}.}.}.}.}.}.}.'.c @ *                                                                                                                                                                                                                                                                                                                                                                                                                                                                                                                                                                                                                                                                                                                                         t.",
"t.                                                                                                                                                                                                                                                                                                                              @ @ 7.}.{.}.}.}.}.}.}.}.}.}.}.}.}.}.}.}.}.}.}.}.}.}.}.}.}.}.}.}.}.}.}.}.}.}.}.'.v @ *                                                                                                                                                                                                                                                                                                                                                                                                                                                                                                                                                                                                                                                                                                                                         t.",
"t.                                                                                                                                                                                                                                                                                                                              @ @ 7.}.{.{.}.}.}.}.}.}.}.}.}.}.}.}.}.}.}.}.}.}.}.}.}.}.}.}.}.}.}.}.}.}.}.}.}.].v @ *                                                                                                                                                                                                                                                                                                                                                                                                                                                                                                                                                                                                                                                                                                                                         t.",
"t.                                                                                                                                                                                                                                                                                                                              @ @ 7.}.}.}.}.}.}.}.}.}.}.}.}.}.}.}.}.}.}.}.}.}.}.}.}.}.}.}.}.}.}.}.}.}.}.}.}.].v @ *                                                                                                                                                                                                                                                                                                                                                                                                                                                                                                                                                                                                                                                                                                                                         t.",
"t.                                                                                                                                                                                                                                                                                                                              @ @ 7.}.}.}.}.}.}.}.}.}.}.}.}.}.}.}.}.}.}.}.}.}.}.}.}.}.}.}.}.}.}.}.}.}.}.}.}.].C @ @                                                                                                                                                                                                                                                                                                                                                                                                                                                                                                                                                                                                                                                                                                                                         t.",
"t.                                                                                                                                                                                                                                                                                                                              @ @ 7.}.}.}.}.}.}.}.}.}.}.}.}.}.}.}.}.}.}.}.}.}.}.}.}.}.}.}.}.}.}.}.}.}.}.}.}.].C @ @                                                                                                                                                                                                                                                                                                                                                                                                                                                                                                                                                                                                                                                                                                                                         t.",
"t.                                                                                                                                                                                                                                                                                                                              @ @ 7.}.}.}.}.}.}.}.}.}.}.}.}.}.}.}.}.}.}.}.}.}.}.}.}.}.}.}.}.}.}.}.}.}.}.}.}.].C @ @                                                                                                                                                                                                                                                                                                                                                                                                                                                                                                                                                                                                                                                                                                                                         t.",
"t.                                                                                                                                                                                                                                                                                                                              @ @ 6.}.}.}.}.}.}.}.}.}.}.}.}.}.}.}.}.}.}.}.}.}.}.}.}.}.}.}.}.}.}.}.}.}.}.}.}.[.C @ *                                                                                                                                                                                                                                                                                                                                                                                                                                                                                                                                                                                                                                                                                                                                         t.",
"t.                                                                                                                                                                                                                                                                                                                              @ @ 6.}.{.}.}.}.}.}.}.}.}.}.}.}.}.}.}.}.}.}.}.}.}.}.}.}.}.}.}.}.}.}.}.}.}.}.}.[.A @ *                                                                                                                                                                                                                                                                                                                                                                                                                                                                                                                                                                                                                                                                                                                                         t.",
"t.                                                                                                                                                                                                                                                                                                                              @ @ 6.}.{.{.}.}.}.}.}.}.}.}.}.}.}.}.}.}.}.}.}.}.}.}.}.}.}.}.}.}.}.}.}.}.}.}.}.[.A @ @                                                                                                                                                                                                                                                                                                                                                                                                                                                                                                                                                                                                                                                                                                                                         t.",
"t.                                                                                                                                                                                                                                                                                                                              @ @ 6.}.{.{.}.}.}.}.}.}.}.}.}.}.}.}.}.}.}.}.}.}.}.}.}.}.}.}.}.}.}.}.}.}.}.}.}.[.S @ @                                                                                                                                                                                                                                                                                                                                                                                                                                                                                                                                                                                                                                                                                                                                         t.",
"t.                                                                                                                                                                                                                                                                                                                              @ @ 6.}.}.}.}.}.}.}.}.}.}.}.}.}.}.}.}.}.}.}.}.}.}.}.}.}.}.}.}.}.}.}.}.}.}.}.}.[.S @ @                                                                                                                                                                                                                                                                                                                                                                                                                                                                                                                                                                                                                                                                                                                                         t.",
"t.                                                                                                                                                                                                                                                                                                                              @ * 6.}.}.}.}.}.}.}.}.}.}.}.}.}.}.}.}.}.}.}.}.}.}.}.}.}.}.}.}.}.}.}.}.}.}.}.}.[.( @ @                                                                                                                                                                                                                                                                                                                                                                                                                                                                                                                                                                                                                                                                                                                                         t.",
"t.                                                                                                                                                                                                                                                                                                                              @ * 5.}.}.}.}.}.}.}.}.}.}.}.}.}.}.}.}.}.}.}.}.}.}.}.}.}.}.}.}.}.}.}.}.}.}.}.}.[.[ @ @                                                                                                                                                                                                                                                                                                                                                                                                                                                                                                                                                                                                                                                                                                                                         t.",
"t.                                                                                                                                                                                                                                                                                                                              @ * 5.}.}.}.}.}.}.}.}.}.}.}.}.}.}.}.}.}.}.}.}.}.}.}.}.}.}.}.}.}.}.}.}.}.}.}.}.{.[ @ @                                                                                                                                                                                                                                                                                                                                                                                                                                                                                                                                                                                                                                                                                                                                         t.",
"t.                                                                                                                                                                                                                                                                                                                              @ * 5.}.}.}.}.}.}.}.}.}.}.}.}.}.}.}.}.}.}.}.}.}.}.}.}.}.}.}.}.}.}.}.}.}.}.}.}.{.{ @ @                                                                                                                                                                                                                                                                                                                                                                                                                                                                                                                                                                                                                                                                                                                                         t.",
"t.                                                                                                                                                                                                                                                                                                                              @ # 5.}.}.}.}.}.}.}.}.}.}.}.}.}.}.}.}.}.}.}.}.}.}.}.}.}.}.}.}.}.}.}.}.}.}.}.}.{.} @ @                                                                                                                                                                                                                                                                                                                                                                                                                                                                                                                                                                                                                                                                                                                                         t.",
"t.                                                                                                                                                                                                                                                                                                                              @ # 4.}.}.}.}.}.}.}.}.}.}.}.}.}.}.}.}.}.}.}.}.}.}.}.}.}.}.}.}.}.}.}.}.}.}.}.}.}.1.@ @ @ ,                                                                                                                                                                                                                                                                                                                                                                                                                                                                                                                                                                                                                                                                                                                                     t.",
"t.                                                                                                                                                                                                                                                                                                                        2 * @ @ * 5.}.}.}.}.}.}.}.}.}.}.}.}.}.}.}.}.}.}.}.}.}.}.}.}.}.}.}.}.}.}.}.}.}.}.}.}.}./.x 1 @ @ @ *                                                                                                                                                                                                                                                                                                                                                                                                                                                                                                                                                                                                                                                                                                                                 t.",
"t.                                                                                                                                                                                                                                                                                                                    * @ @ @ * 3 x /.}.}.}.}.}.}.}.}.}.}.}.}.}.}.}.}.}.}.}.}.}.}.}.}.}.}.}.}.}.}.}.}.}.}.}.}.}. X_.T.} v * @ @ ,                                                                                                                                                                                                                                                                                                                                                                                                                                                                                                                                                                                                                                                                                                                             t.",
"t.                                                                                                                                                                                                                                                                                                                  @ @ @ x [ 4.T.(.}.}.}.}.}.}.}.}.}.}.}.}.}.}.}.}.}.}.}.}.}.}.}.}.}.}.}.}.}.}.}.}.}.}.}.}.}.{.}.OXOX.X_.4.v @ @ *                                                                                                                                                                                                                                                                                                                                                                                                                                                                                                                                                                                                                                                                                                                           t.",
"t.                                                                                                                                                                                                                                                                                                              , @ @ x 4.).}.OXOX.X}.}.}.}.}.}.}.}.}.}.}.}.}.}.}.}.}.}.}.}.}.}.}.}.}.}.}.}.}.}.}.}.}.}.}.}.}.}.}.}.}.}.OXOX_.{ 1 @ *                                                                                                                                                                                                                                                                                                                                                                                                                                                                                                                                                                                                                                                                                                                         t.",
"t.                                                                                                                                                                                                                                                                                                              @ * S (.+XOX X}.}.}.}.}.}.}.}.}.}.}.}.}.}.}.}.}.}.}.}.}.}.}.}.}.}.}.}.}.}.}.}.}.}.}.}.}.}.}.}.}.}.}.}.}.}.}.+X}.>.1 @ 2                                                                                                                                                                                                                                                                                                                                                                                                                                                                                                                                                                                                                                                                                                                       t.",
"t.                                                                                                                                                                                                                                                                                                            @ @ ( `.-X X{.}.}.}.}.}.}.}.}.}.}.}.}.}.}.}.}.}.}.}.}.}.}.}.}.}.}.}.}.}.}.}.}.}.}.}.}.}.}.}.}.}.}.}.}.}.}.}.}.}.OX{.[ @ @                                                                                                                                                                                                                                                                                                                                                                                                                                                                                                                                                                                                                                                                                                                       t.",
"t.                                                                                                                                                                                                                                                                                                          * @ u /.-X}.}.}.}.}.}.}.}.}.}.}.}.}.}.}.}.}.}.}.}.}.}.}.}.}.}.}.}.}.}.}.}.}.}.}.}.}.}.}.}.}.}.}.}.}.}.}.}.}.}.}.}.}.+X/.u @ ,                                                                                                                                                                                                                                                                                                                                                                                                                                                                                                                                                                                                                                                                                                                     t.",
"t.                                                                                                                                                                                                                                                                                                          @ @ >.OX.X}.}.}.}.}.}.}.}.}.}.}.}.}.}.}.}.}.}.}.}.}.}.}.}.}.}.}.}.}.}.}.}.}.}.}.}.}.}.}.}.}.}.}.}.}.}.}.}.}.}.}.}.}. X X} @ *                                                                                                                                                                                                                                                                                                                                                                                                                                                                                                                                                                                                                                                                                                                     t.",
"t.                                                                                                                                                                                                                                                                                                          @ y ).;X.X.X.X.X.X.X.X.X.X.X.X.X.X X}..XOXOXOXOXOXOXOXOXOXOXOXOXOXOXOXOXOXOXOXOXOXOXOXOXOXOXOXOXOXOXOXOXOXOXOXOXOXOXOX;XR.0 @                                                                                                                                                                                                                                                                                                                                                                                                                                                                                                                                                                                                                                                                                                                     t.",
"t.                                                                                                                                                                                                                                                                                                        * @ S `.].`.`.`._._._._._.).).).).).)._.).(././././.^.^.^.^.^.^.R.R.R.R.R.T.T.T.T.T.T.7.7.7.7.7.7.6.6.6.6.5.5.5.5.5.4.4.5.,.y @                                                                                                                                                                                                                                                                                                                                                                                                                                                                                                                                                                                                                                                                                                                     t.",
"t.                                                                                                                                                                                                                                                                                                        @ # c A C C C v v v v c c c c x x x x x x u u u y y y y w 9 9 3 3 3 3 3 1 1 1 - - # # # @ @ @ @ @ 1 1 * # # @ @ @ @ @ @ @ @ # @ ,                                                                                                                                                                                                                                                                                                                                                                                                                                                                                                                                                                                                                                                                                                                   t.",
"t.                                                                                                                                                                                                                                                                                                        @ @ % @ @ @ @ @ @ @ @ @ @ @ @ $ @ $ $ $ % % * * * * @ @ e l k k k l l l z z z z z b b b b b b n l @ @ 9 q q q q q e e e e k 3 @ *                                                                                                                                                                                                                                                                                                                                                                                                                                                                                                                                                                                                                                                                                                                   t.",
"t.                                                                                                                                                                                                                                                                                                        @ * b Q m m m H H H H Q Q Q Q Q ~ ~ ~ ~ ~ ~ ~ ~ ^ ^ k @ ! #X=X*X*X*X=X=X>X>X,X,X,X<X<X<X1X1X1X9Xh.@ e ` ' ` ' ' ' ' ' '  . .l @ *                                                                                                                                                                                                                                                                                                                                                                                                                                                                                                                                                                                                                                                                                                                   t.",
"t.                                                                                                                                                                                                                                                                                                        @ # Q o.X.X.X.X.X.X.X.X.X.X.X.X.X.X.X.X.X.X.X.X.X.o.^ 1 * Y.qXqXqXqXqXqXqXqXqXqXqXqXqXqXqXqXqX<Xn @ n X.X...............X...k @ *                                                                                                                                                                                                                                                                                                                                                                                                                                                                                                                                                                                                                                                                                                                   t.",
"t.                                                                                                                                                                                                                                                                                                        @ # m X. . . . . . . . . . . . . . . .'  . . . . .....b @ q W.qXqXqXqXqXqXqXqXqXqXqXqXqXqXqX,X_ @ 3 ) .. . . . . . . . ...` q @ 2                                                                                                                                                                                                                                                                                                                                                                                                                                                                                                                                                                                                                                                                                                                   t.",
"t.                                                                                                                                                                                                                                                                                                        @ @ b .. . . . . . . . . .'  . . . . . . . . . . . ...' k @ e U.1XqXqXqXqXqXqXqXqXqXqXqX9X!.Q @ * H .. . . . . . . . . ...^ 1 @                                                                                                                                                                                                                                                                                                                                                                                                                                                                                                                                                                                                                                                                                                                     t.",
"t.                                                                                                                                                                                                                                                                                                        * @ k ' .. . . . . . . . . . . . . . . . . . . . . . ...` l @ $ Q Y.$X7XqXqXqXqXqX7X&XY._ 3 @ 3 Q .. . . . . . . . . . ...n @ @                                                                                                                                                                                                                                                                                                                                                                                                                                                                                                                                                                                                                                                                                                                     t.",
"t.                                                                                                                                                                                                                                                                                                          @ 1 ^ X. . . . . . . . . . . . . . . . . . . . . . . .X. .l @ @ @ w ! o.+.+.+.o.! k $ @ @ l ^ X. . . . . . . . . . ...) q @ *                                                                                                                                                                                                                                                                                                                                                                                                                                                                                                                                                                                                                                                                                                                     t.",
"t.                                                                                                                                                                                                                                                                                                          @ @ z .... . . . . . .'  . . . . . . .'  . . . . . . ... .k @ e q @ @ @ @ @ @ @ @ @ @ 3 H  ... . . . . . . . . . .....b $ @                                                                                                                                                                                                                                                                                                                                                                                                                                                                                                                                                                                                                                                                                                                       t.",
"t.                                                                                                                                                                                                                                                                                                          , @ 1 Q X. . . . . . . . . . . . . . . . . . . . . . .X.Q * 1 ~ ' ~ n z l l l b H b @ e ' .. . . . . . . . . . ...X.m * @ *                                                                                                                                                                                                                                                                                                                                                                                                                                                                                                                                                                                                                                                                                                                       t.",
"t.                                                                                                                                                                                                                                                                                                            @ @ 3 ~ .... . . . . . . . . . . . . . . . . . . . .' l @ l  .X.X.X... . .....o.H @ q `  . . . . . . . . . ...' n 1 @ @                                                                                                                                                                                                                                                                                                                                                                                                                                                                                                                                                                                                                                                                                                                         t.",
"t.                                                                                                                                                                                                                                                                                                            @ @ @ 1 n ' X... . . . . . . . . . . . . . . . . ...~ * * Q X. . . . . . . . .X.m @ q `  .' ' ' '  . ...X. .~ l # @ @ 2                                                                                                                                                                                                                                                                                                                                                                                                                                                                                                                                                                                                                                                                                                                         t.",
"t.                                                                                                                                                                                                                                                                                                          @ @ 6 f @ @ k H ` ..X.X... . . . . . . . . . . . . . .z @ e ' .. . . . . . . . .X.m @ e `  . . ...X.X...' ~ z 3 @ @ *                                                                                                                                                                                                                                                                                                                                                                                                                                                                                                                                                                                                                                                                                                                             t.",
"t.                                                                                                                                                                                                                                                                                                        * @ % 9.x.W 6 @ # q b Q ) '  ...X.X......... . . . .X.^ 1 @ m X. . . . . . . . ...X.m @ e ' X... .' ) Q b e 1 @ @ @ *                                                                                                                                                                                                                                                                                                                                                                                                                                                                                                                                                                                                                                                                                                                               t.",
"t.                                                                                                                                                                                                                                                                                                      * @ ; E V.L.Z.f.K $ @ @ * 3 e z n H ~ ^ ) ` ` ` ' '  . .b @ q ` X. . . . . . . .' '  .n @ q Q H n z w 3 * @ @ @ @ *                                                                                                                                                                                                                                                                                                                                                                                                                                                                                                                                                                                                                                                                                                                                   t.",
"t.                                                                                                                                                                                                                                                                                                    * @ ; E m.D.M.D.P.0.$ @ * @ @ @ @ @ @ * 1 3 q q e e k k k 1 @ q l l l z l l l l k k e e 3 @ @ * * @ @ @ @ @ @ * ,                                                                                                                                                                                                                                                                                                                                                                                                                                                                                                                                                                                                                                                                                                                                       t.",
"t.                                                                                                                                                                                                                                                                                                  * @ % E n.D.M.M.D.n.G @ *   * @ @ 9 k q 2 * % $ @ @ @ @ @ @ @ @ @ @ @ @ @ @ @ @ @ @ @ @ @ @ $ * 1 * @ @ * 2                                                                                                                                                                                                                                                                                                                                                                                                                                                                                                                                                                                                                                                                                                                                               t.",
"t.                                                                                                                                                                                                                                                                                                @ @ ; W m.D.V.M.V.J.a.5 @ ,   * @ 1 b m m n n b z z l l l l l l e * @ 3 k k k k k k k l l l z z b n q @ @ ,                                                                                                                                                                                                                                                                                                                                                                                                                                                                                                                                                                                                                                                                                                                                                 t.",
"t.                                                                                                                                                                                                                                                                                              @ @ 5 8.V.D.M.M.M.Z.V.Y @ @     * @ q n m m m H H H H H H H m m m z * 1 z m m m m m m m m m m H H H m l @ @ ,                                                                                                                                                                                                                                                                                                                                                                                                                                                                                                                                                                                                                                                                                                                                                 t.",
"t.                                                                                                                                                                                                                                                                                            @ @ p e.Z.Z.M.M.M.V.H.g.p @ *     @ @ e m m m m m m m m m m m m m m l * 3 b m m m m m m m m m m m m m m l @ @                                                                                                                                                                                                                                                                                                                                                                                                                                                                                                                                                                                                                                                                                                                                                   t.",
"t.                                                                                                                                                                                                                                                                                        * @ @ f s.D.Z.M.M.M.M.V.Z.W $ @       @ @ k m m m m m m m m m m m m m m k # 9 n m m m m m m m m m m m m m m k @ *                                                                                                                                                                                                                                                                                                                                                                                                                                                                                                                                                                                                                                                                                                                                                   t.",
"t.                                                                                                                                                                                                                                                                                      @ @ $ K j.H.Z.M.M.M.M.M.D.k.f @ *     , @ @ l m m m m m m m m m m m m m m q # q m m m m m m m m m m m m m m m e @ @                                                                                                                                                                                                                                                                                                                                                                                                                                                                                                                                                                                                                                                                                                                                                   t.",
"t.                                                                                                                                                                                                                                                                                  , @ @ 7 8.n.D.V.M.M.M.M.M.V.Z.8.$ @ 2     , @ 1 z ^ ) ^ ^ ^ ^ ~ ~ ~ ~ ~ ~ Q m q # e m Q H H H H H Q Q H H H H H n 3 @ *                                                                                                                                                                                                                                                                                                                                                                                                                                                                                                                                                                                                                                                                                                                                                   t.",
"t.                                                                                                                                                                                                                                                                                @ @ $ F s.D.D.M.M.M.M.M.M.M.D.z.d @ @       * * q ^  . . . . . . . . . . . . .^ q * b '  . . . . . . . . . .' '  .H @ @ *                                                                                                                                                                                                                                                                                                                                                                                                                                                                                                                                                                                                                                                                                                                                                   t.",
"t.                                                                                                                                                                                                                                                                            * @ @ 6 E x.J.Z.M.M.M.M.M.M.M.C.H.8.$ @ ,       @ * k `  . . . . . . . . . . . . .~ 3 1 H  . . . . . . . . . . . . . .~ , @ *                                                                                                                                                                                                                                                                                                                                                                                                                                                                                                                                                                                                                                                                                                                                                   t.",
"t.                                                                                                                                                                                                                                                                          @ @ $ G a.V.D.V.M.M.M.M.M.M.M.M.J.k.s @ @         8 * z '  . . . . . . . . . . . . .m 1 3 ~  . . . . . . . .|  . . . . .Q , @ ,                                                                                                                                                                                                                                                                                                                                                                                                                                                                                                                                                                                                                                                                                                                                                   t.",
"t.                                                                                                                                                                                                                                                                      * @ @ i 8.b.J.C.M.M.M.M.V.M.M.M.M.Z.Z.R @ @ 2         @ * n  . . . . . . . . . . . . . .n * q )  . . . . . . . .'  . . . . .m 1 @ 2                                                                                                                                                                                                                                                                                                                                                                                                                                                                                                                                                                                                                                                                                                                                                   t.",
"t.                                                                                                                                                                                                                                                                    @ @ : K d.D.H.V.M.M.M.M.M.M.M.M.M.V.H.d.7 @ *         , @ 1 H  . . . . . . . . . . . . .' z * k `  . . . . . . . . . . . . . .b @ *                                                                                                                                                                                                                                                                                                                                                                                                                                                                                                                                                                                                                                                                                                                                                     t.",
"t.                                                                                                                                                                                                                                                                * @ @ s q.b.H.Z.M.M.M.M.M.M.M.M.M.M.M.Z.n.L @ @           , , 3 ~  . . . . . . .'  . . . . .` k * z '  . . . . . . . . . . . . .' z @ @                                                                                                                                                                                                                                                                                                                                                                                                                                                                                                                                                                                                                                                                                                                                                     t.",
"t.                                                                                                                                                                                                                                                              @ @ % I g.D.Z.V.M.M.M.M.M.M.M.M.M.M.M.V.D.w.: @ *           * * q )  . . . . . . . . . . . . .) e * b  . . . . . . .'  .'  . . . .` k @ *                                                                                                                                                                                                                                                                                                                                                                                                                                                                                                                                                                                                                                                                                                                                                     t.",
"t.                                                                                                                                                                                                                                                          , @ @ a q.m.D.V.M.M.M.V.M.M.M.M.M.M.M.M.M.H.j.d @ @             * * k `  . . . . . . . . . . . .' ^ 9 1 m  . . . . . . .|  . . . . . .) e @ *                                                                                                                                                                                                                                                                                                                                                                                                                                                                                                                                                                                                                                                                                                                                                     t.",
"t.                                                                                                                                                                                                                                                        * @ $ K g.H.D.M.M.M.M.M.M.M.M.M.M.M.M.M.M.D.M.I @ @ 2             8 * z '  . . . . . . . . . . . . .Q 3 3 Q  . . . . . . . . . . . . . .^ q @ *                                                                                                                                                                                                                                                                                                                                                                                                                                                                                                                                                                                                                                                                                                                                                     t.",
"t.                                                                                                                                                                                                                                                      @ @ ; T v.J.Z.M.M.M.M.M.M.M.M.M.M.M.M.M.M.Z.J.w.; @ *               @ * n  . . . . . . . . . . . . . .n 1 q ^  . . . . . . . . . . . . . .Q , @ ,                                                                                                                                                                                                                                                                                                                                                                                                                                                                                                                                                                                                                                                                                                                                                     t.",
"t.                                                                                                                                                                                                                                                    * @ 6 9.M.D.V.M.M.M.M.M.M.M.M.M.M.M.M.M.M.V.J.f.a @ *                 @ 1 H  . . . . . . . . . . . . . .b * e )  . . . . . . . .'  . . . . .m @ @ 2                                                                                                                                                                                                                                                                                                                                                                                                                                                                                                                                                                                                                                                                                                                                                     t.",
"t.                                                                                                                                                                                                                                                  * @ 7 e.Z.Z.M.M.M.M.M.M.M.M.M.M.M.M.M.M.M.M.D.z.F @ @                   , 3 ~  . . . .'  . . . . . . . .' l * l `  . . . . . . . . . . . .|  .n @ @                                                                                                                                                                                                                                                                                                                                                                                                                                                                                                                                                                                                                                                                                                                                                       t.",
"t.                                                                                                                                                                                                                                                * @ : q.H.D.M.M.M.M.M.V.M.M.M.M.M.M.M.M.M.M.D.b.I @ @ ,                 2 @ q )  . . . . . . . . . . . . .` e * z  . . . . . . . . . . . . .' ' z @ @                                                                                                                                                                                                                                                                                                                                                                                                                                                                                                                                                                                                                                                                                                                                                       t.",
"t.                                                                                                                                                                                                                                                @ @ T C.D.M.M.M.M.M.M.M.M.M.M.M.M.M.V.M.M.D.C.E $ @ *                   * * k `  . . . . . . .'  . . . . .^ q * n  . . . . . . . . . . . . . .` l @ *                                                                                                                                                                                                                                                                                                                                                                                                                                                                                                                                                                                                                                                                                                                                                       t.",
"t.                                                                                                                                                                                                                                              * @ h x.D.M.M.M.M.M.M.M.M.M.M.M.M.M.M.V.M.D.Z.8.: @ @                     * * z '  . . . . .| '  . . . . . .~ 3 1 H  . . . . . . . . . . . . . .) e @ *                                                                                                                                                                                                                                                                                                                                                                                                                                                                                                                                                                                                                                                                                                                                                       t.",
"t.                                                                                                                                                                                                                                              @ ; 0.D.V.M.M.M.M.M.M.M.M.M.M.M.M.M.M.M.Z.V.9.5 @ *                       @ * n  . . . . . . . . . . . . . .m 1 3 ~  . . . . . . . .'  . . . . .^ q @ *                                                                                                                                                                                                                                                                                                                                                                                                                                                                                                                                                                                                                                                                                                                                                       t.",
"t.                                                                                                                                                                                                                                              @ d k.D.M.M.M.M.M.M.V.M.M.M.M.M.M.M.V.D.m.W 5 @ @                         @ 1 H  . . . .'  . . . . . . . . .n * q )  . . . . . . . . . . . .|  .~ , @ ,                                                                                                                                                                                                                                                                                                                                                                                                                                                                                                                                                                                                                                                                                                                                                       t.",
"t.                                                                                                                                                                                                                                            * @ L m.C.M.M.M.M.M.M.M.M.M.M.M.M.M.C.L.n.R : @ @                           @ 3 ~  . . . . . . . . . . . . .' z * k `  . . . . . . . .| '  . . . .H , @ 2                                                                                                                                                                                                                                                                                                                                                                                                                                                                                                                                                                                                                                                                                                                                                       t.",
"t.                                                                                                                                                                                                                                            * @ R Z.V.M.M.M.M.M.M.M.M.M.M.M.M.Z.J.k.L $ @ *                             @ q )  . . . . . . . . . . . . .` k * l '  . .' |  . . . . . . . . . .n @ @                                                                                                                                                                                                                                                                                                                                                                                                                                                                                                                                                                                                                                                                                                                                                         t.",
"t.                                                                                                                                                                                                                                            * @ E Z.V.M.M.M.M.M.M.M.M.M.V.C.D.m.y.f @ @ *                             , @ k `  . . . . . . . . . . . . .) e * b  . . . . . . . . . . . . . .' z @ @                                                                                                                                                                                                                                                                                                                                                                                                                                                                                                                                                                                                                                                                                                                                                         t.",
"t.                                                                                                                                                                                                                                            * @ L M.Z.M.M.M.M.M.M.M.V.Z.H.Z.g.U : @ @ *                               * @ z '  .|  . . . .'  . . . . . .^ 9 1 m  . . . . . . . . . . . . . .` l @ *                                                                                                                                                                                                                                                                                                                                                                                                                                                                                                                                                                                                                                                                                                                                                         t.",
"t.                                                                                                                                                                                                                                              @ p d.L.D.Z.C.C.Z.D.J.J.V.g.W s @ @ @ ,                                 * * n  . .| '  . . . . . . . . . .Q 3 3 Q  . . . . . . . . . . . . . .) w @ *                                                                                                                                                                                                                                                                                                                                                                                                                                                                                                                                                                                                                                                                                                                                                         t.",
"t.                                                                                                                                                                                                                                              @ @ h a.n.Z.Z.Z.V.b.k.y.I p @ @ @ *                                     @ 1 H  . . . . . . . . . . . . . .m 1 q ^  . . . . . .'  . . . . . . .^ q @ *                                                                                                                                                                                                                                                                                                                                                                                                                                                                                                                                                                                                                                                                                                                                                         t.",
"t.                                                                                                                                                                                                                                                @ @ 5 F T E R U F p ; @ @ @ *                                         @ 3 ~  . . . . . . . . . . . . . .b * e )  . . . . . . . . . . . . . .~ , @ ,                                                                                                                                                                                                                                                                                                                                                                                                                                                                                                                                                                                                                                                                                                                                                         t.",
"t.                                                                                                                                                                                                                                                  @ @ @ @ @ @ @ @ @ @ @ *                                             @ q )  . . . . . . . . . . . . .' l * k `  . . . . . . . . .'  . . . .H , @ 2                                                                                                                                                                                                                                                                                                                                                                                                                                                                                                                                                                                                                                                                                                                                                         t.",
"t.                                                                                                                                                                                                                                                    , * * @ @ @ * * ,                                               , @ k `  . . . . . . . . . . . . .` k * z '  . . . .| '  . . . .|  . . .n @ @                                                                                                                                                                                                                                                                                                                                                                                                                                                                                                                                                                                                                                                                                                                                                           t.",
"t.                                                                                                                                                                                                                                                                                                                    * * z '  . . . . . . . . . . . . .) q * n  . . . . . . . . . . . . . .' b @ @                                                                                                                                                                                                                                                                                                                                                                                                                                                                                                                                                                                                                                                                                                                                                           t.",
"t.                                                                                                                                                                                                                                                                                                                    @ * n  . . . .| |  . . . . . . . .~ 3 1 H  . . . . . . . . . . . . . .' l @ *                                                                                                                                                                                                                                                                                                                                                                                                                                                                                                                                                                                                                                                                                                                                                           t.",
"t.                                                                                                                                                                                                                                                                                                                    @ 1 H  . . . . . . . . . . . . .' H 1 3 ~  . . . . . . . . . . . . . .` k @ *                                                                                                                                                                                                                                                                                                                                                                                                                                                                                                                                                                                                                                                                                                                                                           t.",
"t.                                                                                                                                                                                                                                                                                                                    @ 3 ~  . . . . . . . . . . . . .| n * q )  . . . . . . . . . . . . . .) 0 @ *                                                                                                                                                                                                                                                                                                                                                                                                                                                                                                                                                                                                                                                                                                                                                           t.",
"t.                                                                                                                                                                                                                                                                                                                    @ q )  . . . . . .'  . . . . . .' z * k `  . . . . . . . . . . . . .' ~ , @ ,                                                                                                                                                                                                                                                                                                                                                                                                                                                                                                                                                                                                                                                                                                                                                           t.",
"t.                                                                                                                                                                                                                                                                                                                  , @ k `  . . . . . . . . . . . . .` k * l '  . . . . . . . . . . . . . .H , @ 2                                                                                                                                                                                                                                                                                                                                                                                                                                                                                                                                                                                                                                                                                                                                                           t.",
"t.                                                                                                                                                                                                                                                                                                                  * @ z '  . . . . . . . . . . . . .) e * b  . . . . . . . . . . . . . . .m @ @                                                                                                                                                                                                                                                                                                                                                                                                                                                                                                                                                                                                                                                                                                                                                             t.",
"t.                                                                                                                                                                                                                                                                                                                  @ * n  . . . . . . . . . . . . . .^ q 1 m  . . . . . . . .'  . . . .'  .b @ *                                                                                                                                                                                                                                                                                                                                                                                                                                                                                                                                                                                                                                                                                                                                                             t.",
"t.                                                                                                                                                                                                                                                                                                                  @ 1 m  . . . . . . . . . . . . . .Q 3 3 Q  . . . . . . . . . . . . .' ' l @ *                                                                                                                                                                                                                                                                                                                                                                                                                                                                                                                                                                                                                                                                                                                                                             t.",
"t.                                                                                                                                                                                                                                                                                                                  @ 3 m ) ) ) ) ) ) ) ) ) ) ) ) ) ) n 1 3 Q ` ` ` ` ` ` ` ` ` ` ` ` ` ' ) k @ *                                                                                                                                                                                                                                                                                                                                                                                                                                                                                                                                                                                                                                                                                                                                                             t.",
"t.                                                                                                                                                                                                                                                                                                                  @ 1 q q q q q q q e e e e e w k k 9 @ 1 w k k k k l l l l l l l l l l k , @ *                                                                                                                                                                                                                                                                                                                                                                                                                                                                                                                                                                                                                                                                                                                                                             t.",
"t.                                                                                                                                                                                                                                                                                                                , @ 1 1 1 * 1 1 1 1 1 1 1 1 1 1 1 1 * @ # 1 1 1 1 1 1 1 1 1 1 1 1 1 1 1 1 @ @ ,                                                                                                                                                                                                                                                                                                                                                                                                                                                                                                                                                                                                                                                                                                                                                             t.",
"t.                                                                                                                                                                                                                                                                                                                * , A } } } >.<.1.<.<.<.,.,.,.,.>.} u * v } } } } } } { { { { { { { [ [ A , @ 2                                                                                                                                                                                                                                                                                                                                                                                                                                                                                                                                                                                                                                                                                                                                                             t.",
"t.                                                                                                                                                                                                                                                                                                                * 9 <.{.}.{.{.}.}.}.}.}.}.}.}.}.{.(.v 9 <.{.{.{.[.[.[.[.[.[.[.[.[.[.].].4., @                                                                                                                                                                                                                                                                                                                                                                                                                                                                                                                                                                                                                                                                                                                                                               t.",
"t.                                                                                                                                                                                                                                                                                                                * 0 6.}.}.}.}.}.}.}.}.}.}.}.}.}.}.^.u 0 6.}.}.}.}.}.}.}.}.}.}.}.}.}.}.{.} , *                                                                                                                                                                                                                                                                                                                                                                                                                                                                                                                                                                                                                                                                                                                                                               t.",
"t.                                                                                                                                                                                                                                                                                                                @ u R.}.}.}.}.}.}.}.}.}.}.}.}.}.}.7.w u R.}.}.}.}.}.}.}.}.}.}.}.}.}.}.].[ @ *                                                                                                                                                                                                                                                                                                                                                                                                                                                                                                                                                                                                                                                                                                                                                               t.",
"t.                                                                                                                                                                                                                                                                                                                @ v (.}.}.}.}.}.}.}.}.}.}.}.}.}.}.4.9 c /.}.}.}.}.}.}.}.}.}.}.}.}.}.}.`.A @ *                                                                                                                                                                                                                                                                                                                                                                                                                                                                                                                                                                                                                                                                                                                                                               t.",
"t.                                                                                                                                                                                                                                                                                                              , @ S `.}.}.}.}.}.}.}.}.}.}.}.}.}.{.} 3 A _.}.}.}.}.}.}.}.}.}.}.}.}.}.}.).c @ *                                                                                                                                                                                                                                                                                                                                                                                                                                                                                                                                                                                                                                                                                                                                                               t.",
"t.                                                                                                                                                                                                                                                                                                              * , { [.}.}.}.}.}.}.}.}.}.}.}.}.}.'.( 3 [ ].}.}.}.}.}.}.}.}.}.}.}.}.}.}.^.u @ ,                                                                                                                                                                                                                                                                                                                                                                                                                                                                                                                                                                                                                                                                                                                                                               t.",
"t.                                                                                                                                                                                                                                                                                                              * , <.}.}.}.}.}.}.}.}.}.}.}.}.}.}._.A 3 } {.}.}.}.}.}.}.}.}.}.}.}.}.}.}.T.0 @ ,                                                                                                                                                                                                                                                                                                                                                                                                                                                                                                                                                                                                                                                                                                                                                               t.",
"t.                                                                                                                                                                                                                                                                                                              @ 0 6.}.}.}.}.}.}.}.}.}.}.}.}.}.}./.c 9 5.}.}.}.}.}.}.}.}.}.}.}.}.}.}.}.5., @                                                                                                                                                                                                                                                                                                                                                                                                                                                                                                                                                                                                                                                                                                                                                                 t.",
"t.                                                                                                                                                                                                                                                                                                              @ u R.}.}.}.}.}.}.}.}.}.}.}.}.}.}.T.y w T.}.}.}.}.}.}.}.}.}.}.}.}.}.}.{.>., *                                                                                                                                                                                                                                                                                                                                                                                                                                                                                                                                                                                                                                                                                                                                                                 t.",
"t.                                                                                                                                                                                                                                                                                                              @ c (.}.}.}.}.}.}.}.}.}.}.}.}.}.}.6.0 x ^.}.}.}.}.}.}.}.}.}.}.}.}.}.}.[.[ @ @                                                                                                                                                                                                                                                                                                                                                                                                                                                                                                                                                                                                                                                                                                                                                                 t.",
"t.                                                                                                                                                                                                                                                                                                            , @ S `.}.}.}.}.}.}.}.}.}.}.}.}.}.}.<.9 C ).}.}.}.}.}.}.}.}.}.}.}.}.}.}.'.A @ *                                                                                                                                                                                                                                                                                                                                                                                                                                                                                                                                                                                                                                                                                                                                                                 t.",
"t.                                                                                                                                                                                                                                                                                                            * , [ ].}.}.}.}.}.}.}.}.}.}.}.}.}.[.{ 3 S `.}.}.}.}.}.}.}.}.}.}.}.}.}.}.).c @ *                                                                                                                                                                                                                                                                                                                                                                                                                                                                                                                                                                                                                                                                                                                                                                 t.",
"t.                                                                                                                                                                                                                                                                                                            * , ,.}.}.}.}.}.}.}.}.}.}.}.}.}.}.`.S 3 { [.}.}.}.}.}.}.}.}.}.}.}.}.}.}.^.u @ ,                                                                                                                                                                                                                                                                                                                                                                                                                                                                                                                                                                                                                                                                                                                                                                 t.",
"t.                                                                                                                                                                                                                                                                                                            @ 0 6.}.}.}.}.}.}.}.}.}.}.}.}.}.}.).C 9 <.}.}.}.}.}.}.}.}.}.}.}.}.}.}.}.T.0 @ ,                                                                                                                                                                                                                                                                                                                                                                                                                                                                                                                                                                                                                                                                                                                                                                 t.",
"t.                                                                                                                                                                                                                                                                                                            @ u R.}.}.}.}.}.}.}.}.}.}.}.}.}.}.^.x 0 6.}.}.}.}.}.}.}.}.}.}.}.}.}.}.}.5., @                                                                                                                                                                                                                                                                                                                                                                                                                                                                                                                                                                                                                                                                                                                                                                   t.",
"t.                                                                                                                                                                                                                                                                                                            @ c (.}.}.}.}.}.}.}.}.}.}.}.}.}.}.7.w y R.}.}.}.}.}.}.}.}.}.}.}.}.}.}.}.>., *                                                                                                                                                                                                                                                                                                                                                                                                                                                                                                                                                                                                                                                                                                                                                                   t.",
"t.                                                                                                                                                                                                                                                                                                          , @ A `.}.}.}.}.}.}.}.}.}.}.}.}.}.}.5.9 c /.}.}.}.}.}.}.}.}.}.}.}.}.}.}.[.[ @ @                                                                                                                                                                                                                                                                                                                                                                                                                                                                                                                                                                                                                                                                                                                                                                   t.",
"t.                                                                                                                                                                                                                                                                                                          * @ [ ].}.}.}.}.}.}.}.}.}.}.}.}.}.{.} 3 A _.}.}.}.}.}.}.}.}.}.}.}.}.}.}.'.A @ *                                                                                                                                                                                                                                                                                                                                                                                                                                                                                                                                                                                                                                                                                                                                                                   t.",
"t.t.t.t.t.t.t.t.t.t.t.t.t.t.t.t.t.t.t.t.t.t.t.t.t.t.t.t.t.t.t.t.t.t.t.t.t.t.t.t.t.t.t.t.t.t.t.t.t.t.t.t.t.t.t.t.t.t.t.t.t.t.t.t.t.t.t.t.t.t.t.t.t.t.t.t.t.t.t.t.t.t.t.t.t.t.t.t.t.t.t.t.t.t.t.t.t.t.t.t.t.t.t.t.t.t.t.t.t.t.t.t.t.t.t.t.t.t.t.t.t.t.t.t.t.t.t.t.t.t.t.t.t.t.t.t.t.t.t.t.t.t.t.t.t.t.t.t.t.t.t.t.t.t.t.t.t.t.t.t.t.t.t.t.t.t.t.t.t.t.t.t.t.t.t.t.t.t.t.t.t.t.t.t.t.t.t.t.t.t.t.t.t.t.t.t.t.t.t.t.t.t.t.t.t.t.t.t.t.t.t.t.t.t.t.t.t.t.t.t.t.t.t.t.t.t.t.t.t.t.t.t.t.t.t.t.t.t.t.t.t.t.t.t.t.t.t.t.t.t.t.t.t.t.t.t.t.t.t.t.t.t.t.t.t.t.t.t.t.t.t.t.t.t.t.t.t.t.t.t.t.t.t.t.t.t.t.t.t.t.t.t.t.t.t.t.t.t.t.t.t.t.t.t.t.t.t.t.t.t.t.t.t.t.t.t.t.t.t.t.t.t.t.t.t.t.t.t.t.t.t.t.t.t.t.t.t.t.t.t.t.t.t.t.t.t.t.t.t.t.t.t.t.t.t.t.t.t.t.t.t.t.t.t.t.t.t.t.t.t.t.t.t.t.t.t.t.t.t.t.t.t.t.t.t.t.t.t.t.t.t.t.t.t.t.t.t.t.t.t.t.t.t.t.t.t.t.t.t.t.t.t.t.t.t.t.t.t.t.t.t.t.t.t.t.t.t.t.t.t.t.t.t.t.t.t.t.t.t.t.t.t.t.t.t.t.t.t.t.t.t.t.t.t.t.t.t.t.t.t.t.t.t.t.t.t.t.t.t.t.t.t.t.t.t.t.t.t.t.t.t.t.t.t.t.t.t.t.t.t.t.t.t.t.t.t.t.t.t.t.t.t.t.t.t.t.t.t.t.t.t.t.t.t.t.t.t.t.t.t.t.t.t.t.t.t.t.t.t.t.t.t.t.t.t.t.t.t.t.t.t.t.t.t.t.t.t.t.t.t.t.t.t.t.t.t.t.t.t.t."
};
