/* XPM */
static char *df34028f49ba40d5e1f7c985538c0da4wOY0Izi00RchBTLE[] = {
/* columns rows colors chars-per-pixel */
"32 32 8 1 ",
"  c None",
". c black",
"X c gray12",
"o c gray38",
"O c #D65F47",
"+ c #5D63D1",
"@ c #FFCDA6",
"# c gray84",
/* pixels */
"                                ",
"          ............          ",
"          .OOOOOOOOOOO.         ",
"         .OOOOOOOOOOOOO.        ",
"         .OOOOOOOOOOOOOO.       ",
"         ..OOOOOOOOOOOOO.       ",
"           .....OOOOOOOO.       ",
"           .@@@...OOOOOO.       ",
"           .@.@@@..OOOOO.       ",
"           .@.@@@@@.OOO.        ",
"          .@@@@@@@.OOOO.        ",
"          ..@@@@@@.OOO.         ",
"           .@@@@@@.O..          ",
"            ...@....            ",
"               .##.             ",
"              .#...             ",
"             .##.o.             ",
"             .##.oo.            ",
"            .####.o.            ",
"          ....#..oo.            ",
"         .@.@@.ooo.             ",
"         .@.@@.o...             ",
"          ......##.             ",
"            .#####.             ",
"             ......             ",
"          XX  X+++X             ",
"          XXXXX++X..            ",
"           XXXX+XX...           ",
"             XXXX...            ",
"             .XX...             ",
"                                ",
"                                "
};
