/* XPM */
static char *_71d4ec06b5a49f683d2d9583f090c89QG65o1uDKVLRYGzD[] = {
/* columns rows colors chars-per-pixel */
"32 32 3 1 ",
"  c #555555",
". c #777777",
"X c gray60",
/* pixels */
"XXXXXXXXXXXXXXXXXXXXXXXXXXXXXXXX",
"X. ............. ....... .... .X",
"X...........X..................X",
"X... ..X.......... ...... .....X",
"X.... ...............X......X..X",
"X......... ............. ......X",
"X...X..................X.......X",
"X.... ......... ....X..........X",
"X........X..............X..... X",
"X ............... .............X",
"X........... ............X ....X",
"X.............X.......X........X",
"X.... ..X................... ..X",
"X.. ...........................X",
"X..... ..............X.... ....X",
"X..X...X....X.. .X............ X",
"X..............................X",
"X ..................... ...X...X",
"X... .............X............X",
"X........ ...............X.....X",
"X............................. X",
"X.......X..... .....X..........X",
"X....X.................... ....X",
"X..........X.... ..... .X......X",
"X...........X......X...........X",
"XX. .... ......X......X...... .X",
"X..............................X",
"X..X.. ...X....X........... ...X",
"X.......X..........X....XX.....X",
"X .................. ...X... ..X",
"X..... ..... .X.....X..........X",
"XXXXXXXXXXXXXXXXXXXXXXXXXXXXXXXX"
};
