/* XPM */
static char *bbbbbdf8e6f54f7fa0b4136d583bd23eiyaOdmcFu6QMtZ0v[] = {
/* columns rows colors chars-per-pixel */
"555 640 218 2 ",
"   c None",
".  c black",
"X  c #000101",
"o  c #010101",
"O  c #010203",
"+  c #020202",
"@  c gray1",
"#  c #040101",
"$  c #070403",
"%  c #020506",
"&  c #040404",
"*  c #070707",
"=  c #080707",
"-  c #0D0605",
";  c #03090B",
":  c #040D0F",
">  c gray3",
",  c #090909",
"<  c #0C0B0B",
"1  c #0C0C0C",
"2  c gray6",
"3  c #140A08",
"4  c #1C0D0B",
"5  c #14110F",
"6  c #051114",
"7  c #071519",
"8  c #09191E",
"9  c #161514",
"0  c #1A1919",
"q  c #1E1E1F",
"w  c #241310",
"e  c #2B1712",
"r  c #321A17",
"t  c #26211C",
"y  c #38201B",
"u  c #0A1D22",
"i  c #0B2026",
"p  c #0D232A",
"a  c #0E282F",
"s  c #102C34",
"d  c #12313A",
"f  c #252527",
"g  c #2C2C2E",
"h  c #302B23",
"j  c #3C352C",
"k  c #323335",
"l  c #39393C",
"z  c #40221D",
"x  c #482822",
"c  c #522D26",
"v  c #5E2D2B",
"b  c #59352C",
"n  c #643930",
"m  c #6D3B33",
"M  c #494035",
"N  c #53493D",
"B  c #714237",
"V  c #7A423A",
"C  c #133640",
"Z  c #163C47",
"A  c #3C3C40",
"S  c #18424E",
"D  c #1B4956",
"F  c #1D505E",
"G  c #205665",
"H  c #225D6D",
"J  c #246274",
"K  c #266779",
"L  c #276A7D",
"P  c #424245",
"I  c #47484B",
"U  c #5D5244",
"Y  c #4D4E51",
"T  c #545655",
"R  c #515258",
"E  c #56575B",
"W  c #665A4B",
"Q  c #6F6251",
"!  c #7B6D5A",
"~  c #585960",
"^  c #595B61",
"/  c #5B5C63",
"(  c #5E5F64",
")  c #686968",
"_  c #717271",
"`  c #797A79",
"'  c #904325",
"]  c #824B3D",
"[  c #BE5830",
"{  c #DD6638",
"}  c #F1703E",
"|  c #F6723F",
" . c #894344",
".. c #8B4F40",
"X. c #984A4B",
"o. c #85574E",
"O. c #915343",
"+. c #965646",
"@. c #985747",
"#. c #9B5848",
"$. c #9D5A49",
"%. c #9F5B4A",
"&. c #A14E50",
"*. c #AA5354",
"=. c #B25759",
"-. c #986459",
";. c #A26A5F",
":. c #857662",
">. c #907F69",
",. c #B17468",
"<. c #FB7540",
"1. c #FF7641",
"2. c #FF7742",
"3. c #C25F60",
"4. c #CF6567",
"5. c #D96A6C",
"6. c #C17E71",
"7. c #E36F71",
"8. c #EA7274",
"9. c #ED7476",
"0. c #EE7476",
"q. c #F07577",
"w. c #F37779",
"e. c #F6787A",
"r. c #FB7B7D",
"t. c #9A8971",
"y. c #A59279",
"u. c #D28A7B",
"i. c #286D80",
"p. c #296E82",
"a. c #296F83",
"s. c #2A7185",
"d. c #2B7589",
"f. c #2D798E",
"g. c #2F7E94",
"h. c #FF55FF",
"j. c #308299",
"k. c #32869E",
"l. c #338AA2",
"z. c #358FA8",
"x. c #3795AF",
"c. c #399AB6",
"v. c #3B9EBA",
"b. c #3CA2BF",
"n. c #3EA6C4",
"m. c #3FAAC8",
"M. c #41AECD",
"N. c #42B3D2",
"B. c #44B7D7",
"V. c #45BADB",
"C. c #46BDDF",
"Z. c #47C0E2",
"A. c #48C1E3",
"S. c #48C2E4",
"D. c #49C3E5",
"F. c #49C4E6",
"G. c #49C5E7",
"H. c #4AC6E9",
"J. c #4AC7EA",
"K. c #4AC8EB",
"L. c #4BC9EC",
"P. c #4BC9ED",
"I. c #4BCAED",
"U. c #4BCBEF",
"Y. c #4CCDF1",
"T. c #4DCEF3",
"R. c #4DD0F5",
"E. c #4FD5FA",
"W. c #50D8FE",
"Q. c #828483",
"!. c #8C8E8D",
"~. c #969897",
"^. c #B19D82",
"/. c #9FA09F",
"(. c #BEA98C",
"). c gray65",
"_. c #A0ACA7",
"`. c #ADB0AE",
"'. c #B5B6B5",
"]. c #BDBFBD",
"[. c #DF9383",
"{. c #E89988",
"}. c #EF9D8C",
"|. c #F39F8E",
" X c #CBB495",
".X c #D5BC9C",
"XX c #F7A291",
"oX c #FDA795",
"OX c #DEC5A3",
"+X c #E7CCA9",
"@X c #EDD2AE",
"#X c #F2D6B2",
"$X c #F5D9B4",
"%X c #F7DBB6",
"&X c #F9DDB7",
"*X c #FBDFB9",
"=X c #FEE1BA",
"-X c #FFE4BD",
";X c #C1C7C4",
":X c #CBCBCA",
">X c #C6D5CF",
",X c #CBDBD4",
"<X c #CEDED8",
"1X c #D3D3D2",
"2X c #D9D9D8",
"3X c #FFE8C0",
"4X c #E0E0DF",
"5X c #D6E6E0",
"6X c #DEEEE7",
"7X c #E7E7E6",
"8X c #EEEEED",
"9X c #E3F4ED",
"0X c #E7F8F1",
"qX c #EBFDF6",
"wX c #F2F2F1",
"eX c #F6F6F5",
"rX c #FAFAF9",
"tX c white",
/* pixels */
"h.h.h.h.h.h.h.h.h.h.h.h.h.h.h.h.h.h.h.h.h.h.h.h.h.h.h.h.h.h.h.h.h.h.h.h.h.h.h.h.h.h.h.h.h.h.h.h.h.h.h.h.h.h.h.h.h.h.h.h.h.h.h.h.h.h.h.h.h.h.h.h.h.h.h.h.h.h.h.h.h.h.h.h.h.h.h.h.h.h.h.h.h.h.h.h.h.h.h.h.h.h.h.h.h.h.h.h.h.h.h.h.h.h.h.h.h.h.h.h.h.h.h.h.h.h.h.h.h.h.h.h.h.h.h.h.h.h.h.h.h.h.h.h.h.h.h.h.h.h.h.h.h.h.h.h.h.h.h.h.h.h.h.h.h.h.h.h.h.h.h.h.h.h.h.h.h.h.h.h.h.h.h.h.h.h.h.h.h.h.h.h.h.h.h.h.h.h.h.h.h.h.h.h.h.h.h.h.h.h.h.h.h.h.h.h.h.h.h.h.h.h.h.h.h.h.h.h.h.h.h.h.h.h.h.h.h.h.h.h.h.h.h.h.h.h.h.h.h.h.h.h.h.h.h.h.h.h.h.h.h.h.h.h.h.h.h.h.h.h.h.h.h.h.h.h.h.h.h.h.h.h.h.h.h.h.h.h.h.h.h.h.h.h.h.h.h.h.h.h.h.h.h.h.h.h.h.h.h.h.h.h.h.h.h.h.h.h.h.h.h.h.h.h.h.h.h.h.h.h.h.h.h.h.h.h.h.h.h.h.h.h.h.h.h.h.h.h.h.h.h.h.h.h.h.h.h.h.h.h.h.h.h.h.h.h.h.h.h.h.h.h.h.h.h.h.h.h.h.h.h.h.h.h.h.h.h.h.h.h.h.h.h.h.h.h.h.h.h.h.h.h.h.h.h.h.h.h.h.h.h.h.h.h.h.h.h.h.h.h.h.h.h.h.h.h.h.h.h.h.h.h.h.h.h.h.h.h.h.h.h.h.h.h.h.h.h.h.h.h.h.h.h.h.h.h.h.h.h.h.h.h.h.h.h.h.h.h.h.h.h.h.h.h.h.h.h.h.h.h.h.h.h.h.h.h.h.h.h.h.h.h.h.h.h.h.h.h.h.h.h.h.h.h.h.h.h.h.h.h.h.h.h.h.h.h.h.h.h.h.h.h.h.h.h.h.h.h.h.h.h.h.h.h.h.h.h.h.h.h.h.h.h.h.h.h.h.h.h.h.h.h.h.h.h.",
"h.                                                                                                                                                                                                                                                                                                                                                                                                                                                                                                                                                                                                                                                                                                                                                                                                                                                                                                                                                                                                                                                                                                                                                    ",
"h.                                                                                                                                                                                                                                                                                                                                                                                                                                                                                                                                                                                                                                                                                                                                                                                                                                                                                                                                                                                                                                                                                                                                                    ",
"h.                                                                                                                                                                                                                                                                                                                                                                                                                                                                                                                                                                                                                                                                                                                                                                                                                                                                                                                                                                                                                                                                                                                                                    ",
"h.                                                                                                                                                                                                                                                                                                                                                                                                                                                                                                                                                                                                                                                                                                                                                                                                                                                                                                                                                                                                                                                                                                                                                    ",
"h.                                                                                                                                                                                                                                                                                                                                                                                                                                                                                                                                                                                                                                                                                                                                                                                                                                                                                                                                                                                                                                                                                                                                                    ",
"h.                                                                                                                                                                                                                                                                                                                                                                                                                                                                                                                                                                                                                                                                                                                                                                                                                                                                                                                                                                                                                                                                                                                                                    ",
"h.                                                                                                                                                                                                                                                                                                                                                                                                                                                                                                                                                                                                                                                                                                                                                                                                                                                                                                                                                                                                                                                                                                                                                    ",
"h.                                                                                                                                                                                                                                                                                                                                                                                                                                                                                                                                                                                                                                                                                                                                                                                                                                                                                                                                                                                                                                                                                                                                                    ",
"h.                                                                                                                                                                                                                                                                                                                                                                                                                                                                                                                                                                                                                                                                                                                                                                                                                                                                                                                                                                                                                                                                                                                                                    ",
"h.                                                                                                                                                                                                                                                                                                                                                                                                                                                                                                                                                                                                                                                                                                                                                                                                                                                                                                                                                                                                                                                                                                                                                    ",
"h.                                                                                                                                                                                                                                                                                                                                                                                                                                                                                                                                                                                                                                                                                                                                                                                                                                                                                                                                                                                                                                                                                                                                                    ",
"h.                                                                                                                                                                                                                                                                                                                                                                                                                                                                                                                                                                                                                                                                                                                                                                                                                                                                                                                                                                                                                                                                                                                                                    ",
"h.                                                                                                                                                                                                                                                                                                                                                                                                                                                                                                                                                                                                                                                                                                                                                                                                                                                                                                                                                                                                                                                                                                                                                    ",
"h.                                                                                                                                                                                                                                                                                                                                                                                                                                                                                                                                                                                                                                                                                                                                                                                                                                                                                                                                                                                                                                                                                                                                                    ",
"h.                                                                                                                                                                                                                                                                                                                                                                                                                                                                                                                                                                                                                                                                                                                                                                                                                                                                                                                                                                                                                                                                                                                                                    ",
"h.                                                                                                                                                                                                                                                                                                                                                                                                                                                                                                                                                                                                                                                                                                                                                                                                                                                                                                                                                                                                                                                                                                                                                    ",
"h.                                                                                                                                                                                                                                                                                                                                                                                                                                                                                                                                                                                                                                                                                                                                                                                                                                                                                                                                                                                                                                                                                                                                                    ",
"h.                                                                                                                                                                                                                                                                                                                                                                                                                                                                                                                                                                                                                                                                                                                                                                                                                                                                                                                                                                                                                                                                                                                                                    ",
"h.                                                                                                                                                                                                                                                                                                                                                                                                                                                                                                                                                                                                                                                                                                                                                                                                                                                                                                                                                                                                                                                                                                                                                    ",
"h.                                                                                                                                                                                                                                                                                                                                                                                                                                                                                                                                                                                                                                                                                                                                                                                                                                                                                                                                                                                                                                                                                                                                                    ",
"h.                                                                                                                                                                                                                                                                                                                                                                                                                                                                                                                                                                                                                                                                                                                                                                                                                                                                                                                                                                                                                                                                                                                                                    ",
"h.                                                                                                                                                                                                                                                                                                                                                                                                                                                                                                                                                                                                                                                                                                                                                                                                                                                                                                                                                                                                                                                                                                                                                    ",
"h.                                                                                                                                                                                                                                                                                                                                                                                                                                                                                                                                                                                                                                                                                                                                                                                                                                                                                                                                                                                                                                                                                                                                                    ",
"h.                                                                                                                                                                                                                                                                                                                                                                                                                                                                                                                                                                                                                                                                                                                                                                                                                                                                                                                                                                                                                                                                                                                                                    ",
"h.                                                                                                                                                                                                                                                                                                                                                                                                                                                                                                                                                                                                                                                                                                                                                                                                                                                                                                                                                                                                                                                                                                                                                    ",
"h.                                                                                                                                                                                                                                                                                                                                                                                                                                                                                                                                                                                                                                                                                                                                                                                                                                                                                                                                                                                                                                                                                                                                                    ",
"h.                                                                                                                                                                                                                                                                                                                                                                                                                                                                                                                                                                                                                                                                                                                                                                                                                                                                                                                                                                                                                                                                                                                                                    ",
"h.                                                                                                                                                                                                                                                                                                                                                                                                                                                                                                                                                                                                                                                                                                                                                                                                                                                                                                                                                                                                                                                                                                                                                    ",
"h.                                                                                                                                                                                                                                                                                                                                                                                                                                                                                                                                                                                                                                                                                                                                                                                                                                                                                                                                                                                                                                                                                                                                                    ",
"h.                                                                                                                                                                                                                                                                                                                                                                                                                                                                                                                                                                                                                                                                                                                                                                                                                                                                                                                                                                                                                                                                                                                                                    ",
"h.                                                                                                                                                                                                                                                                                                                                                                                                                                                                                                                                                                                                                                                                                                                                                                                                                                                                                                                                                                                                                                                                                                                                                    ",
"h.                                                                                                                                                                                                                                                                                                                                                                                                                                                                                                                                                                                                                                                                                                                                                                                                                                                                                                                                                                                                                                                                                                                                                    ",
"h.                                                                                                                                                                                                                                                                                                                                                                                                                                                                                                                                                                                                                                                                                                                                                                                                                                                                                                                                                                                                                                                                                                                                                    ",
"h.                                                                                                                                                                                                                                                                                                                                                                                                                                                                                                                                                                                                                                                                                                                                                                                                                                                                                                                                                                                                                                                                                                                                                    ",
"h.                                                                                                                                                                                                                                                                                                                                                                                                                                                                                                                                                                                                                                                                                                                                                                                                                                                                                                                                                                                                                                                                                                                                                    ",
"h.                                                                                                                                                                                                                                                                                                                                                                                                                                                                                                                                                                                                                                                                                                                                                                                                                                                                                                                                                                                                                                                                                                                                                    ",
"h.                                                                                                                                                                                                                                                                                                                                                                                                                                                                                                                                                                                                                                                                                                                                                                                                                                                                                                                                                                                                                                                                                                                                                    ",
"h.                                                                                                                                                                                                                                                                                                                                                                                                                                                                                                                                                                                                                                                                                                                                                                                                                                                                                                                                                                                                                                                                                                                                                    ",
"h.                                                                                                                                                                                                                                                                                                                                                                                                                                                                                                                                                                                                                                                                                                                                                                                                                                                                                                                                                                                                                                                                                                                                                    ",
"h.                                                                                                                                                                                                                                                                                                                                                                                                                                                                                                                                                                                                                                                                                                                                                                                                                                                                                                                                                                                                                                                                                                                                                    ",
"h.                                                                                                                                                                                                                                                                                                                                                                                                                                                                                                                                                                                                                                                                                                                                                                                                                                                                                                                                                                                                                                                                                                                                                    ",
"h.                                                                                                                                                                                                                                                                                                                                                                                                                                                                                                                                                                                                                                                                                                                                                                                                                                                                                                                                                                                                                                                                                                                                                    ",
"h.                                                                                                                                                                                                                                                                                                                                                                                                                                                                                                                                                                                                                                                                                                                                                                                                                                                                                                                                                                                                                                                                                                                                                    ",
"h.                                                                                                                                                                                                                                                                                                                                                                                                                                                                                                                                                                                                                                                                                                                                                                                                                                                                                                                                                                                                                                                                                                                                                    ",
"h.                                                                                                                                                                                                                                                                                                                                                                                                                                                                                                                                                                                                                                                                                                                                                                                                                                                                                                                                                                                                                                                                                                                                                    ",
"h.                                                                                                                                                                                                                                                                                                                                                                                                                                                                                                                                                                                                                                                                                                                                                                                                                                                                                                                                                                                                                                                                                                                                                    ",
"h.                                                                                                                                                                                                                                                                                                                                                                                                                                                                                                                                                                                                                                                                                                                                                                                                                                                                                                                                                                                                                                                                                                                                                    ",
"h.                                                                                                                                                                                                                                                                                                                                                                                                                                                                                                                                                                                                                                                                                                                                                                                                                                                                                                                                                                                                                                                                                                                                                    ",
"h.                                                                                                                                                                                                                                                                                                                                                                                                                                                                                                                                                                                                                                                                                                                                                                                                                                                                                                                                                                                                                                                                                                                                                    ",
"h.                                                                                                                                                                                                                                                                                                                                                                                                                                                                                                                                                                                                                                                                                                                                                                                                                                                                                                                                                                                                                                                                                                                                                    ",
"h.                                                                                                                                                                                                                                                                                                                                                                                                                                                                                                                                                                                                                                                                                                                                                                                                                                                                                                                                                                                                                                                                                                                                                    ",
"h.                                                                                                                                                                                                                                                                                                                                                                                                                                                                                                                                                                                                                                                                                                                                                                                                                                                                                                                                                                                                                                                                                                                                                    ",
"h.                                                                                                                                                                                                                                                                                                                                                                                                                                                                                                                                                                                                                                                                                                                                                                                                                                                                                                                                                                                                                                                                                                                                                    ",
"h.                                                                                                                                                                                                                                                                                                                                                                                                                                                                                                                                                                                                                                                                                                                                                                                                                                                                                                                                                                                                                                                                                                                                                    ",
"h.                                                                                                                                                                                                                                                                                                                                                                                                                                                                                                                                                                                                                                                                                                                                                                                                                                                                                                                                                                                                                                                                                                                                                    ",
"h.                                                                                                                                                                                                                                                                                                                                                                                                                                                                                                                                                                                                                                                                                                                                                                                                                                                                                                                                                                                                                                                                                                                                                    ",
"h.                                                                                                                                                                                                                                                                                                                                                                                                                                                                                                                                                                                                                                                                                                                                                                                                                                                                                                                                                                                                                                                                                                                                                    ",
"h.                                                                                                                                                                                                                                                                                                                                                                                                                                                                                                                                                                                                                                                                                                                                                                                                                                                                                                                                                                                                                                                                                                                                                    ",
"h.                                                                                                                                                                                                                                                                                                                                                                                                                                                                                                                                                                                                                                                                                                                                                                                                                                                                                                                                                                                                                                                                                                                                                    ",
"h.                                                                                                                                                                                                                                                                                                                                                                                                                                                                                                                                                                                                                                                                                                                                                                                                                                                                                                                                                                                                                                                                                                                                                    ",
"h.                                                                                                                                                                                                                                                                                                                                                                                                                                                                                                                                                                                                                                                                                                                                                                                                                                                                                                                                                                                                                                                                                                                                                    ",
"h.                                                                                                                                                                                                                                                                                                                                                                                                                                                                                                                                                                                                                                                                                                                                                                                                                                                                                                                                                                                                                                                                                                                                                    ",
"h.                                                                                                                                                                                                                                                                                                                                                                                                                                                                                                                                                                                                                                                                                                                                                                                                                                                                                                                                                                                                                                                                                                                                                    ",
"h.                                                                                                                                                                                                                                                                                                                                                                                                                                                                                                                                                                                                                                                                                                                                                                                                                                                                                                                                                                                                                                                                                                                                                    ",
"h.                                                                                                                                                                                                                                                                                                                                                                                                                                                                                                                                                                                                                                                                                                                                                                                                                                                                                                                                                                                                                                                                                                                                                    ",
"h.                                                                                                                                                                                                                                                                                                                                                                                                                                                                                                                                                                                                                                                                                                                                                                                                                                                                                                                                                                                                                                                                                                                                                    ",
"h.                                                                                                                                                                                                                                                                                                                                                                                                                                                                                                                                                                                                                                                                                                                                                                                                                                                                                                                                                                                                                                                                                                                                                    ",
"h.                                                                                                                                                                                                                                                                                                                                                                                                                                                                                                                                                                                                                                                                                                                                                                                                                                                                                                                                                                                                                                                                                                                                                    ",
"h.                                                                                                                                                                                                                                                                                                                                                                                                                                                                                                                                                                                                                                                                                                                                                                                                                                                                                                                                                                                                                                                                                                                                                    ",
"h.                                                                                                                                                                                                                                                                                                                                                                                                                                                                                                                                                                                                                                                                                                                                                                                                                                                                                                                                                                                                                                                                                                                                                    ",
"h.                                                                                                                                                                                                                                                                                                                                                                                                                                                                                                                                                                                                                                                                                                                                                                                                                                                                                                                                                                                                                                                                                                                                                    ",
"h.                                                                                                                                                                                                                                                                                                                                                                                                                                                                                                                                                                                                                                                                                                                                                                                                                                                                                                                                                                                                                                                                                                                                                    ",
"h.                                                                                                                                                                                                                                                                                                                                                                                                                                                                                                                                                                                                                                                                                                                                                                                                                                                                                                                                                                                                                                                                                                                                                    ",
"h.                                                                                                                                                                                                                                                                                                                                                                                                                                                                                                                                                                                                                                                                                                                                                                                                                                                                                                                                                                                                                                                                                                                                                    ",
"h.                                                                                                                                                                                                                                                                                                                                                                                                                                                                                                                                                                                                                                                                                                                                                                                                                                                                                                                                                                                                                                                                                                                                                    ",
"h.                                                                                                                                                                                                                                                                                                                                                                                                                                                                                                                                                                                                                                                                                                                                                                                                                                                                                                                                                                                                                                                                                                                                                    ",
"h.                                                                                                                                                                                                                                                                                                                                                                                                                                                                                                                                                                                                                                                                                                                                                                                                                                                                                                                                                                                                                                                                                                                                                    ",
"h.                                                                                                                                                                                                                                                                                                                                                                                                                                                                                                                                                                                                                                                                                                                                                                                                                                                                                                                                                                                                                                                                                                                                                    ",
"h.                                                                                                                                                                                                                                                                                                                                                                                                                                                                                                                                                                                                                                                                                                                                                                                                                                                                                                                                                                                                                                                                                                                                                    ",
"h.                                                                                                                                                                                                                                                                                                                                                                                                                                                                                                                                                                                                                                                                                                                                                                                                                                                                                                                                                                                                                                                                                                                                                    ",
"h.                                                                                                                                                                                                                                                                                                                                                                                                                                                                                                                                                                                                                                                                                                                                                                                                                                                                                                                                                                                                                                                                                                                                                    ",
"h.                                                                                                                                                                                                                                                                                                                                                                                                                                                                                                                                                                                                                                                                                                                                                                                                                                                                                                                                                                                                                                                                                                                                                    ",
"h.                                                                                                                                                                                                                                                                                                                                                                                                                                                                                                                                                                                                                                                                                                                                                                                                                                                                                                                                                                                                                                                                                                                                                    ",
"h.                                                                                                                                                                                                                                                                                                                                                                                                                                                                                                                                                                                                                                                                                                                                                                                                                                                                                                                                                                                                                                                                                                                                                    ",
"h.                                                                                                                                                                                                                                                                                                                                                                                                                                                                                                                                                                                                                                                                                                                                                                                                                                                                                                                                                                                                                                                                                                                                                    ",
"h.                                                                                                                                                                                                                                                                                                                                                                                                                                                                                                                                                                                                                                                                                                                                                                                                                                                                                                                                                                                                                                                                                                                                                    ",
"h.                                                                                                                                                                                                                                                                                                                                                                                                                                                                                                                                                                                                                                                                                                                                                                                                                                                                                                                                                                                                                                                                                                                                                    ",
"h.                                                                                                                                                                                                                                                                                                                                                                                                                                                                                                                                                                                                                                                                                                                                                                                                                                                                                                                                                                                                                                                                                                                                                    ",
"h.                                                                                                                                                                                                                                                                                                                                                                                                                                                                                                                                                                                                                                                                                                                                                                                                                                                                                                                                                                                                                                                                                                                                                    ",
"h.                                                                                                                                                                                                                                                                                                                                                                                                                                                                                                                                                                                                                                                                                                                                                                                                                                                                                                                                                                                                                                                                                                                                                    ",
"h.                                                                                                                                                                                                                                                                                                                                                                                                                                                                                                                                                                                                                                                                                                                                                                                                                                                                                                                                                                                                                                                                                                                                                    ",
"h.                                                                                                                                                                                                                                                                                                                                                                                                                                                                                                                                                                                                                                                                                                                                                                                                                                                                                                                                                                                                                                                                                                                                                    ",
"h.                                                                                                                                                                                                                                                                                                                                                                                                                                                                                                                                                                                                                                                                                                                                                                                                                                                                                                                                                                                                                                                                                                                                                    ",
"h.                                                                                                                                                                                                                                                                                                                                                                                                                                                                                                                                                                                                                                                                                                                                                                                                                                                                                                                                                                                                                                                                                                                                                    ",
"h.                                                                                                                                                                                                                                                                                                                                                                                                                                                                                                                                                                                                                                                                                                                                                                                                                                                                                                                                                                                                                                                                                                                                                    ",
"h.                                                                                                                                                                                                                                                                                                                                                                                                                                                                                                                                                                                                                                                                                                                                                                                                                                                                                                                                                                                                                                                                                                                                                    ",
"h.                                                                                                                                                                                                                                                                                                                                                                                                                                                                                                                                                                                                                                                                                                                                                                                                                                                                                                                                                                                                                                                                                                                                                    ",
"h.                                                                                                                                                                                                                                                                                                                                                                                                                                                                                                                                                                                                                                                                                                                                                                                                                                                                                                                                                                                                                                                                                                                                                    ",
"h.                                                                                                                                                                                                                                                                                                                                                                                                                                                                                                                                                                                                                                                                                                                                                                                                                                                                                                                                                                                                                                                                                                                                                    ",
"h.                                                                                                                                                                                                                                                                                                                                                                                                                                                                                                                                                                                                                                                                                                                                                                                                                                                                                                                                                                                                                                                                                                                                                    ",
"h.                                                                                                                                                                                                                                                                                                                                                                                                                                                                                                                                                                                                                                                                                                                                                                                                                                                                                                                                                                                                                                                                                                                                                    ",
"h.                                                                                                                                                                                                                                                                                                                                                                                                                                                                                                                                                                                                                                                                                                                                                                                                                                                                                                                                                                                                                                                                                                                                                    ",
"h.                                                                                                                                                                                                                                                                                                                                                                                                                                                                                                                                                                                                                                                                                                                                                                                                                                                                                                                                                                                                                                                                                                                                                    ",
"h.                                                                                                                                                                                                                                                                                                                                                                                                                                                                                                                                                                                                                                                                                                                                                                                                                                                                                                                                                                                                                                                                                                                                                    ",
"h.                                                                                                                                                                                                                                                                                                                                                                                                                                                                                                                                                                                                                                                                                                                                                                                                                                                                                                                                                                                                                                                                                                                                                    ",
"h.                                                                                                                                                                                                                                                                                                                                                                                                                                                                                                                                                                                                                                                                                                                                                                                                                                                                                                                                                                                                                                                                                                                                                    ",
"h.                                                                                                                                                                                                                                                                                                                                                                                                                                                                                                                                                                                                                                                                                                                                                                                                                                                                                                                                                                                                                                                                                                                                                    ",
"h.                                                                                                                                                                                                                                                                                                                                                                                                                                                                                                                                                                                                                                                                                                                                                                                                                                                                                                                                                                                                                                                                                                                                                    ",
"h.                                                                                                                                                                                                                                                                                                                                                                                                                                                                                                                                                                                                                                                                                                                                                                                                                                                                                                                                                                                                                                                                                                                                                    ",
"h.                                                                                                                                                                                                                                                                                                                                                                                                                                                                                                                                                                                                                                                                                                                                                                                                                                                                                                                                                                                                                                                                                                                                                    ",
"h.                                                                                                                                                                                                                                                                                                                                                                                                                                                                                                                                                                                                                                                                                                                                                                                                                                                                                                                                                                                                                                                                                                                                                    ",
"h.                                                                                                                                                                                                                                                                                                                                                                                                                                                                                                                                                                                                                                                                                                                                                                                                                                                                                                                                                                                                                                                                                                                                                    ",
"h.                                                                                                                                                                                                                                                                                                                                                                                                                                                                                                                                                                                                                                                                                                                                                                                                                                                                                                                                                                                                                                                                                                                                                    ",
"h.                                                                                                                                                                                                                                                                                                                                                                                                                                                                                                                                                                                                                                                                                                                                                                                                                                                                                                                                                                                                                                                                                                                                                    ",
"h.                                                                                                                                                                                                                                                                                                                                                                                                                                                                                                                                                                                                                                                                                                                                                                                                                                                                                                                                                                                                                                                                                                                                                    ",
"h.                                                                                                                                                                                                                                                                                                                                                                                                                                                                                                                                                                                                                                                                                                                                                                                                                                                                                                                                                                                                                                                                                                                                                    ",
"h.                                                                                                                                                                                                                                                                                                                                                                                                                                                                                                                                                                                                                                                                                                                                                                                                                                                                                                                                                                                                                                                                                                                                                    ",
"h.                                                                                                                                                                                                                                                                                                                                                                                                                                                                                                                                                                                                                                                                                                                                                                                                                                                                                                                                                                                                                                                                                                                                                    ",
"h.                                                                                                                                                                                                                                                                                                                                                                                                                                                                                                                                                                                                                                                                                                                                                                                                                                                                                                                                                                                                                                                                                                                                                    ",
"h.                                                                                                                                                                                                                                                                                                                                                                                                                                                                                                                                                                                                                                                                                                                                                                                                                                                                                                                                                                                                                                                                                                                                                    ",
"h.                                                                                                                                                                                                                                                                                                                                                                                                                                                                                                                                                                                                                                                                                                                                                                                                                                                                                                                                                                                                                                                                                                                                                    ",
"h.                                                                                                                                                                                                                                                                                                                                                                                                                                                                                                                                                                                                                                                                                                                                                                                                                                                                                                                                                                                                                                                                                                                                                    ",
"h.                                                                                                                                                                                                                                                                                                                                                                                                                                                                                                                                                                                                                                                                                                                                                                                                                                                                                                                                                                                                                                                                                                                                                    ",
"h.                                                                                                                                                                                                                                                                                                                                                                                                                                                                                                                                                                                                                                                                                                                                                                                                                                                                                                                                                                                                                                                                                                                                                    ",
"h.                                                                                                                                                                                                                                                                                                                                                                                                                                                                                                                                                                                                                                                                                                                                                                                                                                                                                                                                                                                                                                                                                                                                                    ",
"h.                                                                                                                                                                                                                                                                                                                                                                                                                                                                                                                                                                                                                                                                                                                                                                                                                                                                                                                                                                                                                                                                                                                                                    ",
"h.                                                                                                                                                                                                                                                                                                                                                                                                                                                                                                                                                                                                                                                                                                                                                                                                                                                                                                                                                                                                                                                                                                                                                    ",
"h.                                                                                                                                                                                                                                                                                                                                                                                                                                                                                                                                                                                                                                                                                                                                                                                                                                                                                                                                                                                                                                                                                                                                                    ",
"h.                                                                                                                                                                                                                                                                                                                                                                                                                                                                                                                                                                                                                                                                                                                                                                                                                                                                                                                                                                                                                                                                                                                                                    ",
"h.                                                                                                                                                                                                                                                                                                                                                                                                                                                                                                                                                                                                                                                                                                                                                                                                                                                                                                                                                                                                                                                                                                                                                    ",
"h.                                                                                                                                                                                                                                                                                                                                                                                                                                                                                                                                                                                                                                                                                                                                                                                                                                                                                                                                                                                                                                                                                                                                                    ",
"h.                                                                                                                                                                                                                                                                                                                                                                                                                                                                                                                                                                                                                                                                                                                                                                                                                                                                                                                                                                                                                                                                                                                                                    ",
"h.                                                                                                                                                                                                                                                                                                                                                                                                                                                                                                                                                                                                                                                                                                                                                                                                                                                                                                                                                                                                                                                                                                                                                    ",
"h.                                                                                                                                                                                                                                                                                                                                                                                                                                                                                                                                                                                                                                                                                                                                                                                                                                                                                                                                                                                                                                                                                                                                                    ",
"h.                                                                                                                                                                                                                                                                                                                                                                                                                                                                                                                                                                                                                                                                                                                                                                                                                                                                                                                                                                                                                                                                                                                                                    ",
"h.                                                                                                                                                                                                                                                                                                                                                                                                                                                                                                                                                                                                                                                                                                                                                                                                                                                                                                                                                                                                                                                                                                                                                    ",
"h.                                                                                                                                                                                                                                                                                                                                                                                                                                                                                                                                                                                                                                                                                                                                                                                                                                                                                                                                                                                                                                                                                                                                                    ",
"h.                                                                                                                                                                                                                                                                                                                                                                                                                                                                                                                                                                                                                                                                                                                                                                                                                                                                                                                                                                                                                                                                                                                                                    ",
"h.                                                                                                                                                                                                                                                                                                                                                                                                                                                                                                                                                                                                                                                                                                                                                                                                                                                                                                                                                                                                                                                                                                                                                    ",
"h.                                                                                                                                                                                                                                                                                                                                                                                                                                                                                                                                                                                                                                                                                                                                                                                                                                                                                                                                                                                                                                                                                                                                                    ",
"h.                                                                                                                                                                                                                                                                                                                                                                                                                                                                                                                                                                                                                                                                                                                                                                                                                                                                                                                                                                                                                                                                                                                                                    ",
"h.                                                                                                                                                                                                                                                                                                                                                                                                                                                                                                                                                                                                                                                                                                                                                                                                                                                                                                                                                                                                                                                                                                                                                    ",
"h.                                                                                                                                                                                                                                                                                                                                                                                                                                                                                                                                                                                                                                                                                                                                                                                                                                                                                                                                                                                                                                                                                                                                                    ",
"h.                                                                                                                                                                                                                                                                                                                                                                                                                                                                                                                                                                                                                                                                                                                                                                                                                                                                                                                                                                                                                                                                                                                                                    ",
"h.                                                                                                                                                                                                                                                                                                                                                                                                                                                                                                                                                                                                                                                                                                                                                                                                                                                                                                                                                                                                                                                                                                                                                    ",
"h.                                                                                                                                                                                                                                                                                                                                                                                                                                                                                                                                                                                                                                                                                                                                                                                                                                                                                                                                                                                                                                                                                                                                                    ",
"h.                                                                                                                                                                                                                                                                                                                                                                                                                                                                                                                                                                                                                                                                                                                                                                                                                                                                                                                                                                                                                                                                                                                                                    ",
"h.                                                                                                                                                                                                                                                                                                                                                                                                                                                                                                                                                                                                                                                                                                                                                                                                                                                                                                                                                                                                                                                                                                                                                    ",
"h.                                                                                                                                                                                                                                                                                                                                                                                                                                                                                                                                                                                                                                                                                                                                                                                                                                                                                                                                                                                                                                                                                                                                                    ",
"h.                                                                                                                                                                                                                                                                                                                                                                                                                                                                                                                                                                                                                                                                                                                                                                                                                                                                                                                                                                                                                                                                                                                                                    ",
"h.                                                                                                                                                                                                                                                                                                                                                                                                                                                                                                                                                                                                                                                                                                                                                                                                                                                                                                                                                                                                                                                                                                                                                    ",
"h.                                                                                                                                                                                                                                                                                                                                                                                                                                                                                                                                                                                                                                                                                                                                                                                                                                                                                                                                                                                                                                                                                                                                                    ",
"h.                                                                                                                                                                                                                                                                                                                                                                                                                                                                                                                                                                                                                                                                                                                                                                                                                                                                                                                                                                                                                                                                                                                                                    ",
"h.                                                                                                                                                                                                                                                                                                                                                                                                                                                                                                                                                                                                                                                                                                                                                                                                                                                                                                                                                                                                                                                                                                                                                    ",
"h.                                                                                                                                                                                                                                                                                                                                                                                                                                                                                                                                                                                                                                                                                                                                                                                                                                                                                                                                                                                                                                                                                                                                                    ",
"h.                                                                                                                                                                                                                                                                                                                                                                                                                                                                                                                                                                                                                                                                                                                                                                                                                                                                                                                                                                                                                                                                                                                                                    ",
"h.                                                                                                                                                                                                                                                                                                                                                                                                                                                                                                                                                                                                                                                                                                                                                                                                                                                                                                                                                                                                                                                                                                                                                    ",
"h.                                                                                                                                                                                                                                                                                                                                                                                                                                                                                                                                                                                                                                                                                                                                                                                                                                                                                                                                                                                                                                                                                                                                                    ",
"h.                                                                                                                                                                                                                                                                                                                                                                                                                                                                                                                                                                                                                                                                                                                                                                                                                                                                                                                                                                                                                                                                                                                                                    ",
"h.                                                                                                                                                                                                                                                                                                                                                                                                                                                                                                                                                                                                                                                                                                                                                                                                                                                                                                                                                                                                                                                                                                                                                    ",
"h.                                                                                                                                                                                                                                                                                                                                                                                                                                                                                                                                                                                                                                                                                                                                                                                                                                                                                                                                                                                                                                                                                                                                                    ",
"h.                                                                                                                                                                                                                                                                                                                                                                                                                                                                                                                                                                                                                                                                                                                                                                                                                                                                                                                                                                                                                                                                                                                                                    ",
"h.                                                                                                                                                                                                                                                                                                                                                                                                                                                                                                                                                                                                                                                                                                                                                                                                                                                                                                                                                                                                                                                                                                                                                    ",
"h.                                                                                                                                                                                                                                                                                                                                                                                                                                                                                                                                                                                                                                                                                                                                                                                                                                                                                                                                                                                                                                                                                                                                                    ",
"h.                                                                                                                                                                                                                                                                                                                                                                                                                                                                                                                                                                                                                                                                                                                                                                                                                                                                                                                                                                                                                                                                                                                                                    ",
"h.                                                                                                                                                                                                                                                                                                                                                                                                                                                                                                                                                                                                                                                                                                                                                                                                                                                                                                                                                                                                                                                                                                                                                    ",
"h.                                                                                                                                                                                                                                                                                                                                                                                                                                                                                                                                                                                                                                                                                                                                                                                                                                                                                                                                                                                                                                                                                                                                                    ",
"h.                                                                                                                                                                                                                                                                                                                                                                                                                                                                                                                                                                                                                                                                                                                                                                                                                                                                                                                                                                                                                                                                                                                                                    ",
"h.                                                                                                                                                                                                                                                                                                                                                                                                                                                                                                                                                                                                                                                                                                                                                                                                                                                                                                                                                                                                                                                                                                                                                    ",
"h.                                                                                                                                                                                                                                                                                                                                                                                                                                                                                                                                                                                                                                                                                                                                                                                                                                                                                                                                                                                                                                                                                                                                                    ",
"h.                                                                                                                                                                                                                                                                                                                                                                                                                                                                                                                                                                                                                                                                                                                                                                                                                                                                                                                                                                                                                                                                                                                                                    ",
"h.                                                                                                                                                                                                                                                                                                                                                                                                                                                                                                                                                                                                                                                                                                                                                                                                                                                                                                                                                                                                                                                                                                                                                    ",
"h.                                                                                                                                                                                                                                                                                                                                                                                                                                                                                                                                                                                                                                                                                                                                                                                                                                                                                                                                                                                                                                                                                                                                                    ",
"h.                                                                                                                                                                                                                                                                                                                                                                                                                                                                                                                                                                                                                                                                                                                                                                                                                                                                                                                                                                                                                                                                                                                                                    ",
"h.                                                                                                                                                                                                                                                                                                                                                                                                                                                                                                                                                                                                                                                                                                                                                                                                                                                                                                                                                                                                                                                                                                                                                    ",
"h.                                                                                                                                                                                                                                                                                                                                                                                                                                                                                                                                                                                                                                                                                                                                                                                                                                                                                                                                                                                                                                                                                                                                                    ",
"h.                                                                                                                                                                                                                                                                                                                                                                                                                                                                                                                                                                                                                                                                                                                                                                                                                                                                                                                                                                                                                                                                                                                                                    ",
"h.                                                                                                                                                                                                                                                                                                                                                                                                                                                                                                                                                                                                                                                                                                                                                                                                                                                                                                                                                                                                                                                                                                                                                    ",
"h.                                                                                                                                                                                                                                                                                                                                                                                                                                                                                                                                                                                                                                                                                                                                                                                                                                                                                                                                                                                                                                                                                                                                                    ",
"h.                                                                                                                                                                                                                                                                                                                                                                                                                                                                                                                                                                                                                                                                                                                                                                                                                                                                                                                                                                                                                                                                                                                                                    ",
"h.                                                                                                                                                                                                                                                                                                                                                                                                                                                                                                                                                                                                                                                                                                                                                                                                                                                                                                                                                                                                                                                                                                                                                    ",
"h.                                                                                                                                                                                                                                                                                                                                                                                                                                                                                                                                                                                                                                                                                                                                                                                                                                                                                                                                                                                                                                                                                                                                                    ",
"h.                                                                                                                                                                                                                                                                                                                                                                                                                                                                                                                                                                                                                                                                                                                                                                                                                                                                                                                                                                                                                                                                                                                                                    ",
"h.                                                                                                                                                                                                                                                                                                                                                                                                                                                                                                                                                                                                                                                                                                                                                                                                                                                                                                                                                                                                                                                                                                                                                    ",
"h.                                                                                                                                                                                                                                                                                                                                                                                                                                                                                                                                                                                                                                                                                                                                                                        & & o o o o & , 1                                                                                                                                                                                                                                                                                                                                                           ",
"h.                                                                                                                                                                                                                                                                                                                                                                                                                                                                                                                                                                                                                                                                                                                                                                  & o o o o o o o o o o o o o & 1                                                                                                                                                                                                                                                                                                                                                   ",
"h.                                                                                                                                                                                                                                                                                                                                                                                                                                                                                                                                                                                                                                                                                                                                                              , o o o : u C S D D S C a 7 ; o o o o &                                                                                                                                                                                                                                                                                                                                               ",
"h.                                                                                                                                                                                                                                                                                                                                                                                                                                                                                                                                                                                                                                                                                                                                                            & o o 6 S f.c.M.B.V.V.B.M.b.z.d.F d 6 o o o o ,                                                                                                                                                                                                                                                                                                                                         ",
"h.                                                                                                                                                                                                                                                                                                                                                                                                                                                                                                                                                                                                                                                                                                                                                          & o o s k.V.Y.Y.I.J.J.J.J.I.I.Y.I.C.m.k.G a % o o o ,                                                                                                                                                                                                                                                                                                                                     ",
"h.                                                                                                                                                                                                                                                                                                                                                                                                                                                                                                                                                                                                                                                                                                                                                        & o o Z b.Y.I.G.A.A.A.A.A.A.A.A.D.J.Y.Y.Y.A.b.i.d ; o o o                                                                                                                                                                                                                                                                                                                                   ",
"h.                                                                                                                                                                                                                                                                                                                                                                                                                                                                                                                                                                                                                                                                                                                                                      1 o o C n.E.I.A.A.A.A.A.A.A.A.A.D.J.V.N.C.D.K.Y.J.m.d.C : o o o                                                                                                                                                                                                                                                                                                                               ",
"h.                                                                                                                                                                                                                                                                                                                                                                                                                                                                                                                                                                                                                                                                                                                                          , o o o o o o o % Z f.x.M.D.G.D.D.A.A.A.A.G.C.z.F D x.A.A.A.J.I.G.m.i.s ; o o ,                                                                                                                                                                                                                                                                                                                           ",
"h.                                                                                                                                                                                                                                                                                                                                                                                                                                                                                                                                                                                                                                                                                                                                      o o o o % ; 6 7 : ; ; ; : 8 Z i.c.B.G.G.D.A.K.B.i.i o u k.D.D.A.A.A.G.J.A.c.G 7 o o &                                                                                                                                                                                                                                                                                                                         ",
"h.                                                                                                                                                                                                                                                                                                                                                                                                                                                                                                                                                                                                                                                                                                                                  , o o ; p S J d.g.g.f.L G Z i : o ; p G x.V.J.I.V.J : o a i.M.D.A.A.A.A.A.D.G.J.V.g.d o o o                                                                                                                                                                                                                                                                                                                       ",
"h.                                                                                                                                                                                                                                                                                                                                                                                                                                                                                                                                                                                                                                                                                                                                & o o p J x.N.A.G.G.G.G.D.C.M.x.d.D u % o i H n.J.d.: o Z x.C.D.A.A.A.A.A.A.A.A.D.G.G.v.F ; o o                                                                                                                                                                                                                                                                                                                     ",
"h.                                                                                                                                                                                                                                                                                                                                                                                                                                                                                                                                                                                                                                                                                                                              & o o Z z.C.J.D.D.A.A.A.A.D.D.D.J.J.B.x.H i o o Z i.s o Z b.K.D.A.A.A.A.A.A.A.A.A.A.A.D.K.N.K 7 o o ,                                                                                                                                                                                                                                                                                                                 ",
"h.                                                                                                                                                                                                                                                                                                                                                                                                                                                                                                                                                                                                                                                                                                                            1 o o Z v.I.G.A.A.A.A.A.A.A.A.A.A.A.A.G.I.Z.x.F 6 o ; o 8 x.Y.D.A.A.A.A.A.A.A.A.A.A.A.A.A.A.I.C.f.i o o ,                                                                                                                                                                                                                                                                                                               ",
"h.                                                                                                                                                                                                                                                                                                                                                                                                                                                                                                                                                                                                                                                                                                                            o o a c.I.D.A.A.A.A.A.A.A.A.A.A.A.A.A.A.A.G.Y.V.j.s o o a n.R.D.A.A.A.A.A.A.A.A.A.A.A.A.A.A.Z.J.D.k.a o o ,                                                                                                                                                                                                                                                                                                             ",
"h.                                                                                                                                                                                                                                                                                                                                                                                                                                                                                                                                                                                                                                                                                                                          , o : f.I.J.A.A.A.A.A.A.A.A.A.A.A.A.A.A.A.A.A.D.I.I.v.Z o % F N.J.D.A.A.A.A.A.A.A.A.A.A.A.A.A.D.D.J.G.l.a o o                                                                                                                                                                                                                                                                                                             ",
"h.                                                                                                                                                                                                                                                                                                                                                                                                                                                                                                                                                                                                                                                                                                                          o o S B.I.A.A.A.A.A.A.A.A.A.A.A.A.A.A.A.A.A.A.A.A.J.R.M.D o o H V.G.A.A.A.A.A.A.A.A.A.A.A.A.G.G.D.D.J.J.k.p o o                                                                                                                                                                                                                                                                                                           ",
"h.                                                                                                                                                                                                                                                                                                                                                                                                                                                                                                                                                                                                                                                                                                                        , o : j.I.G.A.A.A.A.A.A.A.A.A.A.A.A.A.A.A.A.A.A.A.A.A.G.Y.N.D o 7 g.D.D.A.A.A.A.A.A.A.A.A.G.G.m.f.k.B.G.J.G.g.8 o o                                                                                                                                                                                                                                                                                                         ",
"h.                                                                                                                                                                                                                                                                                                                                                                                                                                                                                                                                                                                                                                                                                                                        o o d m.Y.A.A.A.A.A.A.A.A.A.A.A.A.A.A.A.A.A.A.A.A.A.A.A.D.Y.b.d o Z n.G.A.A.A.A.A.A.A.D.J.A.z.Z % d v.G.D.K.A.i.: o o                                                                                                                                                                                                                                                                                                       ",
"h.                                                                                                                                                                                                                                                                                                                                                                                                                                                                                                                                                                                                                                                                                                                        o o G Z.J.A.A.A.A.A.A.A.A.A.A.A.A.A.A.A.A.A.A.A.A.A.A.A.A.G.K.f.6 6 g.G.A.A.A.A.A.A.D.J.B.d.i o : H N.G.A.A.I.B.G o o ,                                                                                                                                                                                                                                                                                                     ",
"h.                                                                                                                                                                                                                                                                                                                                                                                                                                                                                                                                                                                                                                                                                                                        o ; d.I.G.A.A.A.A.D.G.D.A.A.A.A.A.A.A.A.A.A.A.A.A.A.A.A.A.A.I.m.d % H C.D.A.A.A.A.D.J.M.H 6 o p d.N.G.D.A.A.D.I.n.d o o                                                                                                                                                                                                                                                                                                     ",
"h.                                                                                                                                                                                                                                                                                                                                                                                                                                                                                                                                                                                                                                                                                                                        o 7 l.Y.D.A.A.A.A.G.J.I.J.A.A.A.A.A.A.A.A.A.A.A.A.A.A.A.A.A.G.V.F % S B.D.A.A.A.D.J.m.F ; o C x.G.J.A.A.A.A.A.G.I.j.6 o &                                                                                                                                                                                                                                                                                                   ",
"h.                                                                                                                                                                                                                                                                                                                                                                                                                                                                                                                                                                                                                                                                                                                      , o u c.Y.D.A.A.D.Z.v.d.x.J.I.D.A.A.A.A.A.A.A.A.A.A.A.A.A.A.A.G.C.F % S B.D.A.A.A.I.M.F o o D n.I.G.A.A.A.A.A.A.A.K.C.F o o                                                                                                                                                                                                                                                                                                   ",
"h.                                                                                                                                                                                                                                                                                                                                                                                                                                                                                                                                                                                                                                                                                                                      , o u c.Y.A.A.A.G.Z.L o u s.V.Y.J.A.A.A.A.A.A.A.A.A.A.A.A.A.Z.I.M.C o G C.D.A.Z.I.B.G o % F M.I.D.A.A.A.A.A.A.A.A.A.I.x.u o &                                                                                                                                                                                                                                                                                                 ",
"h.                                                                                                                                                                                                                                                                                                                                                                                                                                                                                                                                                                                                                                                                                                                      1 o 8 x.Y.A.A.A.D.G.l.i o % D c.G.I.D.A.A.A.A.A.A.A.A.A.A.A.G.I.g.6 : g.G.A.Z.J.G.K ; o F M.I.A.A.A.A.A.A.A.A.A.A.A.G.C.G o o                                                                                                                                                                                                                                                                                                 ",
"h.                                                                                                                                                                                                                                                                                                                                                                                                                                                                                                                                                                                                                                                                                                                        o : k.Y.D.A.A.A.G.D.x.Z o o a L m.G.J.D.A.A.A.A.A.A.A.A.D.I.b.d o C n.G.A.G.I.k.7 o S m.I.D.A.A.A.A.A.A.A.A.A.A.A.A.K.z.8 o &                                                                                                                                                                                                                                                                                               ",
"h.                                                                                                                                                                                                                                                                                                                                                                                                                                                                                                                                                                                                                                                                                                                        o o L J.G.A.A.A.A.G.I.M.J u o ; C s.n.A.J.G.D.D.D.D.D.G.K.n.S o 7 g.D.D.A.I.n.d o s c.J.D.A.A.A.A.A.A.A.A.A.A.A.A.A.G.N.S o o                                                                                                                                                                                                                                                                                               ",
"h.                                                                                                                                                                                                                                                                                                                                                                                                                                                                                                                                                                                                                                                                                                                        o o S B.I.A.A.A.A.A.G.I.Z.z.D 6 o : d J z.M.C.D.D.D.Z.N.j.C o : J B.G.A.J.A.J o 6 g.G.G.A.A.A.A.A.A.A.A.A.A.A.A.A.A.D.G.L ; o                                                                                                                                                                                                                                                                                               ",
"h.                                                                                                                                                                                                                                                                                                                                                                                                                                                                                                                                                                                                                                                                                                                        , o 8 z.Y.D.A.A.A.A.A.D.G.G.M.g.S 7 % % 8 C G L d.s.J Z 6 o 6 J N.J.D.D.I.v.p o F B.J.A.A.A.A.A.A.A.A.A.A.A.A.A.A.D.G.M.J 7 o 1                                                                                                                                                                                                                                                                                             ",
"h.                                                                                                                                                                                                                                                                                                                                                                                                                                                                                                                                                                                                                                                                                                                          o o F C.I.A.A.A.A.A.A.A.D.G.D.M.k.F p : o o o % % o o o o i j.G.I.G.G.G.i.o 7 z.K.G.A.A.A.A.A.A.A.A.A.A.A.A.A.D.I.m.F 7 7 % ,                                                                                                                                                                                                                                                                                             ",
"h.                                                                                                                                                                                                                                                                                                                                                                                                                                                                                                                                                                                                                                                                                                                          o o 7 k.I.G.A.A.A.A.A.A.A.A.D.G.J.V.v.f.G Z s p a d D D 6 o i i.N.I.Y.N.Z o S B.I.A.A.A.A.A.A.A.A.A.A.A.A.Z.G.Y.M.F % : i o o                                                                                                                                                                                                                                                                                             ",
"h.                                                                                                                                                                                                                                                                                                                                                                                                                                                                                                                                                                                                                                                                                                                          , o o C n.Y.D.A.A.A.A.A.A.A.A.A.A.G.K.I.Z.N.n.b.b.m.C.V.f.i o ; S z.K.v.8 o s.J.G.A.A.A.A.A.A.A.A.A.A.A.A.J.Y.m.D o % F S o o                                                                                                                                                                                                                                                                                             ",
"h.                                                                                                                                                                                                                                                                                                                                                                                                                                                                                                                                                                                                                                                                                                                            & o o F B.I.A.A.A.A.A.A.A.A.A.A.A.A.D.G.J.I.I.I.I.J.I.I.x.S % o u J J o 8 c.Y.D.A.A.A.A.A.A.A.A.A.A.D.I.I.c.Z o o G m.G o o                                                                                                                                                                                                                                                                                             ",
"h.                                                                                                                                                                                                                                                                                                                                                                                                                                                                                                                                                                                                                                                                                                                              o o ; J V.J.A.A.A.A.A.A.A.A.A.A.A.A.A.A.A.A.A.A.A.Z.J.Y.N.L i o o 6 o a m.W.I.G.D.A.A.A.A.A.A.D.J.Y.B.f.a o % G N.G.F o o                                                                                                                                                                                                                                                                                             ",
"h.                                                                                                                                                                                                                                                                                                                                                                                                                                                                                                                                                                                                                                                                                                                              1 o o 6 K B.J.A.A.A.A.A.A.A.A.A.A.A.A.A.A.A.A.A.A.A.Z.D.I.G.x.F 7 o o 6 G z.M.A.K.I.J.J.J.J.I.J.N.z.D : o 7 i.V.Y.B.D o o                                                                                                                                                                                                                                                                                             ",
"h.                                                                                                                                                                                                                                                                                                                                                                                                                                                                                                                                                                                                                                                                                                                                , o o 6 J N.J.A.A.A.A.A.A.A.A.A.A.A.A.A.A.A.A.A.A.A.A.A.J.I.V.k.Z : o % 8 C H f.z.c.b.b.c.l.i.S 7 o o C l.D.I.G.n.d o &                                                                                                                                                                                                                                                                                             ",
"h.                                                                                                                                                                                                                                                                                                                                                                                                                                                                                                                                                                                                                                                                                                                                  & o o : F n.J.G.A.A.A.A.A.A.A.A.A.A.A.A.A.A.A.A.A.A.A.A.D.J.J.N.j.G a ; o % : 8 i a a i 7 ; o o s K m.J.J.A.G.z.u o ,                                                                                                                                                                                                                                                                                             ",
"h.                                                                                                                                                                                                                                                                                                                                                                                                                                                                                                                                                                                                                                                                                                                                    & o o % Z z.Z.J.A.A.A.A.A.A.A.A.A.A.A.A.A.A.A.A.A.A.A.A.A.G.J.J.V.v.f.F C i 6 : ; ; : 6 p S i.v.C.J.G.A.A.D.i.; o                                                                                                                                                                                                                                                                                               ",
"h.                                                                                                                                                                                                                                                                                                                                                                                                                                                                                                                                                                                                                                                                                                                                      , o o o p s.V.G.A.A.A.A.A.A.A.A.A.A.A.A.A.A.A.A.A.A.A.A.A.A.D.G.G.D.V.n.x.k.f.s.s.f.k.c.N.A.G.D.D.A.A.G.N.S o o                                                                                                                                                                                                                                                                                               ",
"h.                                                                                                                                                                                                                                                                                                                                                                                                                                                                                                                                                                                                                                                                                                                                          o o o 6 k.K.G.A.A.A.A.A.A.A.A.A.A.A.A.A.A.A.A.A.A.A.A.A.A.A.A.D.D.G.G.G.J.G.G.G.G.G.D.D.A.A.A.A.A.K.k.8 o &                                                                                                                                                                                                                                                                                               ",
"h.                                                                                                                                                                                                                                                                                                                                                                                                                                                                                                                                                                                                                                                                                                                                            o o ; j.K.G.A.A.A.A.A.A.A.A.A.A.A.A.A.A.A.A.A.A.A.A.A.A.A.A.A.A.A.A.A.A.A.A.A.A.A.A.A.A.A.A.Z.I.B.D o o                                                                                                                                                                                                                                                                                                 ",
"h.                                                                                                                                                                                                                                                                                                                                                                                                                                                                                                                                                                                                                                                                                                                                          1 o o C M.I.A.A.A.A.A.A.A.A.A.A.A.A.A.A.A.A.A.A.A.A.A.A.A.A.A.A.A.A.A.A.A.A.A.A.A.A.A.A.A.A.Z.G.I.f.6 o o                                                                                                                                                                                                                                                                                                 ",
"h.                                                                                                                                                                                                                                                                                                                                                                                                                                                                                                                                                                                                                                                                                                                                          o o : g.I.G.A.A.A.A.A.A.A.A.A.A.A.A.A.A.A.A.A.A.A.A.A.A.A.A.A.A.A.A.A.A.A.A.A.A.A.A.A.A.A.Z.G.Y.x.p o o ,                                                                                                                                                                                                                                                                                                 ",
"h.                                                                                                                                                                                                                                                                                                                                                                                                                                                                                                                                                                                                                                                                                                                                        , o o S B.I.A.A.A.A.A.A.A.A.A.A.A.A.A.A.A.A.A.A.A.A.A.A.A.A.A.A.A.A.A.A.A.A.A.A.A.A.A.A.A.A.G.I.b.C o o &                                                                                                                                                                                                                                                                                                   ",
"h.                                                                                                                                                                                                                                                                                                                                                                                                                                                                                          1 , & & & & o o o o o o o o o o o o o & & & ,                                                                                                                                                                                                 o o 7 l.Y.D.A.A.A.A.A.A.A.A.A.A.A.A.A.A.A.A.A.A.A.A.A.A.A.A.A.A.A.A.A.A.A.A.A.A.A.A.A.A.A.J.J.x.C o o o                                                                                                                                                                                                                                                                                                     ",
"h.                                                                                                                                                                                                                                                                                                                                                                                                                                                                          1 & & o o o o o o o o o o o o o % % % % % % % % o o o o o o o o o o o o & ,                                                                                                                                                                                 & o % F V.I.A.A.A.A.A.A.A.A.A.A.A.A.A.A.A.A.A.A.A.A.A.A.A.A.A.A.A.A.A.A.A.A.A.A.A.A.D.D.G.G.N.f.a o o o                                                                                                                                                                                                                                                                                                       ",
"h.                                                                                                                                                                                                                                                                                                                                                                                                                                                                , & o o o o o o o o ; : 7 u p s d Z S D F F G G H H G G G F D S Z d a i 8 : ; % o o o o o o & ,                                                                                                                                                                       o o i c.Y.D.A.A.A.A.A.A.A.A.A.A.A.A.A.A.A.A.A.A.A.A.A.A.D.D.D.D.A.A.A.D.D.D.D.G.G.J.G.D.M.k.D 7 o o o                                                                                                                                                                                                                                                                                                         ",
"h.                                                                                                                                                                                                                                                                                                                                                                                                                                                      , & o o o o o o % : 7 p C S G J d.j.z.x.v.n.m.N.N.B.V.V.C.C.C.C.V.V.B.B.N.M.n.v.x.l.f.L G S d i 6 ; o o o o o &                                                                                                                                                               & o o a z.J.K.D.A.A.A.A.A.A.A.A.A.A.A.A.A.A.A.A.A.A.A.A.G.K.K.K.I.I.I.I.K.K.J.J.D.C.N.x.s.S u o o o &                                                                                                                                                                                                                                                                                                           ",
"h.                                                                                                                                                                                                                                                                                                                                                                                                                                              & o o o o o o ; 6 i C D J f.l.c.m.N.C.D.G.J.G.G.G.G.G.D.D.D.D.D.D.D.D.D.D.D.D.D.D.G.G.G.G.G.J.G.C.N.n.x.j.K D s 7 % o o o o &                                                                                                                                                         o o o o a d.B.Y.J.A.A.A.A.A.A.A.A.A.A.A.A.A.A.A.A.A.A.G.C.b.c.b.n.m.m.m.n.v.x.k.d.H Z i : o o o o ,                                                                                                                                                                                                                                                                                                             ",
"h.                                                                                                                                                                                                                                                                                                                                                                                                                                      , o o o o o o ; u d D K j.c.m.V.D.K.I.J.G.G.D.D.A.A.A.A.A.A.A.A.A.A.A.A.A.A.A.A.A.A.A.A.A.D.J.I.I.Y.Y.R.R.R.R.E.E.Y.Z.m.z.L D p : o o o o &                                                                                                                                                 & o $ e 4 o : D c.J.I.G.A.A.A.A.A.A.A.A.A.A.A.A.A.A.A.D.A.g.s i a d d d d s p u 6 ; o o o o o o ,                                                                                                                                                                                                                                                                                                                 ",
"h.                                                                                                                                                                                                                                                                                                                                                                                                                                & o o o o o ; u C G f.x.M.C.J.I.I.K.G.D.D.A.A.A.A.A.A.A.A.A.A.A.A.A.A.A.A.A.A.A.A.A.A.A.A.A.J.Y.I.G.C.N.b.x.x.x.v.n.m.N.V.G.Y.W.E.G.n.g.F a ; o o o o                                                                                                                                             o o e V B e o o p i.N.I.K.D.A.A.A.A.A.A.A.A.A.A.A.A.A.J.v.s o o o o o o o o o o o o o o & &                                                                                                                                                                                                                                                                                                                       ",
"h.                                                                                                                                                                                                                                                                                                                                                                                                                          & o o o o % 7 d G f.c.N.D.I.Y.I.J.G.D.A.A.A.A.A.A.A.A.A.A.A.A.A.A.A.A.A.A.A.A.A.A.A.A.A.A.A.A.J.Y.Z.n.j.H S s u 6 6 7 8 p a d S G K g.x.M.I.R.Z.b.f.S 8 o o o o ,                                                                                                                                     & o - b #.$...c 3 o ; Z k.V.I.G.A.A.A.A.A.A.A.A.A.A.A.D.C.H ; o o & o o o o o & & , , 1                                                                                                                                                                                                                                                                                                                             ",
"h.                                                                                                                                                                                                                                                                                                                                                                                                                  1 & o o o o : p S i.z.M.C.I.Y.I.J.G.D.A.A.A.A.A.A.A.A.A.A.A.A.A.A.A.A.A.A.A.A.A.A.A.A.A.A.A.A.A.A.D.K.V.z.G a : o o o o o o o o o o o o o o : 8 s H b.I.Y.I.V.x.H a ; o o o 1                                                                                                                                 o o r ] @.@.$.@.m w o o 7 F z.C.I.G.A.A.A.A.A.A.A.A.A.K.x.p o o                                                                                                                                                                                                                                                                                                                                                     ",
"h.                                                                                                                                                                                                                                                                                                                                                                                                              & o o o o 6 s F f.v.B.G.I.I.K.G.D.A.A.A.A.A.A.A.A.A.A.A.A.A.A.A.A.A.A.A.A.A.A.A.A.A.A.A.A.A.A.A.A.A.D.J.b.D 6 o o o o o o o o o o o o o o o o o o o o o C x.G.G.I.I.Z.v.L d : o o o                                                                                                                             & o - n @.+.+.+.$.] e o - # o 8 G x.V.J.G.D.A.A.A.A.A.G.V.G o o ,                                                                                                                                                                                                                                                                                                                                                     ",
"h.                                                                                                                                                                                                                                                                                                                                                                                                        , o o o o 6 d G g.b.V.G.I.I.G.D.A.A.A.A.A.A.A.A.A.A.A.A.A.A.A.A.A.A.A.A.A.A.A.A.A.A.A.A.A.A.A.A.A.A.A.A.D.J.b.Z o o o o o o o o o o o o o o o o o o o o o o o o S m.J.A.D.J.K.A.b.i.d ; o o &                                                                                                                         o o y ..#.+.+.#.+.c # 3 c c 4 # o 8 F k.M.D.G.G.D.A.D.I.l.8 o o                                                                                                                                                                                                                                                                                                                                                       ",
"h.                                                                                                                                                                                                                                                                                                                                                                                                  , o o o o : s F g.b.V.G.J.J.G.D.A.A.A.A.A.A.A.A.A.A.A.A.A.A.A.A.A.A.A.A.A.A.A.A.A.A.A.A.A.A.A.A.A.A.A.A.A.A.A.G.N.F o o o o o o o o o o o o o o o o o o o o o o o o o ; i.G.G.A.A.D.G.J.A.b.J p o o o 1                                                                                                                   & o 3 m #.@.+.@.$.B 3 o z O.+.V x 4 # o 7 Z s.v.V.G.J.Y.B.D o o &                                                                                                                                                                                                                                                                                                                                                       ",
"h.                                                                                                                                                                                                                                                                                                                                                                                              & o o o ; i D d.v.V.G.G.G.D.D.A.A.A.A.A.A.A.A.A.A.A.A.A.A.A.A.A.A.A.A.A.A.A.A.A.A.A.A.A.A.A.A.A.A.A.A.A.A.A.A.A.D.G.j.6 o o o o o o o o o o o o o o o o o o o o o o o o o o Z N.K.A.A.A.A.D.G.J.Z.x.F 6 o o &                                                                                                                 o o z O.#.+.+.$.O.y o 4 B #.@.@.O.V c 4 o o : s G j.M.J.j.6 o o                                                                                                                                                                                                                                                                                                                                                         ",
"h.                                                                                                                                                                                                                                                                                                                                                                                        , o o o o 6 C K x.N.G.G.D.D.A.A.A.A.A.A.A.A.A.A.A.A.A.A.A.A.A.A.A.A.A.A.A.A.A.A.A.A.A.A.A.A.A.A.A.A.A.A.A.A.A.A.A.A.A.G.C.H o o o o o o o o o o o o o o o o o o o o o o o o o o o a n.I.A.A.A.A.A.A.A.D.J.B.f.d o o o                                                                                                             o o 4 B $.@.+.@.#.b = o c +.#.+.+.@.$.O.y o $ - # o 6 C J C o o ,                                                                                                                                                                                                                                                                                                                                                         ",
"h.                                                                                                                                                                                                                                                                                                                                                                                    & o o o o i F j.M.D.K.G.A.A.A.A.A.A.A.A.A.A.A.A.A.A.A.A.A.A.A.A.A.A.A.A.A.A.A.A.A.A.A.A.A.A.A.A.A.A.A.A.A.A.A.A.A.A.A.A.A.G.C.H o o o o o o o o o o o o o o o o o o o o o o o o o o o p n.I.A.A.A.A.A.A.A.A.A.G.G.b.G 6 o o &                                                                                                         o o x +.#.+.+.$.] w o e ] $.+.+.+.@.$.n - o x m x w $ o o % o o                                                                                                                                                                                                                                                                                                                                                           ",
"h.                                                                                                                                                                                                                                                                                                                                                                                & o o o ; d K c.C.I.K.D.A.A.A.A.A.A.A.A.A.A.A.A.A.A.A.A.A.A.A.A.A.A.A.A.A.A.A.A.A.A.A.A.A.A.A.A.A.A.A.A.A.A.A.A.A.A.A.A.A.A.A.D.D.g.; o o o o o o o o o o o o o o o o o o o o o o o o o o S B.K.A.A.A.A.A.A.A.A.A.A.D.I.B.f.a o o o                                                                                                     o o 4 ] $.+.+.@.+.x o - n $.@.+.+.+.$.] e o w ] $.+.] n y $ o o 1                                                                                                                                                                                                                                                                                                                                                           ",
"h.                                                                                                                                                                                                                                                                                                                                                                            o o o o 7 S f.M.J.Y.K.D.A.A.A.A.A.A.A.A.A.A.A.A.A.A.A.A.A.A.A.A.A.A.A.A.A.A.A.A.A.A.A.A.A.A.A.A.A.A.A.A.A.A.A.A.A.A.A.A.A.A.A.A.A.A.J.M.S o o o o o o o o o o 6 i s C C d a u 6 % o o o o o 8 k.J.D.A.A.A.A.A.A.A.A.A.A.A.D.I.J.x.Z o o o                                                                                                 , o # c #.#.+.@.#.B 3 o z O.$.+.+.+.#.@.c o $ n $.@.@.$.$.c $ o &                                                                                                                                                                                                                                                                                                                                                             ",
"h.                                                                                                                                                                                                                                                                                                                                                                        o o o o i F l.N.K.Y.J.A.A.A.A.A.A.A.A.A.A.A.A.A.A.A.A.A.A.A.A.A.A.A.A.A.A.A.A.A.A.A.A.A.A.A.A.A.A.A.A.A.A.A.A.A.A.A.A.A.A.A.A.A.A.A.A.A.D.K.v.C % o o o o ; p D s.z.b.M.N.N.M.m.v.l.s.F d a a S j.Z.G.Z.A.A.A.A.A.A.A.A.A.A.A.A.A.J.Y.M.G : o o 1                                                                                             o o e ] $.+.+.@...y o 4 V $.+.+.+.@.$.B 3 o y O.$.+.+.#.] w o o                                                                                                                                                                                                                                                                                                                                                               ",
"h.                                                                                                                                                                                                                                                                                                                                                                    o o o % p H x.V.I.I.G.A.A.A.A.A.A.A.A.A.A.A.A.A.A.A.A.A.A.A.A.A.A.A.A.A.A.A.A.A.A.A.A.A.A.A.A.A.A.A.A.A.A.A.A.A.A.A.A.A.A.A.A.A.A.A.A.A.A.A.A.G.I.m.i.S C Z F f.v.V.G.I.Y.Y.I.I.I.Y.Y.I.G.C.M.b.n.B.G.G.A.A.A.A.A.A.A.A.A.A.A.A.A.A.A.A.G.Y.V.i.8 o o ,                                                                                         & o = b $.@.+.+.+.b - $ c #.#.+.+.+.@...y o 3 B $.@.+.#.O.x # o &                                                                                                                                                                                                                                                                                                                                                               ",
"h.                                                                                                                                                                                                                                                                                                                                                                o o o % a J c.C.K.K.G.A.A.A.A.A.A.A.A.A.A.A.A.A.A.A.A.A.A.A.A.A.A.A.A.A.A.A.A.A.A.A.A.A.A.A.A.A.A.A.A.A.A.A.A.A.A.A.A.A.A.A.A.A.A.A.A.A.A.A.A.A.A.A.G.J.D.B.M.N.C.G.K.K.G.D.D.A.A.A.A.A.D.D.G.K.I.I.I.K.G.A.A.A.A.A.A.A.A.A.A.A.A.A.A.A.A.A.A.D.I.A.g.a o o ,                                                                                       o o r ..$.+.+.@.] e o r ] $.+.+.+.@.@.n - # c @.#.+.@.@.B 4 o o                                                                                                                                                                                                                                                                                                                                                                 ",
"h.                                                                                                                                                                                                                                                                                                                                                            o o o ; s J v.Z.J.J.D.A.A.A.A.A.A.A.A.A.A.A.A.A.A.A.A.A.A.A.A.A.A.A.A.A.A.A.A.A.A.A.A.A.A.A.A.A.A.A.A.A.A.A.A.A.A.A.A.A.A.A.A.A.A.A.A.A.A.A.A.A.A.A.A.A.A.D.G.J.J.J.J.G.D.A.D.D.G.G.G.G.G.G.G.G.G.G.G.G.G.D.A.A.A.A.A.A.A.A.A.A.A.A.A.A.A.A.A.A.A.A.D.J.D.z.d o o &                                                                                   & o 3 n #.+.+.@.O.x $ 3 n #.+.+.+.+.@.] e o e ] $.+.+.@.O.z o o ,                                                                                                                                                                                                                                                                                                                                                                 ",
"h.                                                                                                                                                                                                                                                                                                                                                        o o o ; s K v.C.G.G.D.A.A.A.A.A.A.A.A.A.A.A.A.A.A.A.A.A.A.A.A.A.A.A.A.A.A.A.A.A.A.A.A.A.A.A.A.A.A.A.A.A.A.A.A.A.A.A.A.A.A.A.A.A.A.A.A.A.A.A.A.A.A.A.A.A.A.A.A.A.A.A.A.D.D.G.K.K.J.G.D.Z.C.V.V.B.B.V.C.C.A.G.J.K.K.J.G.D.A.A.A.A.A.A.A.A.A.A.A.A.A.A.A.A.A.A.G.G.x.Z % o &                                                                                 o # y ..@.+.+.$.B 4 # z ..@.+.+.+.@.O.c $ - n #.@.+.+.@.m 3 o o                                                                                                                                                                                                                                                                                                                                                                   ",
"h.                                                                                                                                                                                                                                                                                                                                                    & o o o a J v.C.G.D.A.A.A.A.A.A.A.A.A.A.A.A.A.A.A.A.A.A.A.A.A.A.A.A.A.A.A.A.A.A.A.A.A.A.A.A.A.A.A.A.A.A.A.A.A.A.A.A.A.A.A.A.A.A.A.A.A.A.A.A.A.A.A.A.A.A.A.A.A.A.A.A.A.D.K.I.K.D.V.m.x.j.s.J G F D D D D G H L f.l.v.M.C.G.I.I.J.D.A.A.A.A.A.A.A.A.A.A.A.A.A.A.A.A.D.G.c.S o o &                                                                             & o 4 m @.+.+.#...y o 4 B #.+.+.+.+.#.B 4 o z O.#.+.+.@...y o o ,                                                                                                                                                                                                                                                                                                                                                                   ",
"h.                                                                                                                                                                                                                                                                                                                                                , o o o u H c.Z.J.D.A.A.A.A.A.A.A.A.A.A.A.A.A.A.A.A.A.A.A.A.A.A.A.A.A.A.A.A.A.A.A.A.A.A.A.A.A.A.A.A.A.A.A.A.A.A.A.A.A.A.A.A.A.A.A.A.A.A.A.A.A.A.A.A.A.A.A.A.A.A.A.A.A.J.I.I.Z.m.l.K D s 7 % o o o o o o o o o o o o : u d F i.z.M.D.I.I.J.D.A.A.A.A.A.A.A.A.A.A.A.A.A.A.D.J.b.S o o o                                                                           o # z O.@.+.@.$.n - # c O.@.+.+.+.#...y o 4 B $.+.+.+.@.n 3 o o                                                                                                                                                                                                                                                                                                                                                                     ",
"h.                                                                                                                                                                                                                                                                                                                                            , o o o 7 F x.A.I.G.A.A.A.A.A.A.A.A.A.A.A.A.A.A.A.A.A.A.A.A.A.A.A.A.A.A.A.A.A.A.A.A.A.A.A.A.A.A.A.A.A.A.A.A.A.A.A.A.A.A.A.A.A.A.A.A.A.A.A.A.A.A.A.A.A.A.A.A.A.A.A.A.A.J.Y.J.M.k.G s ; o o o = 0 g l Y E / ( ( ^ T P k f 9 $ o o o 6 d H l.N.J.Y.J.A.A.A.A.A.A.A.A.A.A.A.A.A.A.D.I.n.S o o &                                                                       o o 4 B #.+.+.$.] e o e ] #.+.+.+.@.#.n - $ c +.@.+.+.#...r o o ,                                                                                                                                                                                                                                                                                                                                                                     ",
"h.                                                                                                                                                                                                                                                                                                                                          o o o : S l.C.Y.K.A.A.A.A.A.A.A.A.A.A.A.A.A.A.A.A.A.A.A.A.A.A.A.A.A.A.A.A.A.A.A.A.A.A.A.A.A.A.A.A.A.A.A.A.A.A.A.A.A.A.A.A.A.A.A.A.A.A.A.A.A.A.A.A.A.A.A.A.A.A.A.A.A.G.I.D.b.L d ; o o < g T ` /.].1X7X8XwXeXeXeXeXwX7X4X:X'.~._ Y f $ o o : C i.b.D.Y.G.A.A.A.A.A.A.A.A.A.A.A.A.A.G.Y.n.Z o o &                                                                     o # x +.@.+.#.#.c o - n @.@.+.+.+.$.] w o e ] #.+.+.+.#.b - o o                                                                                                                                                                                                                                                                                                                                                                       ",
"h.                                                                                                                                                                                                                                                                                                                                      & o o % d d.N.I.I.D.A.A.A.A.A.A.A.A.A.A.A.A.A.A.A.A.A.A.A.A.A.A.A.A.A.A.A.A.A.A.A.A.A.A.A.A.A.A.A.A.A.A.A.A.A.A.A.A.A.A.A.A.A.A.A.A.A.A.A.A.A.A.A.A.A.A.A.A.A.A.A.A.A.J.D.v.J a o o < l _ `.1XwXtXtXtXtXtXtXtXtXtXtXtXtXtXtXtXtXtXtX8X:X/.) k - o o p H v.G.I.D.A.A.A.A.A.A.A.A.A.A.A.Z.G.Y.n.C o o &                                                                 o o w V #.+.+.$.B 3 o z O.#.+.+.+.#.@.x # - n @.+.+.+.$.] e o o 1                                                                                                                                                                                                                                                                                                                                                                       ",
"h.                                                                                                                                                                                                                                                                                                                                  , o o o p J b.G.I.D.A.A.A.A.A.A.A.A.A.A.A.A.A.A.A.A.A.A.A.A.A.A.A.A.A.A.A.A.A.A.A.A.A.A.A.A.A.A.A.A.A.A.A.A.A.A.A.A.A.A.A.A.A.A.A.A.A.A.A.A.A.A.A.A.A.A.A.A.A.A.A.A.A.G.G.m.L a o o t ( ).4XrXtXtXtXtXtXtXtXtXtXtXtXtXtXtXtXtXtXtXtXtXtXtXtXtXrX2X/.^ t # o p J n.G.G.A.A.A.A.A.A.A.A.A.A.A.Z.G.Y.v.d o o ,                                                             & o o x +.#.+.$.O.y o 4 B $.@.+.+.@.$.B 3 o z O.@.+.+.@.@.c $ o &                                                                                                                                                                                                                                                                                                                                                                         ",
"h.                                                                                                                                                                                                                                                                                                                                o o o 6 D z.Z.I.G.A.A.A.A.A.A.A.A.A.A.A.A.A.A.A.A.A.A.A.A.A.A.A.A.A.A.A.A.A.A.A.A.A.A.A.A.A.A.A.A.A.A.A.A.A.A.A.A.A.A.A.A.A.A.A.A.A.A.A.A.A.A.A.A.A.A.A.A.A.A.A.A.A.D.J.C.l.Z ; o f _ ].wXtXtXtXtXtXtXtXtXtXtXtXtXtXtXtXtXtXtXtXtXtXtXtXtXtXtXtXtXtXtX8X]._ h # o d g.B.G.D.A.A.A.A.A.A.A.A.A.A.Z.G.I.x.s o o                                                             o o o e B @.#.@.n $ # c +.#.+.+.+.$...y o 4 B #.+.+.+.$.] w o o                                                                                                                                                                                                                                                                                                                                                                           ",
"h.                                                                                                                                                                                                                                                                                                                            & o o ; d f.N.J.G.D.A.A.A.A.A.A.A.A.A.A.A.A.A.A.A.A.A.A.A.A.A.A.A.A.A.A.A.A.A.A.A.A.A.A.A.A.A.A.A.A.A.A.A.A.A.A.A.A.A.A.A.A.A.A.A.A.A.A.A.A.A.A.A.A.A.A.A.A.A.A.A.A.A.D.K.N.L u o 9 ( '.wXtXtXtXtXtXtXtXtXtXtXtXtXtXtXtXtXtXtXtXtXtXtXtXtXtXtXtXtXtXtXtXtXtXtXeX].) 0 o 6 G v.G.G.A.A.A.A.A.A.A.A.A.A.A.G.G.k.p o o                                                         , o 1 5 $ w m @.] e o e ] $.+.+.+.@.#.b $ # c +.@.+.+.#.+.x # o &                                                                                                                                                                                                                                                                                                                                                                           ",
"h.                                                                                                                                                                                                                                                                                                                          o o o u H b.D.J.D.A.A.A.A.A.A.A.A.A.A.A.A.A.A.A.A.A.A.A.A.A.A.A.A.A.A.A.A.A.A.A.A.A.A.A.A.A.A.A.A.A.A.A.A.A.A.A.A.A.A.A.A.A.A.A.A.A.A.A.A.A.A.A.A.A.A.A.A.A.A.A.A.A.A.G.K.b.D % o l ~.7XtXtXtXtXtXtXtXtXtXtXtXtXtXtXtXtXtXtXtXtXtXtXtXtXtXtXtXtXtXtXtXtXtXtXtXtXtXtXwX`.I = o C l.A.G.A.A.A.A.A.A.A.A.A.A.A.G.C.f.8 o o                                                       o o N :.t o w b x # - n #.@.+.+.+.$.] w o e ] #.+.+.+.$.V 4 o o                                                                                                                                                                                                                                                                                                                                                                             ",
"h.                                                                                                                                                                                                                                                                                                                      & o o : Z k.V.J.D.A.A.A.A.A.A.A.A.A.A.A.A.A.A.A.A.A.A.A.A.A.A.A.A.A.A.A.A.A.A.A.A.A.A.A.A.A.A.A.A.A.A.A.A.A.A.A.A.A.A.A.A.A.A.A.A.A.A.A.A.A.A.A.A.A.A.A.A.A.A.A.A.A.A.A.G.J.c.C o = ^ :XtXtXtXtXtXtXtXtXtXtXtXtXtXtXtXtXtXtXtXtXtXtXtXtXtXtXtXtXtXtXtXtXtXtXtXtXtXtXtXtXtXtX2X` 0 o p g.Z.J.A.A.A.A.A.A.A.A.A.A.A.G.B.K 6 o o                                                   & o 9 ^.$Xt.h o - - o z O.$.+.+.+.#.+.x o - n #.@.+.+.$.+.z o o ,                                                                                                                                                                                                                                                                                                                                                                             ",
"h.                                                                                                                                                                                                                                                                                                                    o o o u J n.G.G.A.A.A.A.A.A.A.A.A.A.A.A.A.A.A.A.A.A.A.A.A.A.A.A.A.A.A.A.A.A.A.A.A.A.A.A.A.A.A.A.A.A.A.A.A.A.A.A.A.A.A.A.A.A.A.A.A.A.A.A.A.A.A.A.A.A.A.A.A.A.A.A.A.A.A.A.G.J.x.d o 1 ` 7XtXtXtXtXtXtXtXtXtXtXtXtXtXtXtXtXtXtXtXtXtXtXtXtXtXtXtXtXtXtXtXtXtXtXtXtXtXtXtXtXtXtXtXtXwX/.g o 8 f.G.I.A.A.A.A.A.A.A.A.A.A.A.G.N.F % o ,                                                 o o U @X3X#X^.j o o - n $.$.+.+.@.$.m 3 o z O.#.+.+.@.$.B 3 o o                                                                                                                                                                                                                                                                                                                                                                               ",
"h.                                                                                                                                                                                                                                                                                                                , o o o C l.D.Y.I.I.I.G.A.A.A.A.A.A.A.A.A.A.A.A.A.A.A.A.A.A.A.A.A.A.A.A.A.A.A.A.A.A.A.A.A.A.A.A.A.A.A.A.A.A.A.A.A.A.A.A.A.A.A.A.A.A.A.A.A.A.A.A.A.A.A.A.A.A.A.A.A.A.A.A.A.D.J.x.s o 0 ~.rXtXtXtXtXtXtXtXtXtXtXtXtXtXtXtXtXtXtXtXtXtXtXtXtXtXtXtXtXtXtXtXtXtXtXtXtXtXtXtXtXtXtXtXtXtXtXtX'.l o 6 f.J.K.A.A.A.A.A.A.A.A.A.A.A.J.n.Z o o 1                                             o o 0 (.3X$X&X*X(.M o o e B #.$.@.#...r o 4 V $.+.+.+.$.O.y o o ,                                                                                                                                                                                                                                                                                                                                                                               ",
"h.                                                                                                                                                                                                                                                                                                              & o o 6 H N.E.Y.Z.B.M.B.D.I.G.Z.A.A.A.A.A.A.A.A.A.A.A.A.A.A.A.A.A.A.A.A.A.A.A.A.A.A.A.A.A.A.A.A.A.A.A.A.A.A.A.A.A.A.A.A.A.A.A.A.A.A.A.A.A.A.A.A.A.A.A.A.A.A.A.A.A.A.A.A.A.A.J.v.d o 0 /.tXtXtXtXtXtXtXtXtXtXtXtXtXtXtXtXtXtXtXtXtXtXtXtXtXtXtXtXtXtXtXtXtXtXtXtXtXtXtXtXtXtXtXtXtXtXtXtXtXtX;XA o 7 j.I.J.Z.A.A.A.A.A.A.A.A.A.D.I.x.p o o                                             o o Q $X=X$X$X&X-X.XQ 1 o 3 c ..$.@.b $ $ b $.#.+.+.@.#.n - o o                                                                                                                                                                                                                                                                                                                                                                                 ",
"h.                                                                                                                                                                                                                                                                                                            o % o s l.J.G.n.g.G Z C Z H v.J.G.A.A.A.A.A.A.A.A.A.A.A.A.A.A.A.A.A.A.A.A.A.A.A.A.A.A.A.A.A.A.A.A.A.A.A.A.A.A.A.A.A.A.A.A.A.A.A.A.A.A.A.A.A.A.A.A.A.A.A.A.A.A.A.A.A.A.A.A.A.K.m.S o 0 ~.tXtXtXtXtXtXtXtXtXtXtXtXtXtXtXtXtXtXtXtXtXtXtXtXtXtXtXtXtXtXtXtXtXtXtXtXtXtXtXtXtXtXtXtXtXtXtXtXtXtXtXtX;Xk o u x.I.G.A.A.A.A.A.A.A.A.A.A.J.J.g.6 o o                                         o o h  X-X$X$X$X$X$X3X#X>.t o o y V V w o r ..$.+.+.+.#...r o o ,                                                                                                                                                                                                                                                                                                                                                                                 ",
"h.                                                                                                                                                                                                                                                                                                        , o o : F c.m.f.S p : o o o o o s x.G.G.A.A.A.A.A.A.A.A.A.A.A.A.A.A.A.A.A.A.A.A.A.A.A.A.A.A.A.A.A.A.A.A.A.A.A.A.A.A.A.A.A.A.A.A.A.A.A.A.A.A.A.A.A.A.A.A.A.A.A.A.A.A.A.A.A.A.A.J.B.G o 9 !.rXtXtXtXtXtXtXtXtXtXtXtXtXtXtXtXtXtXtXtXtXtXtXtXtXtXtXtXtXtXtXtXtXtXtXtXtXtXtXtXtXtXtXtXtXtXtXtXtXtXtXtXtXtX'.f o d b.J.D.A.A.A.A.A.A.A.A.A.A.I.Z.H % o ,                                     1 o = :.$X&X$X$X$X$X$X$X-X*X(.N = o 4 w # 3 m $.@.+.+.@.+.b - o o                                                                                                                                                                                                                                                                                                                                                                                   ",
"h.                                                                                                                                                                                                                                                                                                      & o % p J k.J p % o o o o o o o o o S M.J.D.A.A.A.A.A.A.A.A.A.A.A.A.A.A.A.A.A.A.A.A.A.A.A.A.A.A.A.A.A.A.A.A.A.A.A.A.A.A.A.A.A.A.A.A.A.A.A.A.A.A.A.A.A.A.A.A.A.A.A.A.A.A.A.A.A.G.G.d.: - _ 8XtXtXtXtXtXtXtXtXtXtXtXtXtXtXtXtXtXtXtXtXtXtXtXtXtXtXtXtXtXtXtXtXtXtXtXtXtXtXtXtXtXtXtXtXtXtXtXtXtXtXtXtXtXtXtX/.9 o F N.J.A.A.A.A.A.A.A.A.A.A.D.Y.M.S o o                                     o o j  X=X$X$X$X$X$X$X$X$X*X-XOX:.h o o o r ] $.@.+.+.@.] e o o 1                                                                                                                                                                                                                                                                                                                                                                                   ",
"h.                                                                                                                                                                                                                                                                                                    o o ; d J G p o o o o o o o o o o o o 6 k.G.D.A.A.A.A.A.A.A.A.A.A.A.A.A.A.A.A.A.A.A.A.A.A.A.A.A.A.A.A.A.A.A.A.A.A.A.A.A.A.A.A.A.A.A.A.A.A.A.A.A.A.A.A.A.A.A.A.A.A.A.A.A.A.A.A.D.I.c.a o Y 2XtXtXtXtXtXtXtXtXtXtXtXtXtXtXtXtXtXtXtXtXtXtXtXtXtXtXtXtXtXtXtXtXtXtXtXtXtXtXtXtXtXtXtXtXtXtXtXtXtXtXtXtXtXtXtXtXeX` $ : d.D.G.A.A.A.A.A.A.A.A.A.A.G.I.x.a o o                                 , o 5 >.$X$X$X$X$X$X$X$X$X$X$X$X*X#X(.U 5 o - y m O.#.#.+.c - o &                                                                                                                                                                                                                                                                                                                                                                                     ",
"h.                                                                                                                                                                                                                                                                                                  o o 6 Z F s ; o o o o o o o o o o o o o % i.A.G.A.A.A.A.A.A.A.A.A.A.A.A.A.A.A.A.A.A.A.A.A.A.A.A.A.A.A.A.A.A.A.A.A.A.A.A.A.A.A.A.A.A.A.A.A.A.A.A.A.A.A.A.A.A.A.A.A.A.A.A.A.A.A.A.I.V.F o f '.tXtXtXtXtXtXtXtXtXtXtXtXtXtXtXtXtXtXtXtXtXtXtXtXtXtXtXtXtXtXtXtXtXtXtXtXtXtXtXtXtXtXtXtXtXtXtXtXtXtXtXtXtXtXtXtXtXtX4XY o s c.G.A.A.A.A.A.A.A.A.A.A.A.G.G.d.6 o &                               o # M .X&X$X$X$X$X$X$X$X$X$X$X$X$X$X&XOXt.M 1 o - y m O.V w o o                                                                                                                                                                                                                                                                                                                                                                                       ",
"h.                                                                                                                                                                                                                                                                                              1 o o 8 D Z 6 o o o o o o o o o o o o o o o o L Z.G.A.A.A.A.A.A.A.A.A.A.A.A.A.A.A.A.A.A.A.A.A.A.A.A.A.A.A.A.A.A.A.A.A.A.A.A.A.A.A.A.A.A.A.A.A.A.A.A.A.A.A.A.A.A.A.A.A.A.A.A.A.A.A.G.I.j.6 $ Q.eXtXtXtXtXtXtXtXtXtXtXtXtXtXtXtXtXtXtXtXtXtXeX8X8XwXrXtXtXtXtXtXtXtXtXtXtXtXtXtXtXtXtXtXtXtXtXtXtXtXtXtXtXtXtXtXtXtXtXtX'.q o H V.G.A.A.A.A.A.A.A.A.A.A.A.J.B.F o o 1                           , o 9 t.$X$X$X$X$X$X$X$X$X$X$X$X$X$X$X$X&X$X.X>.j $ o - y y $ o &                                                                                                                                                                                                                                                                                                                                                                                       ",
"h.                                                                                                                                                                                                                                                                                            & o o p F d % o o o o o o o o o o o o o o o o : j.G.D.A.A.A.A.A.A.A.D.D.G.G.J.G.G.G.G.D.D.D.A.A.A.A.A.A.A.A.A.A.A.A.A.A.A.A.A.A.A.A.A.A.A.A.A.A.A.A.A.A.A.A.A.A.A.A.A.A.A.A.A.A.A.A.I.N.Z o P 2XtXtXtXtXtXtXtXtXtXtXtXtXtXtXtXtXtXrX4X'.~.` ( Y Y E ` ~.'.1XwXtXtXtXtXtXtXtXtXtXtXtXtXtXtXtXtXtXtXtXtXtXtXtXtXtXtXtXtXtXeX` # 8 z.J.A.A.A.A.A.A.A.A.A.A.A.A.K.v.d o o                           o o N OX$X$X$X$X$X$X$X$X$X$X$X$X$X$X$X$X$X$X*X$X X:.h $ o o o o                                                                                                                                                                                                                                                                                                                                                                                         ",
"h.                                                                                                                                                                                                                                                                                          & o o d H s o o o o o o o o o o o o o o o o o o D N.J.A.A.A.A.D.G.I.Y.Y.Y.I.J.G.J.K.I.I.Y.Y.Y.Y.I.J.G.D.A.A.A.A.A.A.A.A.A.A.A.A.A.A.A.A.A.A.A.A.A.A.A.A.A.A.A.A.A.A.A.A.A.A.A.A.A.A.G.I.j.; $ ~.tXtXtXtXtXtXtXtXtXtXtXtXtXtXtXtXwX'._ l 0 = o o o o o o = 9 k E ~.2XtXtXtXtXtXtXtXtXtXtXtXtXtXtXtXtXtXtXtXtXtXtXtXtXtXtXtXtX1Xk o F B.G.A.A.A.A.A.A.A.A.A.A.A.D.G.f.7 o &                       & o 0 y.*X$X$X$X$X$X$X$X$X$X$X$X$X$X$X$X$X$X$X$X$X-X&X.X! 9 o o &                                                                                                                                                                                                                                                                                                                                                                                         ",
"h.                                                                                                                                                                                                                                                                                        & % o C i.d o o o o o o o o o o o o o o o o o ; S n.K.D.A.G.I.Y.Y.G.V.M.v.l.f.K H K i.s.f.j.z.c.n.N.Z.K.Y.I.J.D.A.A.A.A.A.A.A.A.A.A.A.A.A.A.A.A.A.A.A.A.A.A.A.A.A.A.A.A.A.A.A.A.A.A.A.K.B.S o P 7XtXtXtXtXtXtXtXtXtXtXtXtXtXtXrX'.T 9 o o o o o o o o o o o o o o % k Q.2XtXtXtXtXtXtXtXtXtXtXtXtXtXtXtXtXtXtXtXtXtXtXtXtXtXtXtXQ.= 8 z.K.A.A.A.A.A.A.A.A.A.A.A.A.G.B.F % o                       o o W +X*X$X$X$X$X$X$X$X$X$X$X$X$X$X$X$X$X$X$X$X$X$X*X3X(.t o o                                                                                                                                                                                                                                                                                                                                                                                           ",
"h.                                                                                                                                                                                                                                                                                      & % % Z g.Z o o o o o o o o o o o o o o o o 8 S f.N.I.G.K.I.D.N.c.g.J D d u : o o o o o o o ; 6 8 a Z F L l.n.V.K.I.G.A.A.A.A.A.A.A.A.A.A.A.A.A.A.A.A.A.A.A.A.A.A.A.A.A.A.A.A.A.A.A.A.D.J.z.6 $ !.tXtXtXtXtXtXtXtXtXtXtXtXtXtX4X` 0 o o o o o o o o o o o o o o o o o o o l /.wXtXtXtXtXtXtXtXtXtXtXtXtXtXtXtXtXtXtXtXtXtXtXtXtXtX1Xk o G C.G.A.A.A.A.A.A.A.A.A.A.A.A.K.c.s o o                   o o t (.-X$X$X$X$X$X$X$X$X$X$X$X$X$X$X$X$X$X$X$X$X$X$X=X@XW # o &                                                                                                                                                                                                                                                                                                                                                                                           ",
"h.                                                                                                                                                                                                                                                                                    & ; ; S z.G o o o o o o o o o o o o o o 7 Z L x.B.K.Y.I.C.n.k.H Z u ; o o o $ 9 f g k l l k h q 9 - # o o o 6 s F d.v.V.J.G.A.A.A.A.A.A.A.A.A.A.A.A.A.A.A.A.A.A.A.A.A.A.A.A.A.A.A.A.A.A.G.Z.H o g 1XtXtXtXtXtXtXtXtXtXtXtXtXtX:XY o o o o o o o o o o o o o o o o o o o o o o 9 _ 4XtXtXtXtXtXtXtXtXtXtXtXtXtXtXtXtXtXtXtXtXtXtXtXtXrX` $ p v.I.A.A.A.A.A.A.A.A.A.A.A.A.D.D.d.6 o &                 o o Q #X*X$X$X$X$X$X$X$X$X$X$X$X$X$X$X$X$X$X$X$X$X$X$X-Xy.9 o o                                                                                                                                                                                                                                                                                                                                                                                             ",
"h.                                                                                                                                                                                                                                                                                  & ; : D v.d.: o o o o o o o o o o o % p G k.M.D.I.Y.J.M.l.H d 6 o o - t A ( Q./.'.:X2X2X2X2X1X:X;X'.).!._ T k 9 # o ; p F k.N.G.G.D.A.A.A.A.A.A.A.A.A.A.A.A.A.A.A.A.A.A.A.A.A.A.A.A.A.A.D.J.m.d o ) rXtXtXtXtXtXtXtXtXtXtXtXtX;XI o o o o o o o o o o o o o o o o o o o o o o o o = ( 2XtXtXtXtXtXtXtXtXtXtXtXtXtXtXtXtXtXtXtXtXtXtXtXtX].f ; s.K.D.A.A.A.A.A.A.A.A.A.A.A.A.J.N.D o o               o o h  X-X$X$X$X$X$X$X$X$X$X$X$X$X$X$X$X$X$X$X$X$X$X$X-XOXN o o ,                                                                                                                                                                                                                                                                                                                                                                                             ",
"h.                                                                                                                                                                                                                                                                                & ; ; D b.v.d o o o o o o o o o o o u G x.V.J.I.I.D.n.d.Z 6 o $ 0 A ) ~.].4XwXtXtXtXtXtXtXtXtXtXtXtXtXtXtXrX7X1X`.Q.Y f $ o 6 S g.N.G.G.D.A.A.A.A.A.A.A.A.A.A.A.A.A.A.A.A.A.A.A.A.A.A.A.A.D.G.z.6 < ).tXtXtXtXtXtXtXtXtXtXtXtX1XY o o o o o o o o o o o o o o o o o o o o o o o o o o o ) 4XtXtXtXtXtXtXtXtXtXtXtXtXtXtXtXtXtXtXtXtXtXtXtX7XE o S B.I.A.A.A.A.A.A.A.A.A.A.A.A.D.J.z.i o o           , o = :.$X*X$X$X$X$X$X$X$X$X$X$X$X$X$X$X$X$X$X$X$X$X$X&X*Xt.1 o o                                                                                                                                                                                                                                                                                                                                                                                               ",
"h.                                                                                                                                                                                                                                                                              & ; % S b.G.s.: o o o o o o o o o o C k.V.J.J.I.G.n.i.d ; o 1 l _ `.2XwXtXtXtXtXtXtXtXtXtXtXtXtXtXtXtXtXtXtXtXtXtXtXtX7X].Q.P 1 o : S l.V.J.G.A.A.A.A.A.A.A.A.A.A.A.A.A.A.A.A.A.A.A.A.A.A.A.D.A.i.o g 1XtXtXtXtXtXtXtXtXtXtXtX8X_ = o o o o o o o o o o o o o o o o o o o o o o o o o o o < Q.rXtXtXtXtXtXtXtXtXtXtXtXtXtXtXtXtXtXtXtXtXtXtXtX!.- u c.Y.A.A.A.A.A.A.A.A.A.A.A.A.A.J.Z.J % o ,         o o j .X-X$X$X$X$X$X$X$X$X$X$X$X$X$X$X$X$X$X$X$X$X$X$X-X.XM o o ,                                                                                                                                                                                                                                                                                                                                                                                               ",
"h.                                                                                                                                                                                                                                                                            & ; o Z b.I.B.D o o o o o o o o o o D b.J.G.J.K.N.g.C % o 0 T /.1XeXtXtXtXtXtXtXtXtXtXtXtXtXtXtXtXtXtXtXtXtXtXtXtXtXtXtXtXtXtX2X~.I < o 7 H b.J.J.A.A.A.A.A.A.A.A.A.A.A.A.A.A.A.A.A.A.A.A.A.A.G.B.F o T wXtXtXtXtXtXtXtXtXtXtXtX`.q o o o o o o o o o o o o o o o o o o o o o o o o o o o o o f ].tXtXtXtXtXtXtXtXtXtXtXtXtXtXtXtXtXtXtXtXtXtXtX;Xf % d.I.G.A.A.A.A.A.A.A.A.A.A.A.A.D.I.n.d o o       & o < >.*X&X$X$X$X$X$X$X$X$X$X$X$X$X$X$X$X$X$X$X$X$X$X*X&X:.< o &                                                                                                                                                                                                                                                                                                                                                                                                 ",
"h.                                                                                                                                                                                                                                                                          & o o C b.I.G.M.C o o o o o o o o o S n.K.D.I.J.c.F : o 9 E `.7XtXtXtXtXtXtXtXtXtXtXtXtXtXtXtXtXtXtXtXtXtXtXtXtXtXtXtXtXtXtXtXtXtXtX4X~.l o o d j.A.I.D.A.A.A.A.A.A.A.A.A.A.A.A.A.A.A.A.A.A.A.A.G.m.d o ` tXtXtXtXtXtXtXtXtXtXtX8X^ o o o o o o o o o o o o o o o o o o o o o o o o o o o o o o o E wXtXtXtXtXtXtXtXtXtXtXtXtXtXtXtXtXtXtXtXtXtXtX7XY o F C.J.A.A.A.A.A.A.A.A.A.A.A.A.A.G.J.f.: o ,     o o M OX-X$X$X$X$X$X$X$X$X$X$X$X$X$X$X$X$X$X$X$X$X$X$X-X Xj o o                                                                                                                                                                                                                                                                                                                                                                                                   ",
"h.                                                                                                                                                                                                                                                                        1 o o s c.I.G.D.M.Z o o o o o o o o d c.J.D.I.Z.f.p o $ P ).8XtXtXtXtXtXtXtXtXtXtXtXtXtXtXtXtXtXtXtXtXtXtXtXtXtXtXtXtXtXtXtXtXtXtXtXtXtXtX1X_ 0 o 7 K V.Y.D.Z.A.A.A.A.A.A.A.A.A.A.A.A.A.A.A.A.A.A.G.x.u 1 /.tXtXtXtXtXtXtXtXtXtXtX'.q o o o o o o o o o o o o o o o o o o o o o o o o o o o o o o o 1 `.tXtXtXtXtXtXtXtXtXtXtXtXtXtXtXtXtXtXtXtXtXtXtX` o d M.Y.A.A.A.A.A.A.A.A.A.A.A.A.A.A.I.B.S o o   , o 5 y.-X$X$X$X$X$X$X$X$X$X$X$X$X$X$X$X$X$X$X$X$X$X$X*X$X! $ o &                                                                                                                                                                                                                                                                                                                                                                                                   ",
"h.                                                                                                                                                                                                                                                                        o o i z.Y.G.Z.D.C.J o o o o o o o a z.G.G.Y.N.H ; o q Q.4XtXtXtXtXtXtXtXtXtXtXtXtXtXtXtXtXtXtXtXtXtXtXtXtXtXtXtXtXtXtXtXtXtXtXtXtXtXtXtXtXtXeX).l o o G M.Y.D.A.A.A.A.A.A.A.A.A.A.A.A.A.A.A.A.A.D.G.k.: 0 ].tXtXtXtXtXtXtXtXtXtXtX` o o o o o o o o o o o o o o o o o o o o o o o o o o o o o o o o o ( rXtXtXtXtXtXtXtXtXtXtXtXtXtXtXtXtXtXtXtXtXtXtX/.- 7 x.Y.D.A.A.A.A.A.A.A.A.A.A.A.A.A.D.Y.z.7 o o o o U +X=X$X$X$X$X$X$X$X$X$X$X$X$X$X$X$X$X$X$X$X$X$X$X=X(.h o o                                                                                                                                                                                                                                                                                                                                                                                                     ",
"h.                                                                                                                                                                                                                                                                      o o 8 g.I.J.Z.A.A.G.c.d o o o o o s l.G.J.I.n.D o o P '.tXtXtXtXtXtXtXtXtXtXtXtXtXtXtXtXtXtXtXtXtXtXtXtXtXtXtXtXtXtXtXtXtXtXtXtXtXtXtXtXtXtXtXtXtX:XT # o S m.I.G.A.A.A.A.A.A.A.A.A.A.A.A.A.A.A.A.D.D.d.% g 1XtXtXtXtXtXtXtXtXtXtX7XP o o o o o o o o o o o o o o o o o o o o o o o o o o o o o o o o o f :XtXtXtXtXtXtXtXtXtXtXtXtXtXtXtXtXtXtXtXtXtXtX].0 % j.I.G.A.A.A.A.A.A.A.A.A.A.A.A.A.Z.I.Z.F o o o t ^.=X$X$X$X$X$X$X$X$X$X$X$X$X$X$X$X$X$X$X$X$X$X$X$X@XQ # o ,                                                                                                                                                                                                                                                                                                                                                                                                     ",
"h.                                                                                                                                                                                                                                                                    o o 6 L Z.J.Z.A.A.A.D.D.x.D u 7 a G c.G.J.J.v.Z o = ) 2XtXtXtXtXtXtXtXtXtXtXtXtXtXtXtXtXtXtXtXtXtXtXtXtXtXtXtXtXtXtXtXtXtXtXtXtXtXtXtXtXtXtXtXtXtXtXtX7X_ - o S n.J.D.A.A.A.A.A.A.A.A.A.A.A.A.A.A.A.D.D.L o A 4XtXtXtXtXtXtXtXtXtXtX;Xq o o o o o o o o o o o o o o o o o o o o o o o o o o o o o o o o o = ~.tXtXtXtXtXtXtXtXtXtXtXtXtXtXtXtXtXtXtXtXtXtX2Xk o L J.G.A.A.A.A.A.A.A.A.A.A.A.A.A.A.A.Y.c.u o # W @X&X$X$X$X$X$X$X$X$X$X$X$X$X$X$X$X$X$X$X$X$X$X$X&X^.t o o                                                                                                                                                                                                                                                                                                                                                                                                       ",
"h.                                                                                                                                                                                                                                                                  & o ; G N.J.A.A.A.A.A.A.G.J.N.c.z.b.V.J.J.G.v.Z o 5 ` 8XtXtXtXtXtXtXtXtXtXtXtXtXtXtXtXtXtXtXtXtXtXtXtXtXtXtXtXtXtXtXtXtXtXtXtXtXtXtXtXtXtXtXtXtXtXtXtXtXtXwX` 1 o D n.G.D.A.A.A.A.A.A.A.A.A.A.A.A.A.A.D.Z.H o I 7XtXtXtXtXtXtXtXtXtXtX).1 o o o o o o o o o o o o o o o o o o o o o o o o o o o o o o o o o o ) rXtXtXtXtXtXtXtXtXtXtXtXtXtXtXtXtXtXtXtXtXtX7XI o G D.J.A.A.A.A.A.A.A.A.A.A.A.A.A.A.A.J.C.S o = >.=X$X$X$X$X$X$X$X$X$X$X$X$X$X$X$X$X$X$X$X$X$X$X$XOXU # o &                                                                                                                                                                                                                                                                                                                                                                                                       ",
"h.                                                                                                                                                                                                                                                                  o o Z b.G.A.A.A.A.A.A.A.A.D.J.J.J.J.J.G.G.n.S o 9 Q.wXtXtXtXtXtXtXtXtXtXtXtXtXtXtXtXtXtXtXtXtXtXtXtXtXtXtXtXtXtXtXtXtXtXtXtXtXtXtXtXtXtXtXtXtXtXtXtXtXtXtXtXwX` 1 o G M.G.A.A.A.A.A.A.A.A.A.A.A.A.A.A.D.C.G o Y 8XtXtXtXtXtXtXtXtXtXtX!.% o o o o o o o o o o o o o o o o o o o o o o o o o o o o o o o o o o I 8XtXtXtXtXtXtXtXtXtXtXtXtXtXtXtXtXtXtXtXtXtXwXE o D C.K.A.A.A.A.A.A.A.A.A.A.A.A.A.A.A.D.K.g.7 # W +X$X$X$X$X$X$X$X$X$X$X$X$X$X$X$X$X$X$X$X$X$X$X&Xy.0 o o                                                                                                                                                                                                                                                                                                                                                                                                         ",
"h.                                                                                                                                                                                                                                                                o o p l.G.D.A.A.A.A.A.A.A.A.A.A.D.D.D.A.G.M.G o 1 Q.wXtXtXtXtXtXtXtXtXtXtXtXtXtXtXtXtXtXtXtXtXtXtXtXtXtXtXtXtXtXtXtXtXtXtXtXtXtXtXtXtXtXtXtXtXtXtXtXtXtXtXtXtXtX8X_ = : L V.G.A.A.A.A.A.A.A.A.A.A.A.A.A.D.C.G # T 8XtXtXtXtXtXtXtXtXtXtX` o o o o o o o o o o o o o o o o o o o o o o o o o o o o o o o o o o o k 2XtXtXtXtXtXtXtXtXtXtXtXtXtXtXtXtXtXtXtXtXtXeX) o S V.I.A.A.A.A.A.A.A.A.A.A.A.A.A.A.A.A.G.V.H % t ^.=X$X$X$X$X$X$X$X$X$X$X$X$X$X$X$X$X$X$X$X$X*XOXN # o ,                                                                                                                                                                                                                                                                                                                                                                                                         ",
"h.                                                                                                                                                                                                                                                              & o : i.Z.G.A.A.A.A.A.A.A.A.A.A.A.A.A.A.G.C.L : = _ 8XtXtXtXtXtXtXtXtXtXtXtXtXtXtXtXtXtXtXtXtXtXtXtXtXtXtXtXtXtXtXtXtXtXtXtXtXtXtXtXtXtXtXtXtXtXtXtXtXtXtXtXtXtXtXtX4XE o u k.J.D.A.A.A.A.A.A.A.A.A.A.A.A.D.C.G # T 8XtXtXtXtXtXtXtXtXtXtX) o o o o o o o o o o o o o o o o o o o o o o o o o o o o o o o o o o o q ;XtXtXtXtXtXtXtXtXtXtXtXtXtXtXtXtXtXtXtXtXtXrX_ o Z B.I.A.A.A.A.A.A.A.A.A.A.A.A.A.A.A.A.A.J.c.a # W @X*X$X$X$X$X$X$X$X$X$X$X$X$X$X$X$X$X$X$X$X*Xt.9 o o                                                                                                                                                                                                                                                                                                                                                                                                           ",
"h.                                                                                                                                                                                                                                                              o o D N.J.A.A.A.A.A.A.A.A.A.A.A.A.A.A.D.J.l.u o E 4XtXtXtXtXtXtXtXtXtXtXtXtXtXtXtXtXtXtXtXtXtXtXtXtXtXtXtXtXtXtXtXtXtXtXtXtXtXtXtXtXtXtXtXtXtXtXtXtXtXtXtXtXtXtXtXtXtX:Xl o C b.K.A.A.A.A.A.A.A.A.A.A.A.A.D.C.G o Y 8XtXtXtXtXtXtXtXtXtXrX) o o o o o o o o o o o o o o o o o o o o o o o o o o o o o o o o o o o 0 ].tXtXtXtXtXtXtXtXtXtXtXtXtXtXtXtXtXtXtXtXtXrX_ o Z B.I.A.A.A.A.A.A.A.A.A.A.A.A.A.A.A.A.A.D.C.J o t (.-X$X$X$X$X$X$X$X$X$X$X$X$X$X$X$X$X$X$X-X.XM o o ,                                                                                                                                                                                                                                                                                                                                                                                                           ",
"h.                                                                                                                                                                                                                                                            o o i c.I.D.A.A.A.A.A.A.A.A.A.A.A.A.A.A.I.m.C o l :XtXtXtXtXtXtXtXtXtXtXtXtXtXtXtXtXtXtXtXtXtXtXtXtXtXtXtXtXtXtXtXtXtXtXtXtXtXtXtXtXtXtXtXtXtXtXtXtXtXtXtXtXtXtXtXtXtXtXtX).0 o H A.J.A.A.A.A.A.A.A.A.A.A.A.D.Z.H o I 7XtXtXtXtXtXtXtXtXtXrX) o o o o o o o o o o o o o o o o o o o o o o o o o o o o o o o o o o o 9 ].tXtXtXtXtXtXtXtXtXtXtXtXtXtXtXtXtXtXtXtXtXrX_ o Z B.I.A.A.A.A.A.A.A.A.A.A.A.A.A.A.A.A.A.A.G.c.p o Q $X=X$X$X$X$X$X$X$X$X$X$X$X$X$X$X$X$X&X=X>.= o &                                                                                                                                                                                                                                                                                                                                                                                                             ",
"h.                                                                                                                                                                                                                                                          , o % i.K.J.A.A.A.A.A.A.A.A.A.A.A.A.A.A.J.G.J o 9 /.tXtXtXtXtXtXtXtXtXtXtXtXtXtXtXtXtXtXtXtXtXtXtXtXtXtXtXtXtXtXtXtXtXtXtXtXtXtXtXtXtXtXtXtXtXtXtXtXtXtXtXtXtXtXtXtXtXtXtXtXeX_ # 8 z.I.D.A.A.A.A.A.A.A.A.A.A.D.D.L o l 4XtXtXtXtXtXtXtXtXtXtX_ o o o o o o o o o o o o o o o o o o o o o o o o o o o o o o o o o o o 0 ].tXtXtXtXtXtXtXtXtXtXtXtXtXtXtXtXtXtXtXtXtXeX) o S B.I.A.A.A.A.A.A.A.A.A.A.A.A.A.A.A.A.A.A.G.C.H o t (.3X$X$X$X$X$X$X$X$X$X$X$X$X$X$X$X$X-X.Xh o o                                                                                                                                                                                                                                                                                                                                                                                                               ",
"h.                                                                                                                                                                                                                                                          o o Z N.I.A.A.A.A.A.A.A.A.A.A.A.A.A.A.D.I.x.u # ) wXtXtXtXtXtXtXtXtXtXtXtXtXtXtXtXtXtXtXtXtXtXtXtXtXtXtXtXtXtXtXtXtXtXtXtXtXtXtXtXtXtXtXtXtXtXtXtXtXtXtXtXtXtXtXtXtXtXtXtXtXtX:Xk o D V.I.A.A.A.A.A.A.A.A.A.A.D.D.f.% g 1XtXtXtXtXtXtXtXtXtXtXQ.o o o o o o o o o o o o o o o o o o o o o o o o o o o o o o o o o o o f :XtXtXtXtXtXtXtXtXtXtXtXtXtXtXtXtXtXtXtXtXtXwXT o F C.K.A.A.A.A.A.A.A.A.A.A.A.A.A.A.A.A.A.A.D.J.x.u o ! =X-X$X$X$X$X$X$X$X$X$X$X$X$X$X$X*X&X! o o &                                                                                                                                                                                                                                                                                                                                                                                                               ",
"h.                                                                                                                                                                                                                                                        & o 8 l.Y.G.A.A.A.A.A.A.A.A.A.A.A.A.A.A.I.C.F o g ;XtXtXtXtXtXtXtXtXtXtXtXtXtXtXtXtXtXtXtXtXtXtXtXtXtXtXtXtXtXtXtXtXtXtXtXtXtXtXtXtXtXtXtXtXtXtXtXtXtXtXtXtXtXtXtXtXtXtXtXtXtXtXtX!.= 6 k.I.D.A.A.A.A.A.A.A.A.A.D.G.k.6 0 ].tXtXtXtXtXtXtXtXtXtX).1 o o o o o o o o o o o o o o o o o o o o o o o o o o o o o o o o o o k 2XtXtXtXtXtXtXtXtXtXtXtXtXtXtXtXtXtXtXtXtXtX7XP o H D.J.A.A.A.A.A.A.A.A.A.A.A.A.A.A.A.A.A.A.A.J.V.G o h ^.#X$X=X*X$X$X$X$X$X$X$X$X$X$X$X-X(.t o o                                                                                                                                                                                                                                                                                                                                                                                                                 ",
"h.                                                                                                                                                                                                                                                        o o G C.I.A.A.A.A.A.A.A.A.A.A.A.A.A.A.D.I.l.7 $ Q.tXtXtXtXtXtXtXtXtXtXtXtXtXtXtXtXtXtXtXtXtXtXtXtXtXtXtXtXtXtXtXtXtXtXtXtXtXtXtXtXtXtXtXtXtXtXtXtXtXtXtXtXtXtXtXtXtXtXtXtXtXtXtXtX2XA o D B.I.A.A.A.A.A.A.A.A.A.A.G.c.u < /.tXtXtXtXtXtXtXtXtXtX;Xq o o o o o o o o o o o o o o o o o o o o o o o o o o o o o o o o o o Y 8XtXtXtXtXtXtXtXtXtXtXtXtXtXtXtXtXtXtXtXtXtX2Xg o i.J.G.A.A.A.A.A.A.A.A.A.A.A.A.A.A.A.A.A.A.A.D.J.z.7 o t U ! y.(.OX#X&X$X$X$X$X$X$X$X=X#XQ o o ,                                                                                                                                                                                                                                                                                                                                                                                                                 ",
"h.                                                                                                                                                                                                                                                      o o p c.Y.A.A.A.A.A.A.A.A.A.A.A.A.A.A.A.I.V.F o k 1XtXtXtXtXtXtXtXtXtXtXtXtXtXtXtXtXtXtXtXtXtXtXtXtXtXtXtXtXtXtXrXwX8X8X8XrXtXtXtXtXtXtXtXtXtXtXtXtXtXtXtXtXtXtXtXtXtXtXtXtXtXtXtXtXtX!.$ 7 z.I.D.A.A.A.A.A.A.A.A.A.G.m.d o ` tXtXtXtXtXtXtXtXtXtX7XP o o o o o o o o o o o o o o o o o o o o o o o o o o o o o o o o o o ` tXtXtXtXtXtXtXtXtXtXtXtXtXtXtXtXtXtXtXtXtXtX].0 ; j.I.D.A.A.A.A.A.A.A.A.A.A.A.A.A.A.A.A.A.A.A.A.J.V.H : o o = 5 h M ! y. X@X$X&X&X$X&X=X^.t o o                                                                                                                                                                                                                                                                                                                                                                                                                   ",
"h.                                                                                                                                                                                                                                                      o ; H Z.G.A.A.A.A.A.A.A.A.A.A.A.A.A.A.D.I.x.8 o Q.tXtXtXtXtXtXtXtXtXtXtXtXtXtXtXtXtXtXtXtXtXtXtXtXtXtXtX7X:X).!.` ) ( ^ ( ` ~.].2XeXtXtXtXtXtXtXtXtXtXtXtXtXtXtXtXtXtXtXtXtXtXtXtXtXtX1Xk o G Z.J.A.A.A.A.A.A.A.A.A.G.B.F o T wXtXtXtXtXtXtXtXtXtXtX` o o o o o o o o o o o o o o o o o o o o o o o o o o o o o o o o o 1 ).tXtXtXtXtXtXtXtXtXtXtXtXtXtXtXtXtXtXtXtXtXtX/.- 8 c.Y.D.A.A.A.A.A.A.A.A.A.A.A.A.A.A.A.A.A.A.A.A.D.G.N.j.J D d 8 ; o # 5 j W t. X@X&X3X@XU o o &                                                                                                                                                                                                                                                                                                                                                                                                                   ",
"h.                                                                                                                                                                                                                                                    o o a c.I.A.A.A.A.A.A.A.A.A.A.A.A.A.A.A.J.D.J o f :XtXtXtXtXtXtXtXtXtXtXtXtXtXtXtXtXtXtXtXtXtXtXtXtXtX2X~.E g 9 = o o o o o % 1 f P _ '.8XtXtXtXtXtXtXtXtXtXtXtXtXtXtXtXtXtXtXtXtXtXtXtXrX_ o p n.I.D.A.A.A.A.A.A.A.A.G.A.i.o g 1XtXtXtXtXtXtXtXtXtXtX'.0 o o o o o o o o o o o o o o o o o o o o o o o o o o o o o o o o k 4XtXtXtXtXtXtXtXtXtXtXtXtXtXtXtXtXtXtXtXtXtXrX` o d M.I.A.A.A.A.A.A.A.A.A.A.A.A.A.A.A.A.A.A.A.A.A.A.A.D.G.A.B.n.z.i.F d 7 o o 3 h W y..Xy.0 o o                                                                                                                                                                                                                                                                                                                                                                                                                     ",
"h.                                                                                                                                                                                                                                                    o ; H C.D.A.A.A.A.A.A.A.A.A.A.A.A.A.A.A.I.m.s o ) rXtXtXtXtXtXtXtXtXtXtXtXtXtXtXtXtXtXtXtXtXtXtXtX8X~.A < o o o o o o o o o o o o o o q E '.rXtXtXtXtXtXtXtXtXtXtXtXtXtXtXtXtXtXtXtXtXtXtX'.5 % g.J.G.A.A.A.A.A.A.A.A.D.G.z.6 < ).tXtXtXtXtXtXtXtXtXtX8XE o o o o o o o o o o o o o o o o o o o o o o o o o o o o o o o o ` tXtXtXtXtXtXtXtXtXtXtXtXtXtXtXtXtXtXtXtXtXtX7XI o F C.J.A.A.A.A.A.A.A.A.A.A.A.A.A.A.A.A.A.A.A.A.A.A.A.A.A.D.D.G.J.G.V.n.l.J C 7 o o 3 j j $ o ,                                                                                                                                                                                                                                                                                                                                                                                                                     ",
"h.                                                                                                                                                                                                                                                  & o p c.J.A.A.A.A.A.A.A.A.A.A.A.A.A.A.A.G.J.j.% < `.tXtXtXtXtXtXtXtXtXtXtXtXtXtXtXtXtXtXtXtXtXtXtX:XT < o o o o o o o o o o o o o o o o o o q ` 7XtXtXtXtXtXtXtXtXtXtXtXtXtXtXtXtXtXtXtXtXtX7XP o F C.J.A.A.A.A.A.A.A.A.D.J.M.d o ) tXtXtXtXtXtXtXtXtXtXtX`.0 o o o o o o o o o o o o o o o o o o o o o o o o o o o o o o g 1XtXtXtXtXtXtXtXtXtXtXtXtXtXtXtXtXtXtXtXtXtXtX].t % f.I.G.A.A.A.A.A.A.A.A.A.A.A.A.A.A.A.A.A.A.A.A.A.A.A.A.A.A.A.A.A.D.G.K.I.G.N.z.J C : o o o o & 1                                                                                                                                                                                                                                                                                                                                                                                                                   ",
"h.                                                                                                                                                                                                                                                  o % G C.D.A.A.A.A.A.A.A.A.A.A.A.A.A.A.A.J.C.G o l 4XtXtXtXtXtXtXtXtXtXtXtXtXtXtXtXtXtXtXtXtXtXtX'.k o o o o o o o o o o o o o o o o o o o o o o T 1XtXtXtXtXtXtXtXtXtXtXtXtXtXtXtXtXtXtXtXtXtX` o a m.I.A.A.A.A.A.A.A.A.A.G.A.H o g 2XtXtXtXtXtXtXtXtXtXtXwX_ o o o o o o o o o o o o o o o o o o o o o o o o o o o o o = !.tXtXtXtXtXtXtXtXtXtXtXtXtXtXtXtXtXtXtXtXtXtXtX!.$ i v.Y.A.A.A.A.A.A.A.A.A.A.A.A.A.A.A.A.A.A.A.A.A.A.A.A.A.A.A.A.A.A.A.A.A.A.G.I.Y.G.M.k.F i % o o o & 1                                                                                                                                                                                                                                                                                                                                                                                                               ",
"h.                                                                                                                                                                                                                                                , o u z.J.A.A.A.A.A.A.A.A.A.A.A.A.A.A.A.A.J.m.s o _ tXtXtXtXtXtXtXtXtXtXtXtXtXtXtXtXtXtXtXtXtXtX`.g o o o o o o o o o o o o o o o o o o o o o o o o I 1XtXtXtXtXtXtXtXtXtXtXtXtXtXtXtXtXtXtXtXtX`.< : l.J.D.A.A.A.A.A.A.A.A.D.J.z.: $ ~.tXtXtXtXtXtXtXtXtXtXtX2XT o o o o o o o o o o o o o o o o o o o o o o o o o o o o ( 8XtXtXtXtXtXtXtXtXtXtXtXtXtXtXtXtXtXtXtXtXtXtX7XY o D V.K.A.A.A.A.A.A.A.A.A.A.A.A.A.A.A.A.A.A.A.A.A.A.A.A.A.A.A.A.A.A.A.A.A.A.A.A.D.G.Y.I.Z.v.L d ; o o o & 1                                                                                                                                                                                                                                                                                                                                                                                                           ",
"h.                                                                                                                                                                                                                                                o o D B.G.A.A.A.A.A.A.A.A.A.A.A.A.A.A.A.D.G.z.6 < ).tXtXtXtXtXtXtXtXtXtXtXtXtXtXtXtXtXtXtXtXtX].k o o o o o o o o o o o o o o o o o o o o o o o o o o E 4XtXtXtXtXtXtXtXtXtXtXtXtXtXtXtXtXtXtXtX1Xg o i.D.G.A.A.A.A.A.A.A.A.A.I.B.S o I 7XtXtXtXtXtXtXtXtXtXtXtX:XY % o o o o o o o o o o o o o o o o o o o o o o o o = T 2XtXtXtXtXtXtXtXtXtXtXtXtXtXtXtXtXtXtXtXtXtXtXtX`.0 : f.I.D.A.A.A.A.A.A.A.A.A.A.A.A.A.A.A.A.A.A.A.A.A.A.A.A.A.A.A.A.A.A.A.A.A.A.A.A.A.A.A.D.I.Y.J.m.d.C : o o o ,                                                                                                                                                                                                                                                                                                                                                                                                         ",
"h.                                                                                                                                                                                                                                              , o 6 g.G.D.A.A.A.A.A.A.A.A.A.A.A.A.A.A.A.G.D.s.o f 1XtXtXtXtXtXtXtXtXtXtXtXtXtXtXtXtXtXtXtXtX2XY o o o o o o o o o o o o o o o o o o o o o o o o o o o = ` wXtXtXtXtXtXtXtXtXtXtXtXtXtXtXtXtXtXtX8XY o F V.G.A.A.A.A.A.A.A.A.A.G.J.f.% < ).tXtXtXtXtXtXtXtXtXtXtXtX1X( 1 o o o o o o o o o o o o o o o o o o o o o o 1 ( 1XtXtXtXtXtXtXtXtXtXtXtXtXtXtXtXtXtXtXtXtXtXtXtXwX) # d n.I.A.A.A.A.A.A.A.A.A.A.A.A.A.A.A.A.A.A.A.A.A.A.A.A.A.A.A.A.A.A.A.A.A.A.A.A.A.A.A.A.A.A.D.J.I.J.m.d.C : o o o                                                                                                                                                                                                                                                                                                                                                                                                       ",
"h.                                                                                                                                                                                                                                              o o C n.J.A.A.A.A.A.A.A.A.A.A.A.A.A.A.A.A.G.C.G o I 8XtXtXtXtXtXtXtXtXtXtXtXtXtXtXtXtXtXtXtXeXQ.< o o o o o o o o o o o o o o o o o o o o o o o o o o o o q '.tXtXtXtXtXtXtXtXtXtXtXtXtXtXtXtXtXtXtX_ o Z M.J.A.A.A.A.A.A.A.A.A.A.I.M.C o Y 7XtXtXtXtXtXtXtXtXtXtXtXtX7X!.g % o o o o o o o o o o o o o o o o o o o g Q.4XtXtXtXtXtXtXtXtXtXtXtXtXtXtXtXtXtXtXtXtXtXtXtXtX].f % K D.G.A.A.A.A.A.A.A.A.A.A.A.A.A.A.A.A.A.A.A.A.A.A.A.A.A.A.A.A.A.A.A.A.A.A.A.A.A.A.A.A.A.A.A.A.A.G.J.D.n.i.d ; o o ,                                                                                                                                                                                                                                                                                                                                                                                                   ",
"h.                                                                                                                                                                                                                                              o % J Z.G.A.A.A.A.A.A.A.A.A.A.A.A.A.A.A.A.G.N.S o ) rXtXtXtXtXtXtXtXtXtXtXtXtXtXtXtXtXtXtXtX:Xk o o o o o o o o o o o o o o o o o o o o o o o o o o o o o o ^ 8XtXtXtXtXtXtXtXtXtXtXtXtXtXtXtXtXtXtX!.# a b.J.D.A.A.A.A.A.A.A.A.A.G.J.f.; < ~.tXtXtXtXtXtXtXtXtXtXtXtXtXrX;X_ g < o o o o o o o o o o o o o o o f ) ].eXtXtXtXtXtXtXtXtXtXtXtXtXtXtXtXtXtXtXtXtXtXtXtXtXwX) $ a c.J.A.A.A.A.A.A.A.A.A.A.A.A.A.A.A.A.A.A.A.A.A.A.A.A.A.A.A.A.A.A.A.A.A.A.A.A.A.A.A.A.A.A.A.A.A.A.A.D.G.G.Z.c.H 8 o o o                                                                                                                                                                                                                                                                                                                                                                                                 ",
"h.                                                                                                                                                                                                                                            & o 8 z.J.D.A.A.A.A.A.A.A.A.A.A.A.A.A.A.A.A.G.n.s # Q.tXtXtXtXtXtXtXtXtXtXtXtXtXtXtXtXtXtXtXtXQ.= o o o o o o o o o o o o o o o o o o o o o o o o o o o o o o 9 '.tXtXtXtXtXtXtXtXtXtXtXtXtXtXtXtXtXtX/.< 8 c.G.D.A.A.A.A.A.A.A.A.A.A.I.N.S o l :XtXtXtXtXtXtXtXtXtXtXtXtXtXtXeX;X!.T g 9 = o o o o o o % 1 q I Q.].wXtXtXtXtXtXtXtXtXtXtXtXtXtXtXtXtXtXtXtXtXtXtXtXtXtXtX'.t % J C.D.A.A.A.A.A.A.A.A.A.A.A.A.A.A.A.A.A.A.A.A.A.A.A.A.A.A.A.A.A.A.A.A.A.A.A.A.A.A.A.A.A.A.A.A.A.A.A.A.A.D.G.J.V.j.C % o o                                                                                                                                                                                                                                                                                                                                                                                               ",
"h.                                                                                          , & o o o o &                                                                                                                                     o o Z N.K.A.A.A.A.A.A.A.A.A.A.A.A.A.A.A.A.A.G.c.u < /.tXtXtXtXtXtXtXtXtXtXtXtXtXtXtXtXtXtXtX4XA o o o o o o o o o o o o o o o o o o o o o o o o o o o o o o o o _ tXtXtXtXtXtXtXtXtXtXtXtXtXtXtXtXtXtX'.9 6 z.G.D.A.A.A.A.A.A.A.A.A.A.D.I.l.7 # ) 8XtXtXtXtXtXtXtXtXtXtXtXtXtXtXtXtX7X:X).Q.) ^ T T E ) ` /.].4XtXtXtXtXtXtXtXtXtXtXtXtXtXtXtXtXtXtXtXtXtXtXtXtXtXtXtXtX7XY o s v.G.A.A.A.A.A.A.A.A.A.A.A.A.A.A.A.A.A.A.A.A.A.A.A.A.A.A.A.A.A.A.A.A.A.A.A.A.A.A.A.A.A.A.A.A.A.A.A.A.A.A.A.A.A.G.J.n.G 6 o o ,                                                                                                                                                                                                                                                                                                                                                                                           ",
"h.                                                                                      & o o o o o o o o o o                                                                                                                                 o o L G.G.A.A.A.A.A.A.A.A.A.A.A.A.A.A.A.A.D.G.z.6 9 `.tXtXtXtXtXtXtXtXtXtXtXtXtXtXtXtXtXtXtX`.5 o o o o o o o o o o o o o o o o o o o o o o o o o o o o o o o o k 2XtXtXtXtXtXtXtXtXtXtXtXtXtXtXtXtXtX].0 ; k.G.D.A.A.A.A.A.A.A.A.A.A.A.J.D.J o 1 !.rXtXtXtXtXtXtXtXtXtXtXtXtXtXtXtXtXtXtXtXrXwX8X8XwXeXtXtXtXtXtXtXtXtXtXtXtXtXtXtXtXtXtXtXtXtXtXtXtXtXtXtXtXtXtXtXtXtXQ.= ; d.A.D.A.A.A.A.A.A.A.A.A.A.A.A.A.A.A.A.A.A.A.A.A.A.A.A.A.A.A.A.A.A.A.A.A.A.A.A.A.A.A.A.A.A.A.A.A.A.A.A.A.A.A.A.A.A.D.I.C.f.i o o &                                                                                                                                                                                                                                                                                                                                                                                         ",
"h.                                                                                  & o o o 7 d D G F C 8 o o o &                                                                                                                           & o 8 x.I.D.A.A.A.A.A.A.A.A.A.A.A.A.A.A.A.A.D.G.l.: 0 ].tXtXtXtXtXtXtXtXtXtXtXtXtXtXtXtXtXtXtX` o o o o o o o o o o o o o o o o o o o o o o o o o o o o o o o o o 5 `.tXtXtXtXtXtXtXtXtXtXtXtXtXtXtXtXtX;Xq ; j.G.D.A.A.A.A.A.A.A.A.A.A.A.Z.I.M.S o q ).tXtXtXtXtXtXtXtXtXtXtXtXtXtXtXtXtXtXtXtXtXtXtXtXtXtXtXtXtXtXtXtXtXtXtXtXtXtXtXtXtXtXtXtXtXtXtXtXtXtXtXtXtXtXtXtX'.0 o D N.G.A.A.A.A.A.A.A.A.A.A.A.A.A.A.A.A.A.A.A.A.A.A.A.A.A.A.A.A.A.A.A.A.A.A.A.A.A.A.A.A.A.A.A.A.A.A.A.A.A.A.A.A.A.A.A.A.Z.I.J.l.d o o &                                                                                                                                                                                                                                                                                                                                                                                       ",
"h.                                                                                o o o u G l.M.C.A.C.N.z.H u o o o                                                                                                                         o o Z N.I.A.A.A.A.A.A.A.A.A.A.A.A.A.A.A.A.A.D.D.k.; q ;XtXtXtXtXtXtXtXtXtXtXtXtXtXtXtXtXtXtXwXE o o o o o o o o o o o o o o o o o o o o o o o o o o o o o o o o o o Q.tXtXtXtXtXtXtXtXtXtXtXtXtXtXtXtXtX;Xq ; j.G.D.A.A.A.A.A.A.A.A.A.A.A.A.A.K.c.s o g '.tXtXtXtXtXtXtXtXtXtXtXtXtXtXtXtXtXtXtXtXtXtXtXtXtXtXtXtXtXtXtXtXtXtXtXtXtXtXtXtXtXtXtXtXtXtXtXtXtXtXtXtXtXtX:Xk o a v.I.D.A.A.A.A.A.A.A.A.A.A.A.A.A.A.A.A.A.A.A.A.A.A.A.A.A.A.A.A.A.A.A.A.A.A.A.A.A.A.A.A.A.A.A.A.A.A.A.A.A.A.A.A.A.A.A.A.A.Z.J.K.c.Z % o &                                                                                                                                                                                                                                                                                                                                                                                     ",
"h.                                                              & & o o o o o o o o : S z.C.I.Y.I.J.K.Y.I.Z.x.S ; o o                                                                                                                       o o K G.J.A.A.A.A.A.A.A.A.A.A.A.A.A.A.A.A.A.D.D.j.; t :XtXtXtXtXtXtXtXtXtXtXtXtXtXtXtXtXtXtX7Xl o o o o o o o o o o o o o o o o o o o o o o o o o o o o o o o o o o ) rXtXtXtXtXtXtXtXtXtXtXtXtXtXtXtXtX].0 ; k.G.D.A.A.A.A.A.A.A.A.A.A.A.A.A.G.J.l.p o k '.tXtXtXtXtXtXtXtXtXtXtXtXtXtXtXtXtXtXtXtXtXtXtXtXtXtXtXtXtXtXtXtXtXtXtXtXtXtXtXtXtXtXtXtXtXtXtXtXtXtXtXtX2XI o 7 j.J.G.A.A.A.A.A.A.A.A.A.A.A.A.A.A.A.A.A.A.A.A.A.A.A.A.A.A.A.A.A.A.A.A.A.A.A.A.A.A.A.A.A.A.A.A.A.A.A.A.A.A.A.A.A.A.A.A.A.A.A.A.G.K.v.S % o &                                                                                                                                                                                                                                                                                                                                                                                   ",
"h.                                                        , o o o o o o o o o o o ; H M.I.K.D.A.A.A.A.A.D.K.I.M.G : o o                                                                                                                   , o 7 z.Y.D.A.A.A.A.A.A.A.A.A.A.A.A.A.A.A.A.A.D.D.j.; q ;XtXtXtXtXtXtXtXtXtXtXtXtXtXtXtXtXtXtX2Xf o o o o o o o o o o o o o o o o o o o o o o o o o o o o o o o o o o T wXtXtXtXtXtXtXtXtXtXtXtXtXtXtXtXtX'.9 6 z.G.D.A.A.A.A.A.A.A.A.A.A.A.A.A.A.G.D.g.i o k '.tXtXtXtXtXtXtXtXtXtXtXtXtXtXtXtXtXtXtXtXtXtXtXtXtXtXtXtXtXtXtXtXtXtXtXtXtXtXtXtXtXtXtXtXtXtXtXtXtXtX1XT o : i.A.J.A.A.A.A.A.A.A.A.A.A.A.A.A.A.A.A.A.A.A.A.A.A.A.A.A.A.A.A.A.A.A.A.A.A.A.A.A.A.A.A.A.A.A.A.A.A.A.A.A.A.A.A.A.A.A.A.A.A.A.A.A.A.G.K.v.Z o o &                                                                                                                                                                                                                                                                                                                                                                                 ",
"h.                                                      o o o ; i Z F H J S 6 o % F N.I.G.A.A.A.A.A.A.A.A.A.G.Y.B.H : o o                                                                                                                 & o d M.Y.A.A.A.A.A.A.A.A.A.A.A.A.A.A.A.A.A.A.D.G.k.: 0 ].tXtXtXtXtXtXtXtXtXtXtXtXtXtXtXtXtXtX1Xf o o o o o o o o o o o o o o o o o o o o o o o o o o o o o o o o o o P wXtXtXtXtXtXtXtXtXtXtXtXtXtXtXtXtX).< 8 x.G.D.A.A.A.A.A.A.A.A.A.A.A.A.A.A.A.J.Z.g.i o f /.rXtXtXtXtXtXtXtXtXtXtXtXtXtXtXtXtXtXtXtXtXtXtXtXtXtXtXtXtXtXtXtXtXtXtXtXtXtXtXtXtXtXtXtXtXtXtXtX:XT # : J V.I.D.A.A.A.A.A.A.A.A.A.A.A.A.A.A.A.A.A.A.A.A.A.A.A.A.A.A.A.A.A.A.A.A.A.A.A.A.A.A.A.A.A.A.A.A.A.A.A.A.A.A.A.A.A.A.A.A.A.A.A.A.A.A.A.G.K.c.C o o 1                                                                                                                                                                                                                                                                                                                                                                               ",
"h.                                                  & o o : d K x.m.V.D.n.S o 7 K B.K.D.A.A.A.A.A.A.A.A.A.A.A.D.I.B.G % o &                                                                                                               o o F Z.K.A.A.A.A.A.A.A.A.A.A.A.A.A.A.A.A.A.A.D.G.z.6 9 '.tXtXtXtXtXtXtXtXtXtXtXtXtXtXtXtXtXtX1Xf o o o o o o o o o o o o o o o o o o o o o o o o o o o o o o o o o o I wXtXtXtXtXtXtXtXtXtXtXtXtXtXtXtXtX!.# p b.G.D.A.A.A.A.A.A.A.A.A.A.A.A.A.A.A.A.J.A.j.p o q !.7XtXtXtXtXtXtXtXtXtXtXtXtXtXtXtXtXtXtXtXtXtXtXtXtXtXtXtXtXtXtXtXtXtXtXtXtXtXtXtXtXtXtXtXtXtX].I # : J B.I.D.A.A.A.A.A.A.A.A.A.A.A.A.A.A.A.A.A.A.A.A.A.A.A.A.A.A.A.A.A.A.A.A.A.A.A.A.A.A.A.A.A.A.A.A.A.A.A.A.A.A.A.A.A.A.A.A.A.A.A.A.A.A.A.A.A.G.J.z.p o o                                                                                                                                                                                                                                                                                                                                                                               ",
"h.                                                & o o i K n.D.J.G.K.V.H % ; L Z.I.A.A.A.A.A.A.A.A.A.A.A.A.A.A.A.I.m.Z o o                                                                                                               o ; d.I.G.A.A.A.A.A.A.A.A.A.A.A.A.A.A.A.A.A.A.D.G.c.u < /.tXtXtXtXtXtXtXtXtXtXtXtXtXtXtXtXtXtX4Xk o o o o o o o o o o o o o o o o o o o o o o o o o o o o o o o o o o ^ wXtXtXtXtXtXtXtXtXtXtXtXtXtXtXtXtX` o C M.J.A.A.A.A.A.A.A.A.A.A.A.A.A.A.A.A.A.A.J.G.l.d o 5 ) 1XtXtXtXtXtXtXtXtXtXtXtXtXtXtXtXtXtXtXtXtXtXtXtXtXtXtXtXtXtXtXtXtXtXtXtXtXtXtXtXtXtXtXeX).l o 6 K B.K.A.A.A.A.A.A.A.A.A.A.A.A.A.A.A.A.A.A.A.A.A.A.A.A.A.A.A.A.A.A.A.A.A.A.A.A.A.A.A.A.A.A.A.A.A.A.A.A.A.A.A.A.A.A.A.A.A.A.A.A.A.A.A.A.A.A.A.A.J.G.g.7 o o                                                                                                                                                                                                                                                                                                                                                                             ",
"h.                                              o o % C z.Z.J.D.A.D.G.g.7 o F V.I.A.A.A.A.A.A.A.A.A.A.A.A.A.A.A.A.D.J.k.7 o &                                                                                                           , o 8 x.Y.D.A.A.A.A.A.A.A.A.A.A.A.A.A.A.A.A.A.A.A.G.b.a # !.tXtXtXtXtXtXtXtXtXtXtXtXtXtXtXtXtXtX7XI o o o o o o o o o o o o o o o o o o o o o o o o o o o o o o o o o o _ rXtXtXtXtXtXtXtXtXtXtXtXtXtXtXtXwXT o D V.J.A.A.A.A.A.A.A.A.A.A.A.A.A.A.A.A.A.A.A.G.J.v.S o # P `.rXtXtXtXtXtXtXtXtXtXtXtXtXtXtXtXtXtXtXtXtXtXtXtXtXtXtXtXtXtXtXtXtXtXtXtXtXtXtXtX7XQ.q o i d.V.J.A.A.A.A.A.A.A.A.A.A.A.A.A.A.A.A.A.A.A.A.A.A.A.A.A.A.A.A.A.A.A.A.A.A.A.A.A.A.A.A.A.A.A.A.A.A.A.A.A.A.A.A.A.A.A.A.A.A.A.A.A.A.A.A.A.A.A.A.A.A.K.A.J % o ,                                                                                                                                                                                                                                                                                                                                                                           ",
"h.                                            o o % D b.J.G.Z.A.A.J.b.C o d n.I.A.A.A.A.A.A.A.A.A.A.A.A.A.A.A.A.A.A.G.V.G o o                                                                                                           & o d M.Y.A.A.A.A.A.A.A.A.A.A.A.A.A.A.A.A.A.A.A.A.G.M.Z o _ tXtXtXtXtXtXtXtXtXtXtXtXtXtXtXtXtXtXrX) o o o o o o o o o o o o o o o o o o o o o o o o o o o o o o o o o o !.tXtXtXtXtXtXtXtXtXtXtXtXtXtXtXtX4Xk o K A.G.A.A.A.A.A.A.A.A.A.A.A.A.A.A.A.A.A.A.A.A.D.I.N.H 6 o q Q.4XtXtXtXtXtXtXtXtXtXtXtXtXtXtXtXtXtXtXtXtXtXtXtXtXtXtXtXtXtXtXtXtXtXtXtXtXtX;XT # o d k.Z.G.Z.A.A.A.A.A.A.A.A.A.A.A.A.A.A.A.A.A.A.A.A.A.A.A.A.A.A.A.A.A.A.A.A.A.A.A.A.A.A.A.A.A.A.A.A.A.A.A.A.A.A.A.A.A.A.A.A.A.A.A.A.A.A.A.A.A.A.A.A.A.A.A.I.N.S o o                                                                                                                                                                                                                                                                                                                                                                           ",
"h.                                          & o % D m.I.D.A.A.A.D.Z.J % 6 j.I.D.A.A.A.A.A.A.A.A.A.A.A.A.A.A.A.A.A.A.A.K.z.8 o ,                                                                                                         o o F C.J.A.A.A.A.A.A.A.A.A.A.A.A.A.A.A.A.A.A.A.A.G.V.F o Y 8XtXtXtXtXtXtXtXtXtXtXtXtXtXtXtXtXtXtX!.= o o o o o o o o o o o o o o o o o o o o o o o o o o o o o o o o 9 '.tXtXtXtXtXtXtXtXtXtXtXtXtXtXtXtX'.5 % k.J.D.A.A.A.A.A.A.A.A.A.A.A.A.A.A.A.A.A.A.A.A.A.D.I.C.g.a o # P `.eXtXtXtXtXrX8X7X2X:X].'.'.'.].;X1X7XeXtXtXtXtXtXtXtXtXtXtXtXtXtXtXtX7X!.f o o D v.J.G.A.A.A.A.A.A.A.A.A.A.A.A.A.A.A.A.A.A.A.A.A.A.A.A.A.A.A.A.A.A.A.A.A.A.A.A.A.A.A.A.A.A.A.A.A.A.A.A.A.A.A.A.A.A.A.A.A.A.A.A.A.A.A.A.A.A.A.A.A.A.A.A.A.D.I.x.i o o                                                                                                                                                                                                                                                                                                                                                                         ",
"h.                                        1 o o Z n.I.D.A.A.A.A.K.c.p o F V.K.Z.A.A.A.A.A.A.A.A.A.A.A.A.D.D.A.A.A.A.A.D.N.D o o                                                                                                         o % L K.G.A.A.A.A.A.A.A.A.A.A.A.A.A.A.A.A.A.A.A.A.D.D.i.o g 2XtXtXtXtXtXtXtXtXtXtXtXtXtXtXtXtXtXtX].q o o o o o o o o o o o o o o o o o o o o o o o o o o o o o o o o l 4XtXtXtXtXtXtXtXtXtXtXtXtXtXtXtXtXQ.o p b.K.D.A.A.A.A.A.A.A.A.A.A.A.A.A.A.A.A.A.A.A.A.A.A.A.I.J.v.G 6 o 9 ) ].;X~.` ) Y l g q 0 9 1 5 9 q f A ^ Q.'.4XtXtXtXtXtXtXtXtXtXtXwX`.Y # o u i.B.I.G.A.A.A.A.A.A.A.A.A.A.A.A.A.A.A.A.A.A.A.A.A.A.A.A.A.A.A.A.A.A.A.A.A.A.A.A.A.A.A.A.A.A.A.A.A.A.A.A.A.A.A.A.A.A.A.A.A.A.A.A.A.A.A.A.A.A.A.A.A.A.A.A.A.A.A.G.G.L ; o &                                                                                                                                                                                                                                                                                                                                                                       ",
"h.                                        o o a x.I.G.A.A.A.A.D.Z.J % u z.K.A.A.A.A.A.A.A.A.A.A.A.A.A.D.D.D.D.A.A.A.A.A.G.s.: o                                                                                                         o 6 k.Y.D.A.A.A.A.A.A.A.A.A.A.A.A.A.A.A.A.A.A.A.A.D.G.l.; 5 `.tXtXtXtXtXtXtXtXtXtXtXtXtXtXtXtXtXtX8XY o o o o o o o o o o o o o o o o o o o o o o o o o o o o o o o o ` tXtXtXtXtXtXtXtXtXtXtXtXtXtXtXtX8XY o D V.K.A.A.A.A.A.A.A.A.A.A.A.A.A.A.A.A.A.A.A.A.A.A.A.G.J.I.K.n.H u o o 9 0 o o o o o o o = 1 1 1 < % o o o o 9 P Q.1XtXtXtXtXtXtXeX].) 0 o % D x.G.I.D.A.A.A.A.A.A.A.A.A.A.A.A.A.A.A.A.A.A.A.A.A.A.A.A.A.A.A.A.A.A.A.A.A.A.A.A.A.A.A.A.A.A.A.A.A.A.A.A.A.A.A.A.A.A.A.A.A.A.A.A.A.A.A.A.A.A.A.A.A.A.A.A.A.A.A.A.A.K.m.Z o o                                                                                                                                                                                                                                                                                                                                                                       ",
"h.                                      o o 7 g.J.G.A.A.A.A.A.I.b.s o G V.G.A.A.A.A.A.A.A.A.A.A.A.A.D.C.z.g.M.D.A.A.A.A.G.z.u o ,                                                                                                     & o p v.Y.A.A.A.A.A.A.A.A.A.A.A.A.A.A.A.A.A.A.A.A.A.D.J.b.a o Q.tXtXtXtXtXtXtXtXtXtXtXtXtXtXtXtXtXtXtX~.< o o o o o o o o o o o o o o o o o o o o o o o o o o o o o o 0 ].tXtXtXtXtXtXtXtXtXtXtXtXtXtXtXtX].0 o d.J.G.A.A.A.A.A.A.A.A.A.A.A.A.A.A.A.A.A.A.D.D.D.J.G.N.c.g.H S a : o o o $ # o < Y ` !.~._._.`.`._./.!.` T k < o = l ~.8XtXtXwX]._ f o o d f.B.I.J.A.A.A.A.A.A.A.A.A.A.A.A.A.A.A.A.A.A.A.A.A.A.A.A.A.A.A.A.A.A.A.A.A.A.A.A.A.A.A.A.A.A.A.A.A.A.A.A.A.A.A.A.A.A.A.A.A.A.A.A.A.A.A.A.A.A.A.A.A.A.A.A.A.A.A.A.A.A.A.A.G.j.8 o &                                                                                                                                                                                                                                                                                                                                                                     ",
"h.                                    1 o % G C.I.G.G.G.G.G.G.I.d.: 8 l.G.A.A.A.A.A.A.A.A.A.A.A.A.A.G.b.C i l.G.D.A.A.A.G.b.d o &                                                                                                     & o C M.I.A.A.A.A.A.A.A.A.A.A.A.A.A.A.A.A.A.A.A.A.A.A.J.V.D o Y 8XtXtXtXtXtXtXtXtXtXtXtXtXtXtXtXtXtXtX2XP o o o o o o o o o o o o o o o o o o o o o o o o o o o o o o ( wXtXtXtXtXtXtXtXtXtXtXtXtXtXtXtXtXQ.o u v.I.D.A.A.A.A.A.A.A.A.A.A.A.A.A.A.A.D.G.G.G.Z.M.z.i.S p : o # - w z v ' ' ' 4 % ^ <X0X0X0X0X0X0X0X0X9X9X5X;X~.^ q o 9 ` 1X'.) f # o a K b.G.J.G.A.A.A.A.A.A.A.A.A.A.A.A.A.A.A.A.A.A.A.A.A.A.A.A.A.A.A.A.A.A.A.A.A.A.A.A.A.A.A.A.A.A.A.A.A.A.A.A.A.A.A.A.A.A.A.A.A.A.A.A.A.A.A.A.A.A.A.A.A.A.A.A.A.A.A.A.A.A.A.A.A.G.N.D o o                                                                                                                                                                                                                                                                                                                                                                     ",
"h.                                    o o s v.I.D.V.B.B.V.C.K.V.D o Z M.G.A.A.A.A.A.A.A.A.A.A.A.A.A.J.j.6 6 l.K.A.A.A.A.G.M.S o o                                                                                                     o o D V.J.A.A.A.A.A.A.A.A.A.A.A.A.A.A.A.A.A.A.A.A.A.A.G.G.d.o 0 ].tXtXtXtXtXtXtXtXtXtXtXtXtXtXtXtXtXtXtX~.9 o o o o o o o o o o o o o o o o o o o o o o o o o o o o f ].tXtXtXtXtXtXtXtXtXtXtXtXtXtXtXtX4XA o F C.I.A.A.A.A.A.A.A.A.A.A.A.A.A.D.G.J.G.Z.M.z.K Z u ; o $ 4 z v ' [ { { } | } ' $ q _.qX0X9X9X9X9X9X9X9X0X0X0X0X5X_.Y = 5 l q = ; s J c.C.J.G.A.A.A.A.A.A.A.A.A.A.A.A.A.A.A.A.A.A.A.A.A.A.A.A.A.A.A.A.A.A.A.A.A.A.A.A.A.A.A.A.A.A.A.A.A.A.A.A.A.A.A.A.A.A.A.A.A.A.A.A.A.A.A.A.A.A.A.A.A.A.A.A.A.A.A.A.A.A.A.A.A.A.A.D.G.l.u o &                                                                                                                                                                                                                                                                                                                                                                   ",
"h.                                  , o ; s.I.V.g.G D D F H f.d.p % L A.D.A.A.A.A.A.A.A.A.A.A.A.A.D.A.H % s b.G.A.A.A.A.G.B.F o o                                                                                                     o o H D.G.A.A.A.A.A.A.A.A.A.A.A.A.A.A.A.A.A.A.A.A.A.A.D.I.v.u o Q.tXtXtXtXtXtXtXtXtXtXtXtXtXtXtXtXtXtXtX7X( o o o o o o o o o o o o o o o o o o o o o o o o o o o < Q.eXtXtXtXtXtXtXtXtXtXtXtXtXtXtXtXtX/.1 ; j.I.G.A.A.A.A.A.A.A.A.A.A.A.D.J.I.G.B.x.L Z 8 % o - w c ' [ { } } | | | } } | [ r # ` 0X9X9X9X9X9X9X9X9X9X9X9X9X0X0X;XE % o o : D c.D.G.D.D.A.A.A.A.A.A.A.A.A.A.A.A.A.A.A.A.A.A.A.A.A.A.A.A.A.A.A.A.A.A.A.A.A.A.A.A.A.A.A.A.A.A.A.A.A.A.A.A.A.A.A.A.A.A.A.A.A.A.A.A.A.A.A.A.A.A.A.A.A.A.A.A.A.A.A.A.A.A.A.A.A.A.A.A.A.G.N.D o o                                                                                                                                                                                                                                                                                                                                                                   ",
"h.                                  o o C M.R.b.d o o o o o o 7 ; 8 z.G.D.A.A.A.A.A.A.A.A.A.A.A.A.J.M.C o F V.D.A.A.A.A.G.C.G o o                                                                                                     o ; s.J.D.A.A.A.A.A.A.A.A.A.A.A.A.A.A.A.A.A.A.A.A.A.A.A.K.V.D o A 4XtXtXtXtXtXtXtXtXtXtXtXtXtXtXtXtXtXtXtX:XP o o o o o o o o o o o o o o o o o o o o o o o o o o ^ 4XtXtXtXtXtXtXtXtXtXtXtXtXtXtXtXtX7XY o Z N.I.A.A.A.A.A.A.A.A.A.A.G.I.I.Z.n.f.D u % o - e c ' [ { | | | } } } } } } } | { z o ) 9X0X9X9X9X9X9X9X9X9X9X9X9X9X9XqX].k o o o s f.V.I.G.A.A.A.A.A.A.A.A.A.A.A.A.A.A.A.A.A.A.A.A.A.A.A.A.A.A.A.A.A.A.A.A.A.A.A.A.A.A.A.A.A.A.A.A.A.A.A.A.A.A.A.A.A.A.A.A.A.A.A.A.A.A.A.A.A.A.A.A.A.A.A.A.A.A.A.A.A.A.A.A.A.A.A.A.A.A.D.G.k.7 o &                                                                                                                                                                                                                                                                                                                                                                 ",
"h.                                , o : d.I.J.N.s.D D D S C p 6 o d m.G.A.A.A.A.A.A.A.A.A.A.A.A.A.I.l.7 : f.G.A.A.A.A.A.D.C.H o o                                                                                                     o 6 j.I.D.A.A.A.A.A.A.A.A.A.A.A.A.A.A.A.A.A.A.A.A.A.A.A.G.I.j.% < /.tXtXtXtXtXtXtXtXtXtXtXtXtXtXtXtXtXtXtXtX].k o o o o o o o o o o o o o o o o o o o o o o o o Y 1XtXtXtXtXtXtXtXtXtXtXtXtXtXtXtXtXtX/.5 % f.I.G.A.A.A.A.A.A.A.A.J.Y.K.B.z.H a % o # w c ' [ { <.<.| } } } } } } } } } | <.' 4 = Q.0X9X9X9X9X9X6X9X9X6X9X9X9X9X9XqX9XE o e w o : G b.J.J.Z.A.A.A.A.A.A.A.A.A.A.A.A.A.A.A.A.A.A.A.A.A.A.A.A.A.A.A.A.A.A.A.A.A.A.A.A.A.A.A.A.A.A.A.A.A.A.A.A.A.A.A.A.A.A.A.A.A.A.A.A.A.A.A.A.A.A.A.A.A.A.A.A.A.A.A.A.A.A.A.A.A.A.A.A.D.J.N.S o o                                                                                                                                                                                                                                                                                                                                                                 ",
"h.                                o o d m.I.A.D.Z.V.V.V.B.N.c.Z o D V.G.A.A.A.A.A.A.A.A.A.A.A.A.J.Z.G o s b.G.A.A.A.A.A.D.C.H o o                                                                                                   , o u x.I.A.A.A.A.A.A.A.A.A.A.A.A.A.A.A.A.A.A.A.A.A.A.A.A.A.I.N.C o Y 8XtXtXtXtXtXtXtXtXtXtXtXtXtXtXtXtXtXtXtXtX;XP o o o o o o o o o o o o o o o o o o o o o o T 1XtXtXtXtXtXtXtXtXtXtXtXtXtXtXtXtXtX4XI o C M.I.A.A.A.A.A.A.A.J.Y.J.m.f.S 7 o o 3 z ' [ } <.2.| } } } } } } } } } } } 2.<.[ r o k ;XqX9X9X9X6X9X9X9X9X9X9X9X9X9X9XqX,XA o n =.x o o C z.G.I.Z.A.A.A.A.A.A.A.A.A.A.A.A.A.A.A.A.A.A.A.A.A.A.A.A.A.A.A.A.A.A.A.A.A.A.A.A.A.A.A.A.A.A.A.A.A.A.A.A.A.A.A.A.A.A.A.A.A.A.A.A.A.A.A.A.A.A.A.A.A.A.A.A.A.A.A.A.A.A.A.A.A.A.A.A.G.G.d.; o                                                                                                                                                                                                                                                                                                                                                                 ",
"h.                                o % L J.D.A.A.G.K.K.K.I.E.C.Z o H Z.G.A.A.A.A.A.A.A.A.A.A.A.A.Y.v.p o H C.D.A.A.A.A.A.G.V.G o o                                                                                                   & o a v.K.A.A.A.A.A.A.A.A.A.A.A.A.A.A.A.A.A.A.A.A.A.A.A.A.A.G.I.f.% 3 /.tXtXtXtXtXtXtXtXtXtXtXtXtXtXtXtXtXtXtXtXtX2X) 9 o o o o o o o o o o o o o o o o o o 0 ` 7XtXtXtXtXtXtXtXtXtXtXtXtXtXtXtXtXtXrX!.- : g.I.D.A.A.A.A.A.J.Y.D.b.K d ; o # e v [ { | 2.<.| } } } } } } } } } } } <.2.{ ' w o 0 ~.9X9X9X9X9X9X9X9X9X9X9X9X6X9X9X0X6X` = $ &.r.4.m 3 o u d.Z.I.D.A.A.A.A.A.A.A.A.A.A.A.A.A.A.A.A.A.A.A.A.A.A.A.A.A.A.A.A.A.A.A.A.A.A.A.A.A.A.A.A.A.A.A.A.A.A.A.A.A.A.A.A.A.A.A.A.A.A.A.A.A.A.A.A.A.A.A.A.A.A.A.A.A.A.A.A.A.A.A.A.A.A.A.A.I.n.s o o                                                                                                                                                                                                                                                                                                                                                               ",
"h.                              & o p c.I.A.A.A.A.A.A.A.A.Y.M.s o K Z.G.A.A.A.A.A.A.A.A.A.A.A.J.G.J o u z.G.A.A.A.A.A.A.G.B.D o o                                                                                                   & o d m.J.A.A.A.A.A.A.A.A.A.A.A.A.A.A.A.A.A.A.A.A.A.A.A.A.A.A.Y.M.C o I 4XtXtXtXtXtXtXtXtXtXtXtXtXtXtXtXtXtXtXtXtXtXeX`.Y 9 o o o o o o o o o o o o o o 0 E '.rXtXtXtXtXtXtXtXtXtXtXtXtXtXtXtXtXtXtX].g o D B.I.Z.A.A.A.G.I.C.x.H p o o 3 z ' { | 2.2.| } } } } } } } } } } } | <.| { ' c - o f !.6X0X9X9X9X9X9X9X6X9X9X9X9X9X9X0X6X~.0 o v 7.r.e.7.X.e o : H N.I.D.A.A.A.A.A.A.A.A.A.A.A.A.A.A.A.A.A.A.A.A.A.A.A.A.A.A.A.A.A.A.A.A.A.A.A.A.A.A.A.A.A.A.A.A.A.A.A.A.A.A.A.A.A.A.A.A.A.A.A.A.A.A.A.A.A.A.A.A.A.A.A.A.A.A.A.A.A.A.A.A.A.A.A.J.A.H o o                                                                                                                                                                                                                                                                                                                                                               ",
"h.                              o o F V.G.A.A.A.A.A.A.A.A.Y.m.s o L Z.G.A.A.A.A.A.A.A.A.A.A.D.I.v.p o F B.G.A.A.A.A.A.A.G.M.S o &                                                                                                   & o Z N.G.A.A.A.A.A.A.A.A.A.A.A.A.A.A.A.A.A.A.A.A.A.A.A.A.A.A.G.I.g.: - Q.eXtXtXtXtXtXtXtXtXtXtXtXtXtXtXtXtXtXtXtXtXtXtX7X`.) l q < o o o o o o < q l _ '.8XtXtXtXtXtXtXtXtXtXtXtXtXtXtXtXtXtXtXtX4XE o p x.I.A.A.A.D.G.B.z.G u o # # o 3 z ' [ { { } | | | | | | | | | | | } { [ ' z 3 o ; I _.9X0X9X9X9X9X9X6X9X9X9X6X9X9X9X0X5X!.f o y 3.r.0.0.e.q.=.x # o D b.J.G.A.A.A.A.A.A.A.A.A.A.A.A.A.A.A.A.A.A.A.A.A.A.A.A.A.A.A.A.A.A.A.A.A.A.A.A.A.A.A.A.A.A.A.A.A.A.A.A.A.A.A.A.A.A.A.A.A.A.A.A.A.A.A.A.A.A.A.A.A.A.A.A.A.A.A.A.A.A.A.A.A.A.D.I.l.6 o ,                                                                                                                                                                                                                                                                                                                                                             ",
"h.                              o : f.J.A.A.A.A.A.A.A.A.A.I.M.C o H Z.G.A.A.A.A.A.A.A.A.A.A.I.C.G o u z.G.D.A.A.A.A.A.A.G.n.d o &                                                                                                   o o D B.G.A.A.A.A.A.A.A.A.A.A.A.A.A.A.A.A.A.A.A.A.A.A.A.A.A.A.A.I.B.D o g '.tXtXtXtXtXtXtXtXtXtXtXtXtXtXtXtXtXtXtXtXtXtXtXtXeX2X'.!.` ) E ^ ) ` ~.'.2XeXtXtXtXtXtXtXtXtXtXtXtXtXtXtXtXtXtXtXtXtXeXQ.< : i.Z.G.D.G.G.N.l.F 8 o $ g ) ( g < $ - 4 r c m ' [ [ [ [ [ [ [ [ ' ' v z 4 # o % A !.>X0X0X9X9X9X9X6X9X9X9X9X9X9X9X9X0X,X` 0 o y =.e.q.0.0.0.w.w.3.v $ o Z x.G.G.A.A.A.A.A.A.A.A.A.A.A.A.A.A.A.A.A.A.A.A.A.A.A.A.A.A.A.A.A.A.A.A.A.A.A.A.A.A.A.A.A.A.A.A.A.A.A.A.A.A.A.A.A.A.A.A.A.A.A.A.A.A.A.A.A.A.A.A.A.A.A.A.A.A.A.A.A.A.A.A.A.A.I.M.d o o                                                                                                                                                                                                                                                                                                                                                             ",
"h.                            & o a c.J.A.A.A.A.A.A.A.A.A.I.V.S o D B.G.A.A.A.A.A.A.A.A.A.G.K.j.7 o G V.J.A.A.A.A.A.A.A.G.c.p o ,                                                                                                   o o G C.D.A.A.A.A.A.A.A.A.A.A.A.A.A.A.A.A.A.A.A.A.A.A.A.A.A.A.A.A.I.x.a o T 2XtXtXtXtXtXtXtXtXtXtXtXtXtXtXtXtXtXtXtXtXtXtXtXtXtXtXtXrXwX8X8XwXrXtXtXtXtXtXtXtXtXtXtXtXtXtXtXtXtXtXtXtXtXtXtXtXtX/.q o D M.J.G.J.B.l.D 7 o = k ` ].6X5X`.Q.E k 9 = # # $ 3 4 e e r e e 4 3 $ # % 1 9 o 0 _.qXqX9X9X9X9X9X9X9X9X9X9X9X9X0XqX6X`.Y < o z =.q.q.0.0.0.0.0.q.e.5.V 3 o d z.D.G.A.A.A.A.A.A.A.A.A.A.A.A.A.A.A.A.A.A.A.A.A.A.A.A.A.A.A.A.A.A.A.A.A.A.A.A.A.A.A.A.A.A.A.A.A.A.A.A.A.A.A.A.A.A.A.A.A.A.A.A.A.A.A.A.A.A.A.A.A.A.A.A.A.A.A.A.A.A.A.A.A.J.D.H o o                                                                                                                                                                                                                                                                                                                                                             ",
"h.                            o o S N.D.A.A.A.A.A.A.A.A.A.G.G.J o a v.J.A.A.A.A.A.A.A.A.G.I.v.d o s v.J.D.A.A.A.A.A.A.A.G.k.7 o                                                                                                     o % H Z.D.A.A.A.A.A.A.A.A.A.A.A.A.A.A.A.A.A.A.A.A.A.A.A.A.A.A.A.A.G.Z.s.6 = _ 8XtXtXtXtXtXtXtXtXtXtXtXtXtXtXtXtXtXtXtXtXtXtXtXtXtXtXtXtXtXtXtXtXtXtXtXtXtXtXtXtXtXtXtXtXtXtXtXtXtXtXtXtXtXtXtX`.g o C v.I.I.C.x.F 7 o = l ` ].6X0X9X9X9X9X<X]./.` E A g 0 1 < = = = < 1 q g I ) ~.Q.0 o ` 9XqX9X9X9X9X6X9X9X9X9X9X0XqX9X;X_ f o - v 3.q.0.0.0.0.0.0.0.0.0.e.7. .4 o s l.G.G.A.A.A.A.A.A.A.A.A.A.A.A.A.A.A.A.A.A.A.A.A.A.A.A.A.A.A.A.A.A.A.A.A.A.A.A.A.A.A.A.A.A.A.A.A.A.A.A.A.A.A.A.A.A.A.A.A.A.A.A.A.A.A.A.A.A.A.A.A.A.A.A.A.A.A.A.A.A.A.A.D.I.k.6 o                                                                                                                                                                                                                                                                                                                                                             ",
"h.                            o ; K A.D.A.A.A.A.A.A.A.A.A.D.I.z.7 % K A.K.A.A.A.A.A.A.J.I.n.S o 6 g.G.G.A.A.A.A.A.A.A.A.D.i.; o                                                                                                     o % K D.D.A.A.A.A.A.A.A.A.A.A.A.A.A.A.A.A.A.A.A.A.A.A.A.A.A.A.A.A.A.G.N.G % 5 Q.rXtXtXtXtXtXtXtXtXtXtXtXtXtXtXtXtXtXtXtXtXtXtXtXtXtXtXtXtXtXtXtXtXtXtXtXtXtXtXtXtXtXtXtXtXtXtXtXtXtXtXtXtXtX'.g o p z.Y.G.c.H 8 o # k Q.;X6X0X9X9X9X9X9X9X9X0X0X9X5X>X].`.~.!.Q.Q.Q.!./.`.;X,X6XqX6X( o f ].qX9X9X9X9X9X9X9X0XqXqX9X;XQ.k o o e  .5.w.0.0.0.0.0.0.0.0.0.0.0.e.0.X.w o a l.G.G.Z.A.A.A.A.A.A.A.A.A.A.A.A.A.A.A.A.A.A.A.A.A.A.A.A.A.A.A.A.A.A.A.A.A.A.A.A.A.A.A.A.A.A.A.A.A.A.A.A.A.A.A.A.A.A.A.A.A.A.A.A.A.A.A.A.A.A.A.A.A.A.A.A.A.A.A.A.A.A.A.Y.n.a o &                                                                                                                                                                                                                                                                                                                                                           ",
"h.                            o 8 k.G.A.A.A.A.A.A.A.A.A.A.A.K.B.D o u g.D.Y.I.J.J.I.Y.J.c.S o % K A.K.Z.A.A.A.A.A.A.A.D.B.F o o                                                                                                     o ; i.G.D.A.A.A.A.A.A.A.A.A.A.A.A.A.A.A.A.A.A.A.A.A.A.A.A.A.A.A.A.A.A.J.m.S o 9 !.rXtXtXtXtXtXtXtXtXtXtXtXtXtXtXtXtXtXtXtXtXtXtXtXtXtXtXtXtXtXtXtXtXtXtXtXtXtXtXtXtXtXtXtXtXtXtXtXtXtXtXtX'.g o u z.I.M.L p o o g ` ;X9XqX9X9X9X9X9X9X9X9X9X9X9X9X9X0XqXqXqXqX0X0X0XqXqXqX0X0X9X9XqX'.q o ) 6X0X9X9X9X9XqXqXqX5X'._ k o o 4 n 3.q.w.0.0.0.0.0.0.0.0.0.0.0.0.0.w.q.X.w o a z.K.G.Z.A.A.A.A.A.A.A.A.A.A.A.A.A.A.A.A.A.A.A.A.A.A.A.A.A.A.A.A.A.A.A.A.A.A.A.A.A.A.A.A.A.A.A.A.A.A.A.A.A.A.A.A.A.A.A.A.A.A.A.A.A.A.A.A.A.A.A.A.A.A.A.A.A.A.A.A.A.A.I.V.D o o                                                                                                                                                                                                                                                                                                                                                           ",
"h.                          , o a v.G.A.A.A.A.A.A.A.A.A.A.A.D.I.x.a o 8 J v.V.D.D.V.n.i.a o % H V.I.A.A.A.A.A.A.A.A.A.G.n.s o o                                                                                                     o ; s.G.A.A.A.A.A.A.A.A.A.A.A.A.A.A.A.A.A.A.A.A.A.A.A.A.A.A.A.A.A.A.A.A.K.v.C o 5 Q.eXtXtXtXtXtXtXtXtXtXtXtXtXtXtXtXtXtXtXtXtXtXtXtXtXtXtXtXtXtXtXtXtXtXtXtXtXtXtXtXtXtXtXtXtXtXtXtXtXrX/.q o u l.C.j.C o o q ) ;X0XqX0X9X9X9X9X9X9X9X6X9X9X9X9X9X9X9X9X9X9X9X9X9X9X9X9X9X9X9X9X9XqX9X) o q '.qX0XqXqXqX6X;X!.T q o o 3 v *.8.r.w.0.0.0.0.0.0.0.0.0.0.0.0.0.0.0.w.q.X.w o a x.I.G.Z.A.A.A.A.A.A.A.A.A.A.A.A.A.A.A.A.A.A.A.A.A.A.A.A.A.A.A.A.A.A.A.A.A.A.A.A.A.A.A.A.A.A.A.A.A.A.A.A.A.A.A.A.A.A.A.A.A.A.A.A.A.A.A.A.A.A.A.A.A.A.A.A.A.A.A.A.A.G.K.i.% o                                                                                                                                                                                                                                                                                                                                                           ",
"h.                          o o Z M.G.A.A.A.A.A.A.A.A.A.A.A.A.G.G.k.a o o i S G H D a % o 7 L V.I.A.A.A.A.A.A.A.A.A.A.G.n.d o o o o 1                                                                                               o : f.J.A.A.A.A.A.A.A.A.A.A.A.A.A.A.A.A.A.A.A.A.A.A.A.A.A.A.A.A.A.A.A.A.D.I.c.C o = _ 7XtXtXtXtXtXtXtXtXtXtXtXtXtXtXtXtXtXtXtXtXtXtXtXtXtXtXtXtXtXtXtXtXtXtXtXtXtXtXtXtXtXtXtXtXtXtX7XQ.9 o a l.v.F ; o 1 T `.9XqX0X9X9X9X9X6X9X9X6X9X9X9X6X9X9X9X9X9X9X9X9X9X9X9X9X9X9X9X9X9X9X9X9XqX;Xf o ( 6XqX5X;X~.^ g % o o w n *.7.r.e.0.0.0.0.0.0.0.0.0.0.0.0.0.0.0.0.0.0.w.q.X.4 o d b.I.D.A.A.A.A.A.A.A.A.A.A.A.A.A.A.A.A.A.A.A.A.A.A.A.A.A.A.A.A.A.A.A.A.A.A.A.A.A.A.A.A.A.A.A.A.A.A.A.A.A.A.A.A.A.A.A.A.A.A.A.A.A.A.A.A.A.A.A.A.A.A.A.A.A.A.A.A.A.A.Y.l.7 o                                                                                                                                                                                                                                                                                                                                                           ",
"h.                          o o G V.D.A.A.A.A.A.A.A.A.A.A.A.A.Z.G.G.x.D 7 o o o o o o 6 S l.Z.I.A.A.A.A.A.A.A.A.A.A.A.A.C.j.Z 7 o o o o &                                                                                           o : f.J.A.A.A.A.A.A.A.A.A.A.A.A.A.A.A.A.A.A.A.A.A.A.A.A.A.A.A.A.A.A.A.A.A.G.I.b.Z o o T ;XtXtXtXtXtXtXtXtXtXtXtXtXtXtXtXtXtXtXtXtXtXtXtXtXtXtXtXtXtXtXtXtXtXtXtXtXtXtXtXtXtXtXtXtX;XE % o C g.i.p o $ A ~.5XqXqX9X9X9X9X9X9X9X9X9X9X9X9X9X9X9X6X9X9X6X9X9X6X9X9X9X9X9X9X6X9X9X9X9X0XqXqXQ.= 0 ` Q.T g ; o o 3 x  .3.8.r.e.0.0.0.0.0.0.0.0.0.0.0.0.0.0.0.0.0.0.0.0.0.w.0. .4 o S M.I.D.A.A.A.A.A.A.A.A.A.A.A.A.A.A.A.A.A.A.A.A.A.A.A.A.A.A.A.A.A.A.A.A.A.A.A.A.A.A.A.A.A.A.A.A.A.A.A.A.A.A.A.A.A.A.A.A.A.A.A.A.A.A.A.A.A.A.A.A.A.A.A.A.A.A.A.A.A.Y.n.a o ,                                                                                                                                                                                                                                                                                                                                                         ",
"h.                          o % K A.D.D.G.J.J.G.G.G.J.J.G.G.G.D.D.G.K.B.z.K D Z C a u K M.J.J.A.A.A.A.A.A.A.A.A.A.A.A.A.D.G.N.l.H d 6 o o o o ,                                                                                     o 6 g.J.A.A.A.A.A.A.A.A.A.A.A.A.A.A.A.A.A.A.A.A.A.A.A.A.A.A.A.A.A.A.A.A.A.A.G.Y.m.F % o k ~.7XtXtXtXtXtXtXtXtXtXtXtXtXtXtXtXtXtXtXtXtXtXtXtXtXtXtXtXtXtXtXtXtXtXtXtXtXtXtXtXtX4X!.g o ; F k.D % o g Q.>X0XqX9X9X9X9X9X9X9X9X9X9X9X9X9X9X9X9X9X9X9X9X9X9X9X9X9X9X9X9X9X9X9X0X0X9X6X,X]._.) 1 o = = o o 3 z V *.5.q.e.e.0.0.0.0.0.0.0.0.0.0.0.0.0.0.0.0.0.0.0.0.0.0.0.0.e.8.V - o G B.I.A.A.A.A.A.A.A.A.A.A.A.A.A.A.A.A.A.A.A.A.A.A.A.A.A.A.A.A.A.A.A.A.A.A.A.A.A.A.A.A.A.A.A.A.A.A.A.A.A.A.A.A.A.A.A.A.A.A.A.A.A.A.A.A.A.A.A.A.A.A.A.A.A.A.A.A.A.K.B.S o o                                                                                                                                                                                                                                                                                                                                                         ",
"h.                          o : f.D.D.M.x.j.f.d.d.s.f.g.k.x.b.N.Z.G.J.I.J.Z.B.B.b.Z : s.J.G.A.A.A.A.A.A.A.A.A.A.A.A.A.A.A.G.K.J.C.n.j.S : o # o o o ,                                                                               o 6 g.J.A.A.A.A.A.A.A.A.A.A.A.A.A.A.A.A.A.A.A.A.A.A.A.A.A.A.A.A.A.A.A.A.A.A.A.G.I.B.i.i o 5 E `.8XtXtXtXtXtXtXtXtXtXtXtXtXtXtXtXtXtXtXtXtXtXtXtXtXtXtXtXtXtXtXtXtXtXtXtXtX7X).I < o i i.m.L ; ; E '.9XqX0X9X9X9X9X9X9X9X9X9X9X9X9X9X9X6X9X9X9X9X9X9X9X9X9X9X9X9X9X9X6X5X>X'./.Q.) I g 9 < % o - e c  .=.5.0.e.e.w.0.0.0.0.0.0.0.0.0.0.0.0.0.0.0.0.0.0.0.0.0.0.0.0.0.0.0.e.7.n # ; i.Z.J.A.A.A.A.A.A.A.A.A.A.A.A.A.A.A.A.A.A.A.A.A.A.A.A.A.A.A.A.A.A.A.A.A.A.A.A.A.A.A.A.A.A.A.A.A.A.A.A.A.A.A.A.A.A.A.A.A.A.A.A.A.A.A.A.A.A.A.A.A.A.A.A.A.A.A.A.G.A.G o o                                                                                                                                                                                                                                                                                                                                                         ",
"h.                          o 7 j.J.B.J 8 6 : : : ; : : 7 u s S J j.b.C.J.I.J.Y.M.d o K A.D.A.A.A.A.A.A.A.A.A.A.A.A.A.A.A.A.A.D.G.K.I.d.: 3 r 4 $ o o o o 1                                                                         o 6 g.J.A.A.A.A.A.A.A.A.A.A.A.A.A.A.A.A.A.A.A.A.A.A.A.A.A.A.A.A.A.A.A.A.A.A.A.A.D.J.Z.z.S : o t ) '.8XtXtXtXtXtXtXtXtXtXtXtXtXtXtXtXtXtXtXtXtXtXtXtXtXtXtXtXtXtXtXtXtX7X).E 9 o 6 D z.D.x.i o < Y ~.;X5X9X9X0X0X0X0X0X0X0X0X0X0X0X0X0X0X0X0X0X0X9X9X9X6X5X,X;X'./.!._ T l f 9 = % # $ 4 r c V &.3.7.0.q.w.w.q.0.0.0.0.0.0.0.0.0.0.0.0.0.0.0.0.0.0.0.0.0.0.0.0.0.0.0.0.0.0.e.4.x o u l.J.G.A.A.A.A.A.A.A.A.A.A.A.A.A.A.A.A.A.A.A.A.A.A.A.A.A.A.A.A.A.A.A.A.A.A.A.A.A.A.A.A.A.A.A.A.A.A.A.A.A.A.A.A.A.A.A.A.A.A.A.A.A.A.A.A.A.A.A.A.A.A.A.A.A.A.A.D.J.i.; o                                                                                                                                                                                                                                                                                                                                                         ",
"h.                          o u z.K.N.G 6 8 i p a a p i 7 : ; o o 6 d H z.V.K.R.v.p % d.D.D.A.A.A.A.A.A.A.A.A.A.A.A.A.A.A.A.A.A.A.J.G.H o e V B c r 3 # o o o &                                                                     o 6 g.J.A.A.A.A.A.A.A.A.A.A.A.A.A.A.A.A.A.A.A.A.A.A.A.A.A.A.A.A.A.A.A.A.A.A.A.A.A.A.D.G.m.i.s % # t ( ).4XrXtXtXtXtXtXtXtXtXtXtXtXtXtXtXtXtXtXtXtXtXtXtXtXtXtXtXwX:X!.Y 9 o ; C f.M.J.G.i.% = 1 o 1 g T ` ~.`.;X>X<X5X5X5X6X6X5X5X5X<X,X>X;X].`._.~.Q._ E I k f 1 % o o $ - 4 r x m  .*.3.5.0.q.q.q.q.0.0.0.0.0.0.0.0.0.0.0.0.0.0.0.0.0.0.0.0.0.0.0.0.0.0.0.0.0.0.0.0.0.0.0.e.=.e o C b.K.D.A.A.A.A.A.A.A.A.A.A.A.A.A.A.A.A.A.A.A.A.A.A.A.A.A.A.A.A.A.A.A.A.A.A.A.A.A.A.A.A.A.A.A.A.A.A.A.A.A.A.A.A.A.A.A.A.A.A.A.A.A.A.A.A.A.A.A.A.A.A.A.A.A.A.D.I.j.6 o                                                                                                                                                                                                                                                                                                                                                         ",
"h.                        , o i x.G.Z.n.z.z.c.v.b.b.v.x.z.g.K D s 6 o o u G c.R.x.8 : k.D.D.A.A.A.A.A.A.A.A.A.A.A.A.A.A.A.A.A.A.A.I.B.S o y O.#.+...m x w - o o o o ,                                                               o : f.J.A.A.A.A.A.A.A.A.A.A.A.A.A.A.A.A.A.A.A.A.A.A.A.A.A.A.A.A.A.A.A.A.A.A.A.A.A.A.A.A.G.Z.b.K s % o 5 P ` '.4XrXtXtXtXtXtXtXtXtXtXtXtXtXtXtXtXtXtXtXtXtXwX1X/.) g - o : C s.m.G.G.J.V.F o P !.T 0 % o o = 0 f l I Y E ^ ^ ( ^ E T I P l k f q 1 : % o o o $ - 4 e z v V X.=.3.5.8.w.w.0.0.0.0.0.0.0.0.0.0.0.0.0.0.0.0.0.0.0.0.0.0.0.0.0.0.0.0.0.0.0.0.0.0.0.0.0.0.0.0.0.0.w.w.X.3 % H V.G.A.A.A.A.A.A.A.A.A.A.A.A.A.A.A.A.A.A.A.A.A.A.A.A.A.A.A.A.A.A.A.A.A.A.A.A.A.A.A.A.A.A.A.A.A.A.A.A.A.A.A.A.A.A.A.A.A.A.A.A.A.A.A.A.A.A.A.A.A.A.A.A.A.A.A.Y.x.u o ,                                                                                                                                                                                                                                                                                                                                                       ",
"h.                        , o p x.G.D.G.K.I.J.J.J.J.J.K.I.I.J.V.n.j.G p o o i d.s.6 u x.G.D.A.A.A.A.A.A.A.A.A.A.A.A.A.A.A.A.A.A.A.Y.n.a o c +.@.+.@.$.+.] n z 4 $ o o o o ,                                                         o : f.J.A.A.A.A.A.A.A.A.A.A.A.A.A.A.A.A.A.A.A.A.A.A.A.A.A.A.A.A.A.A.A.A.A.A.A.A.A.A.A.A.A.D.J.A.b.i.d : o o 9 l ) ~.].4X8XrXtXtXtXtXtXtXtXtXtXrXwX7X:X`.Q.E g - o o 7 S f.m.J.J.A.A.J.M.d o ` tX8X'.Q.^ l q 1 % o o o o o o o o o o o o o o $ - 4 w r x v m  .X.=.3.5.7.q.e.e.w.q.q.0.0.0.0.0.0.0.0.0.0.0.0.0.0.0.0.0.0.0.0.0.0.0.0.0.0.0.0.0.0.0.0.0.0.0.0.0.0.0.0.0.0.0.0.0.e.8.n o 8 k.G.D.A.A.A.A.A.A.A.A.A.A.A.A.A.A.A.A.A.A.A.A.A.A.A.A.A.A.A.A.A.A.A.A.A.A.A.A.A.A.A.A.A.A.A.A.A.A.A.A.A.A.A.A.A.A.A.A.A.A.G.J.G.D.D.A.A.A.A.A.A.A.A.A.A.A.I.b.a o &                                                                                                                                                                                                                                                                                                                                                       ",
"h.                        , o p c.G.D.A.A.A.A.A.A.A.A.A.A.A.D.G.I.I.Z.v.H u o % i ; d n.G.A.A.A.A.A.A.A.A.A.A.A.A.A.A.A.A.A.A.A.D.Y.l.6 - m #.@.+.+.+.@.$.$.O.V b y 3 o o o o o 1                                                   o ; d.G.A.A.A.A.A.A.A.A.A.A.A.A.A.A.A.A.A.A.A.A.A.A.A.A.A.A.A.A.A.A.A.A.A.A.A.A.A.A.A.A.A.A.A.G.I.J.M.j.F p % o o # 0 k Y ) Q.!.~./.).)./.~.Q._ E A f 3 o o o 6 C J z.B.I.I.D.A.A.D.G.c.8 = /.tXtXtXtXwX4X;X`.~.Q.P % 3 x c c c v v n m V  .X.&.=.3.4.5.7.0.e.r.r.e.e.w.q.0.0.0.0.0.0.0.0.0.0.0.0.0.0.0.0.0.0.0.0.0.0.0.0.0.0.0.0.0.0.0.0.0.0.0.0.0.0.0.0.0.0.0.0.0.0.0.0.0.0.0.r.3.r o S M.J.A.A.A.A.A.A.A.A.A.A.A.A.A.A.A.A.A.A.A.A.A.A.A.A.A.A.A.A.A.A.A.A.A.A.A.A.A.A.A.A.A.A.A.A.A.A.A.A.A.A.A.A.A.A.A.A.A.G.K.J.I.Y.Y.Y.Y.I.K.J.G.D.D.A.A.A.K.m.C o &                                                                                                                                                                                                                                                                                                                                                       ",
"h.                        , o p x.G.D.A.A.A.A.A.A.A.A.A.A.A.A.A.A.D.J.Y.D.x.S % o o S N.G.A.A.A.A.A.A.A.A.A.A.A.A.A.A.A.A.A.A.A.G.J.L o 4 V $.$.@.+.+.+.+.@.#.$.#.O.B c e - o o o o &                                               o ; i.G.D.A.A.A.A.A.A.A.A.A.A.A.A.A.A.A.A.A.A.A.A.A.A.A.A.A.A.A.A.A.A.A.A.A.A.A.A.A.A.A.A.A.A.A.A.G.I.I.C.b.g.G C 8 o o o o o o $ - 3 < $ # o o o o o : p S L z.N.G.Y.I.D.A.A.A.A.D.G.j.; 0 ].tXtXtXtXtXtXtXtXtXrX^ o c 5.7.7.7.7.8.0.0.w.e.r.r.r.r.r.e.e.w.q.0.0.0.0.0.0.0.0.0.0.0.0.0.0.0.0.0.0.0.0.0.0.0.0.0.0.0.0.0.0.0.0.0.0.0.0.0.0.0.0.0.0.0.0.0.0.0.0.0.0.0.0.0.0.0.0.0.q.e. .- : d.D.D.A.A.A.A.A.A.A.A.A.A.A.A.A.A.A.A.A.A.A.A.A.A.A.A.A.A.A.A.A.A.A.A.A.A.A.A.A.A.A.A.A.A.A.A.A.A.A.A.A.A.A.A.A.A.A.G.N.f.H i.g.z.v.m.N.V.D.J.I.Y.Y.I.I.Y.B.S o &                                                                                                                                                                                                                                                                                                                                                       ",
"h.                        1 o u x.G.D.A.A.A.A.A.A.A.A.A.A.A.A.A.A.A.A.A.K.Y.V.H o o H Z.G.A.A.A.A.A.A.A.A.A.A.A.A.A.A.A.A.A.A.A.I.V.D o 4 z b V O.$.#.+.+.+.+.+.@.$.$.@...m x w = o o o o ,                                         o % K D.D.A.A.A.A.A.A.A.A.A.A.A.A.A.A.A.A.A.A.A.A.A.A.A.A.A.A.A.A.A.A.A.A.A.A.A.A.A.A.A.A.A.A.A.A.A.A.D.K.Y.I.A.N.c.j.K F Z s p u 8 7 7 8 i s C D H d.l.n.V.J.Y.I.J.D.A.A.A.A.A.A.D.A.L o k 2XtXtXtXtXtXtXtXtXtX1Xg o  .e.r.e.e.e.e.w.w.w.q.q.q.0.0.0.0.0.0.0.0.0.0.0.0.0.0.0.0.0.0.0.0.0.0.0.0.0.0.0.0.0.0.0.0.0.0.0.0.0.0.0.0.0.0.0.0.0.0.0.0.0.0.0.0.0.0.0.0.0.0.0.0.0.0.0.0.0.e.5.c o d n.J.A.A.A.A.A.A.A.A.A.A.A.A.A.A.A.A.A.A.A.A.A.A.A.A.A.A.A.A.A.A.A.A.A.A.A.A.A.A.A.A.A.A.A.A.A.A.A.A.A.A.A.A.A.A.D.K.f.6 o o : 7 u a C S G K d.k.x.b.m.B.N.D % o                                                                                                                                                                                                                                                                                                                                                       ",
"h.                          o 8 l.G.D.A.A.A.A.A.A.A.A.A.A.A.A.A.A.A.A.A.A.G.E.j.; ; j.G.D.A.A.A.A.A.A.A.A.A.A.A.A.A.A.A.A.A.A.D.Y.b.p # 3 $ $ 4 z n ] +.#.@.+.+.+.+.+.#.$.$.+.] n z 4 $ o o o o ,                                   o % H A.D.A.A.A.A.A.A.A.A.A.A.A.A.A.A.A.A.A.A.A.A.A.A.A.A.A.A.A.A.A.A.A.A.A.A.A.A.A.A.A.A.A.A.A.A.A.A.A.A.A.G.J.I.I.K.D.C.B.M.n.v.c.x.c.c.b.m.N.V.Z.J.I.I.I.G.D.A.A.A.A.A.A.A.A.A.G.V.F o T 8XtXtXtXtXtXtXtXtXtX~.% 4 =.w.0.0.0.0.0.0.0.0.0.0.0.0.0.0.0.0.0.0.0.0.0.0.0.0.0.0.0.0.0.0.0.0.0.0.0.0.0.0.0.0.0.0.0.0.0.0.0.0.0.0.0.0.0.0.0.0.0.0.0.0.0.0.0.0.0.0.0.0.0.0.0.0.0.0.0.0.0.w.&.4 ; s.G.D.A.A.A.A.A.A.A.A.A.A.A.A.A.A.A.A.A.A.A.A.A.A.A.A.A.A.A.A.A.A.A.A.A.A.A.A.A.A.A.A.A.A.A.A.A.A.A.A.A.A.A.A.A.G.G.G o o o o o o o o o o o ; 6 8 p d Z D a % o                                                                                                                                                                                                                                                                                                                                                       ",
"h.                          o 6 g.D.D.A.A.A.A.A.A.A.A.A.A.A.A.A.A.A.A.A.A.J.A.H o s n.J.D.A.A.A.A.A.A.A.A.A.A.A.A.A.A.A.A.A.A.G.I.j.; - x y 3 o o - w x m ..+.@.@.@.+.+.+.@.#.$.@.O.V b r 4 $ o o o o 1                             o o G C.D.A.A.A.A.A.A.A.A.A.A.A.A.A.A.A.A.A.A.A.A.A.A.A.A.A.A.A.A.A.A.A.A.A.A.A.A.A.A.A.A.A.A.A.A.A.A.A.A.A.A.A.A.D.G.G.J.I.I.I.I.I.I.I.I.I.I.I.K.J.G.D.A.A.A.A.A.A.A.A.A.A.A.A.A.G.M.Z o _ tXtXtXtXtXtXtXtXtX8XT o c 5.w.0.0.0.0.0.0.0.0.0.0.0.0.0.0.0.0.0.0.0.0.0.0.0.0.0.0.0.0.0.0.0.0.0.0.0.0.0.0.0.0.0.0.0.0.0.0.0.0.0.0.0.0.0.0.0.0.0.0.0.0.0.0.0.0.0.0.0.0.0.0.0.0.0.0.0.0.0.q.5.c # C m.K.A.A.A.A.A.A.A.A.A.A.A.A.A.A.A.A.A.A.A.A.A.A.A.A.A.A.A.A.A.A.A.A.A.A.A.A.A.A.A.A.A.A.A.A.A.A.A.A.A.A.A.A.A.J.Z.F o o o o o % o o o o o o o o o o o o o o o                                                                                                                                                                                                                                                                                                                                                       ",
"h.                          o ; i.A.D.A.A.A.A.A.A.A.A.A.A.A.A.A.A.A.A.A.D.Y.n.a o G C.J.A.A.A.A.A.A.A.A.A.A.A.A.A.A.A.A.A.A.A.J.Z.G o w ] ..m x e - o # 3 r c B ..+.@.@.@.+.+.+.@.#.@.@...B c e 3 # o o o &                         o o D B.G.A.A.A.A.A.A.A.A.A.A.A.A.A.A.A.A.A.A.A.A.A.A.A.A.A.A.A.A.A.A.A.A.A.A.A.A.A.A.A.A.A.A.A.A.A.A.A.A.A.A.A.A.A.A.A.A.A.A.D.D.D.D.D.D.D.A.A.A.A.A.A.A.A.A.A.A.A.A.A.A.A.A.A.A.G.b.a = !.tXtXtXtXtXtXtXtXtX].q o  .q.q.0.0.0.0.0.0.0.0.0.0.0.0.0.0.0.0.0.0.0.0.0.0.0.0.0.0.0.0.0.0.0.0.0.0.0.0.0.0.0.0.0.0.0.0.0.0.0.0.0.0.0.0.0.0.0.0.0.0.0.0.0.0.0.0.0.0.0.0.0.0.0.0.0.0.0.0.0.0.q.X.3 6 j.I.D.A.A.A.A.A.A.A.A.A.A.A.A.A.A.A.A.A.A.A.A.A.A.A.A.A.A.A.A.A.A.A.A.A.A.A.A.A.A.A.A.A.A.A.A.A.A.A.A.A.A.A.A.G.D.J % o o o o % o o o o o o o o o o o o o o o                                                                                                                                                                                                                                                                                                                                                       ",
"h.                          o o H C.D.A.A.A.A.A.A.A.A.A.A.A.A.A.A.A.A.A.J.J.s.% 6 l.J.G.A.A.A.A.A.A.A.A.A.A.A.A.A.A.A.A.A.A.A.I.m.s o z +.$.@.O.] n z 4 = o o 4 y b V O.#.$.#.@.+.+.+.@.@.@.+.] n 4 o = $ o o o &                   o o S N.G.A.A.A.A.A.A.A.A.A.A.A.A.A.A.A.A.A.A.A.A.A.A.A.A.A.A.A.A.A.A.A.A.A.A.A.A.A.A.A.A.A.A.A.A.A.A.A.A.A.A.A.A.A.A.A.A.A.A.A.A.A.A.A.A.A.A.A.A.A.A.A.A.A.A.A.A.A.A.A.A.A.A.A.A.G.z.7 9 `.tXtXtXtXtXtXtXtXtX` o e 3.e.0.0.0.0.0.0.0.0.0.0.0.0.0.0.0.0.0.0.0.0.0.0.0.0.0.0.0.0.0.0.0.0.0.0.0.0.0.0.0.0.0.0.0.0.0.0.0.0.0.0.0.0.0.0.0.0.0.0.0.0.0.0.0.0.0.0.0.0.0.0.0.0.0.0.0.0.0.0.0.q.4.z o F C.J.A.A.A.A.A.A.A.A.A.A.A.A.A.A.A.A.A.A.A.A.A.A.A.A.A.A.A.A.A.A.A.A.A.A.A.A.A.A.A.A.A.A.A.A.A.A.A.A.A.A.A.A.D.G.b.H Z C s p u 7 : ; o o o o o o o o o o o o                                                                                                                                                                                                                                                                                                                                                       ",
"h.                          o o S N.G.A.A.A.A.A.A.A.A.A.A.A.A.A.A.A.A.D.I.m.d o Z N.I.A.A.A.A.A.A.A.A.A.A.A.A.A.A.A.A.A.A.A.G.J.j.: $ n $.@.+.@.@.#.O.V b y 3 # o $ 4 z n ] +.$.$.@.+.+.+.+.+.#...e = N W h < o o o o ,             o o C m.G.A.A.A.A.A.A.A.A.A.A.A.A.A.A.A.A.A.A.A.A.A.A.A.A.A.A.A.A.A.A.A.A.A.A.A.A.A.A.A.A.A.A.A.A.A.A.A.A.A.A.A.A.A.A.A.A.A.A.A.A.A.A.A.A.A.A.A.A.A.A.A.A.A.A.A.A.A.A.A.A.A.A.A.A.G.j.; f ;XtXtXtXtXtXtXtXtX2Xk o n 8.e.0.0.0.0.0.0.0.0.0.0.0.0.0.0.0.0.0.0.0.0.0.0.0.0.0.0.0.0.0.0.0.0.0.0.0.0.0.0.0.0.0.0.0.0.0.0.0.0.0.0.0.0.0.0.0.0.0.0.0.0.0.0.0.0.0.0.0.0.0.0.0.0.0.0.0.0.0.0.0.q.8.V # a b.Y.A.A.A.A.A.A.A.A.A.A.A.A.A.A.A.A.A.A.A.A.A.A.A.A.A.A.A.A.A.A.A.A.A.A.A.A.A.A.A.A.A.A.A.A.A.A.A.A.A.A.A.A.A.D.D.V.N.m.b.c.z.k.f.i.H F D Z d a u 7 6 : o o                                                                                                                                                                                                                                                                                                                                                       ",
"h.                          o o a v.G.A.A.A.A.A.A.A.A.A.A.A.A.A.A.A.A.K.A.J o ; j.I.G.A.A.A.A.A.A.A.A.A.A.A.A.A.A.A.A.A.A.A.J.V.F o w ] $.+.+.+.+.+.@.#.#.O.V c r 3 o o $ w x B ..@.$.$.@.+.+.@.] 4 < >.$X X>.N q $ o o o o         & o s b.J.A.A.A.A.A.A.A.A.A.A.A.A.A.A.A.A.A.A.A.A.A.A.A.A.A.A.A.A.A.A.A.A.A.A.A.A.A.A.A.A.A.A.A.A.A.A.A.A.A.A.A.A.A.A.A.A.A.A.A.A.A.A.A.A.A.A.A.A.A.A.A.A.A.A.A.A.A.A.A.A.A.A.A.D.D.i.% k 2XtXtXtXtXtXtXtXtX!.% 3 *.e.q.0.0.0.0.0.0.0.0.0.0.0.0.0.0.0.0.0.0.0.0.0.0.0.0.0.0.0.0.0.0.0.0.0.0.0.0.0.0.0.0.0.0.0.0.0.0.0.0.0.0.0.0.0.0.0.0.0.0.0.0.0.0.0.0.0.0.0.0.0.0.0.0.0.0.0.0.0.0.0.0.q.=.4 ; f.I.G.A.A.A.A.A.A.A.A.A.A.A.A.A.A.A.A.A.A.A.A.A.A.A.A.A.A.A.A.A.A.A.A.A.A.A.A.A.A.A.A.A.A.A.A.A.A.A.A.A.A.A.A.A.A.D.G.G.J.J.K.I.I.J.D.C.B.N.m.b.x.l.j.D % o                                                                                                                                                                                                                                                                                                                                                       ",
"h.                          , o 6 j.J.A.A.A.A.A.A.A.A.A.A.A.A.A.A.A.J.K.k.7 o D V.I.A.A.A.A.A.A.A.A.A.A.A.A.A.A.A.A.A.A.A.D.K.v.i o x @.#.+.+.+.+.+.+.+.+.@.$.#...B x w $ o o - r c V O.$.$.#.@.B 3 1 t.3X-X=X+X(.! M 9 o o o o &   & o i x.I.A.A.A.A.A.A.A.A.A.A.A.A.A.A.A.A.A.A.A.A.A.A.A.A.A.A.A.A.A.A.A.A.A.A.A.A.A.A.A.A.A.A.A.A.A.A.A.A.A.A.A.A.A.A.A.A.A.A.A.A.A.A.A.A.A.A.A.A.A.A.A.A.A.A.A.A.A.A.A.A.A.A.A.D.C.H o I 7XtXtXtXtXtXtXtX4XA o c 7.e.0.0.0.0.0.0.0.0.0.0.0.0.0.0.0.0.0.0.0.0.0.0.0.0.0.0.0.0.0.0.0.0.0.0.0.0.0.0.0.0.0.0.0.0.0.0.0.0.0.0.0.0.0.0.0.0.0.0.0.0.0.0.0.0.0.0.0.0.0.0.0.0.0.0.0.0.0.0.0.0.0.w.5.x o F C.K.A.A.A.A.A.A.A.A.A.A.A.A.A.A.A.A.A.A.A.A.A.A.A.A.A.A.A.A.A.A.A.A.A.A.A.A.A.A.A.A.A.A.A.A.A.A.A.A.A.A.A.A.A.A.A.A.A.A.A.A.A.D.D.G.G.G.J.I.I.Y.Y.Y.K % o                                                                                                                                                                                                                                                                                                                                                       ",
"h.                          , o o G C.D.A.A.A.A.A.A.A.A.A.A.A.A.D.I.G.l.a o p v.Y.D.A.A.A.A.A.A.A.A.A.A.A.A.A.A.A.A.A.A.A.G.A.J o 4 ] $.+.+.+.+.+.+.+.+.+.+.+.@.$.$.@.] n z 4 o o o 4 y n ] +.$.m - 0 ^.-X$X$X-X3X&XOX^.Q h < o o o o o 6 k.I.A.A.A.A.A.A.A.A.A.A.A.A.A.A.A.A.A.A.A.A.A.A.A.A.A.A.A.A.A.A.A.A.A.A.A.A.A.A.A.A.A.A.A.A.A.A.A.A.A.A.A.A.A.A.A.A.A.A.A.A.A.A.A.A.A.A.A.A.A.A.A.A.A.A.A.A.A.A.A.A.A.A.A.D.B.D o ( eXtXtXtXtXtXtXtX!.% - *.r.q.0.0.0.0.0.0.0.0.0.0.0.0.0.0.0.0.0.0.0.0.0.0.0.0.0.0.0.0.0.0.0.0.0.0.0.0.0.0.0.0.0.0.0.0.0.0.0.0.0.0.0.0.0.0.0.0.0.0.0.0.0.0.0.0.0.0.0.0.0.0.0.0.0.0.0.0.0.0.0.0.0.0.8.V o s m.Y.A.A.A.A.A.A.A.A.A.A.A.A.A.A.A.A.A.A.A.A.A.A.A.A.A.A.A.A.A.A.A.A.A.A.A.A.A.A.A.A.A.A.A.A.A.A.A.A.A.A.A.A.A.A.A.A.A.A.A.A.A.A.A.A.A.A.A.A.A.A.D.D.H % o                                                                                                                                                                                                                                                                                                                                                       ",
"h.                            o o s b.J.A.A.A.A.A.A.A.A.A.D.G.K.I.N.d.p o 8 j.I.J.Z.A.A.A.A.A.A.A.A.A.A.A.A.A.A.A.A.A.A.D.G.c.u o w B +.$.#.@.+.+.+.+.+.+.+.+.+.+.+.#.$.$.O.V b r 3 o o $ w x m c $ h  X=X$X$X$X$X*X-X-X$X.Xt.U t = o o o K I.D.A.A.A.A.A.A.A.A.A.A.A.A.A.A.A.A.A.A.A.A.A.A.A.A.A.A.A.A.A.A.A.A.A.A.A.A.A.A.A.A.A.A.A.A.A.A.A.A.A.A.A.A.A.A.A.A.A.A.A.A.A.A.A.A.A.A.A.A.A.A.A.A.A.A.A.A.A.A.A.A.A.A.G.M.C o T 8XtXtXtXtXtXtX1Xk o c 7.e.0.0.0.0.0.0.0.0.0.0.0.0.0.0.0.0.0.0.0.0.0.0.0.0.0.0.0.0.0.0.0.0.0.0.0.0.0.0.0.0.0.0.0.0.0.0.0.0.0.0.0.0.0.0.0.0.0.0.0.0.0.0.0.0.0.0.0.0.0.0.0.0.0.0.0.0.0.0.0.0.0.0.0.w.&.- 6 z.Y.D.A.A.A.A.A.A.A.A.A.A.A.A.A.A.A.A.A.A.A.A.A.A.A.A.A.A.A.A.A.A.A.A.A.A.A.A.A.A.A.A.A.A.A.A.A.A.A.A.A.A.A.A.A.A.A.A.A.A.A.A.A.A.A.A.A.A.A.A.A.G.Z.G % o                                                                                                                                                                                                                                                                                                                                                       ",
"h.                            & o : i.D.G.J.J.G.G.G.G.J.K.G.V.b.g.S : o i g.G.J.Z.A.A.A.A.A.A.A.D.G.G.D.A.A.A.A.A.A.A.A.D.D.K o o $ 4 y n ] O.#.@.+.+.+.+.+.+.+.+.+.+.+.@.$.$.@...B c e - o o 3 3 # j .X&X$X$X$X$X$X$X$X=X-X=X@X(.:.M = o G G.G.A.A.A.A.A.A.A.A.A.A.A.A.A.A.A.A.A.A.A.A.A.A.A.A.A.A.A.A.A.A.A.A.A.A.A.A.A.A.A.A.A.A.A.A.A.A.A.A.A.A.A.A.A.A.A.A.A.A.A.A.A.A.A.A.A.A.A.A.A.A.A.A.A.A.A.A.A.A.A.A.A.A.G.n.a o q ].tXtXtXtXtXwX` o 4 =.r.q.0.0.0.0.0.0.0.0.0.0.0.0.0.0.0.0.0.0.0.0.0.0.0.0.0.0.0.0.0.0.0.0.0.0.0.0.0.0.0.0.0.0.0.0.0.0.0.0.0.0.0.0.0.0.0.0.0.0.0.0.0.0.0.0.0.0.0.0.0.0.0.0.0.0.0.0.0.0.0.0.0.0.0.e.3.w o s.K.G.A.A.A.A.A.A.A.A.A.A.A.A.A.A.A.A.A.A.A.A.A.A.A.A.A.A.A.A.A.A.A.A.A.A.A.A.A.A.A.A.A.A.A.A.A.A.A.A.A.A.A.A.A.A.A.A.A.A.A.A.A.A.A.A.A.A.A.A.A.G.C.F % o                                                                                                                                                                                                                                                                                                                                                       ",
"h.                            1 o o a H s.g.l.z.x.x.z.l.g.K D s 6 o ; Z l.D.J.A.A.A.A.A.A.A.A.G.Z.m.n.B.G.G.D.D.A.A.A.A.G.m.Z o 3 4 # o - w x m ] +.@.@.@.+.+.+.+.+.+.+.+.+.+.@.$.#.+.] m x w $ o o N +X$X$X$X$X$X$X$X$X$X$X&X=X=X$X Xj o F C.G.A.A.A.A.A.A.A.A.A.A.A.A.A.A.A.A.A.A.A.A.A.A.A.A.A.A.A.A.A.A.A.A.A.A.A.A.A.A.A.A.A.A.A.A.A.A.A.A.A.A.A.A.A.A.A.A.A.A.A.A.A.A.A.A.A.A.A.A.A.A.A.A.A.A.A.A.A.A.A.A.A.A.G.v.p o o _ rXtXtXtXtX`.q o m 8.e.0.0.0.0.0.0.0.0.0.0.0.0.0.0.0.0.0.0.0.0.0.0.0.0.0.0.0.0.0.0.0.0.0.0.0.0.0.0.0.0.0.0.0.0.0.0.0.0.0.0.0.0.0.0.0.0.0.0.0.0.0.0.0.0.0.0.0.0.0.0.0.0.0.0.0.0.0.0.0.0.0.0.0.0.e.5.z o G Z.K.A.A.A.A.A.A.A.A.A.A.A.A.A.A.A.A.A.A.A.A.A.A.A.A.A.A.A.A.A.A.A.A.A.A.A.A.A.A.A.A.A.A.A.A.A.A.A.A.A.A.A.A.A.A.A.A.A.A.A.A.A.A.A.A.A.A.A.A.A.G.V.D o o                                                                                                                                                                                                                                                                                                                                                       ",
"h.                              & o o ; : 6 7 8 u u 8 7 : ; % % 7 Z s.n.G.G.A.A.A.A.A.A.A.D.K.C.j.Z d G j.m.Z.G.G.G.D.A.G.f.6 - b V c e - # # 3 r c V O.@.@.@.@.+.+.+.+.+.+.+.+.+.@.@.#.@.O.] c 3 $ ! $X$X$X$X$X$X$X$X$X$X$X$X$X$X*X$XQ # Z N.K.A.A.A.A.A.A.A.A.A.A.A.A.A.A.A.A.A.A.A.A.A.A.A.A.A.A.A.A.A.A.A.A.A.A.A.A.A.A.A.A.A.A.A.A.A.A.A.A.A.A.A.A.A.A.A.A.A.A.A.A.A.A.A.A.A.A.A.A.A.A.A.A.A.A.A.A.A.A.A.A.A.A.G.x.i # o g :XtXtXtX:XP o y 3.r.0.0.0.0.0.0.0.0.0.0.0.0.0.0.0.0.0.0.0.0.0.0.0.0.0.0.0.0.0.0.0.0.0.0.0.0.0.0.0.0.0.0.0.0.0.0.0.0.0.0.0.0.0.0.0.0.0.0.0.0.0.0.0.0.0.0.0.0.0.0.0.0.0.0.0.0.0.0.0.0.0.0.0.0.0.w.8.v o Z B.I.A.A.A.A.A.A.A.A.A.A.A.A.A.A.A.A.A.A.A.A.A.A.A.A.A.A.A.A.A.A.A.A.A.A.A.A.A.A.A.A.A.A.A.A.A.A.A.A.A.A.A.A.A.A.A.A.A.A.A.A.A.A.A.A.A.A.A.A.A.J.N.Z o o                                                                                                                                                                                                                                                                                                                                                       ",
"h.                              1 o o % u p 8 6 6 6 6 7 u s S J k.m.A.G.D.A.A.A.A.A.A.A.G.I.N.L u o o o 7 C K x.B.G.K.I.m.Z o r ..$.+.] n z w = o # 4 y n ] O.#.#.@.+.+.+.+.+.+.+.+.+.+.@.@.$.V 3 1 t.&X$X$X$X$X$X$X$X$X$X$X$X$X$X$X$X:.$ s n.I.A.A.A.A.A.A.A.A.A.A.A.A.A.A.A.A.A.A.A.A.A.A.A.A.A.A.A.A.A.A.A.A.A.A.A.A.A.A.A.A.A.A.A.A.A.A.A.A.A.A.A.A.A.A.A.A.A.A.A.A.A.A.A.A.A.A.A.A.A.A.A.A.A.A.A.A.A.A.A.A.A.A.G.z.u - 4 o ) 8XtX2X^ o 4 X.0.0.0.0.0.0.0.0.0.0.0.0.0.0.0.0.0.0.0.0.0.0.0.0.0.0.0.0.0.0.0.0.0.0.0.0.0.0.0.0.0.0.0.0.0.0.0.0.0.0.0.0.0.0.0.0.0.0.0.0.0.0.0.0.0.0.0.0.0.0.0.0.0.0.0.0.0.0.0.0.0.0.0.0.0.0.0.w.0.V o s m.I.A.A.A.A.A.A.A.A.A.A.A.A.A.A.A.A.A.A.A.A.A.A.A.A.A.A.A.A.A.A.A.A.A.A.A.A.A.A.A.A.A.A.A.A.A.A.A.A.A.A.A.A.A.A.A.A.A.A.A.A.A.A.A.A.A.A.A.A.A.J.m.C o o                                                                                                                                                                                                                                                                                                                                                       ",
"h.                                , o o s f.x.l.j.j.k.z.x.n.N.Z.G.G.D.A.A.A.A.A.A.A.G.I.G.v.F : o o o o o o % i D f.n.Z.d.6 - n @.@.@.@.@.O.V b y 4 # o $ w x m ..@.$.$.@.+.+.+.+.+.+.+.+.+.$.n $ t (.&X$X$X$X$X$X$X$X$X$X$X$X$X$X$X$Xy.3 8 x.Y.A.A.A.A.A.A.A.A.A.A.A.A.A.A.A.A.A.A.A.A.A.A.A.A.A.A.A.A.A.A.A.A.A.A.A.A.A.A.A.A.A.A.A.A.A.A.A.A.A.A.A.A.A.A.A.A.A.A.A.A.A.A.A.A.A.A.A.A.A.A.A.A.A.A.A.A.A.A.A.A.A.A.J.k.7 w c # < _ ).T o - V 7.0.0.0.0.0.0.0.0.0.0.0.0.0.0.0.0.0.0.0.0.0.0.0.0.0.0.0.0.0.0.0.0.0.0.0.0.0.0.0.0.0.0.0.0.0.0.0.0.0.0.0.0.0.0.0.0.0.0.0.0.0.0.0.0.0.0.0.0.0.0.0.0.0.0.0.0.0.0.0.0.0.0.0.0.0.0.0.q.w.X.# u v.I.D.A.A.A.A.A.A.A.A.A.A.A.A.A.A.A.A.A.A.A.A.A.A.A.A.A.A.A.A.A.A.A.A.A.A.A.A.A.A.A.A.A.A.A.A.A.A.A.A.A.A.A.A.A.A.A.A.A.A.A.A.A.A.A.A.A.A.A.A.I.b.a o &                                                                                                                                                                                                                                                                                                                                                       ",
"h.                                  o o o Z b.E.R.I.I.K.J.G.G.D.A.A.A.A.A.A.A.A.D.I.I.B.f.s % o o &   , & o o o o : s G C = y O.$.@.+.+.+.@.#.#.O.B c e - o o - e c V O.$.$.#.+.+.+.+.+.+.@.+.x # j .X&X$X$X$X$X$X$X$X$X$X$X$X$X$X$X$X(.t : g.I.D.A.A.A.A.A.A.A.A.A.A.A.A.A.A.A.A.A.A.A.A.A.A.A.A.A.A.A.A.A.A.A.A.A.A.A.A.A.A.A.A.A.A.A.A.A.A.A.A.A.A.A.A.A.A.A.A.A.A.A.A.A.A.A.A.A.A.A.A.A.A.A.A.A.A.A.A.A.A.A.A.A.J.g.: e &.v o o : o - m 5.w.0.0.0.0.0.0.0.0.0.0.0.0.0.0.0.0.0.0.0.0.0.0.0.0.0.0.0.0.0.0.0.0.0.0.0.0.0.0.0.0.0.0.0.0.0.0.0.0.0.0.0.0.0.0.0.0.0.0.0.0.0.0.0.0.0.0.0.0.0.0.0.0.0.0.0.0.0.0.0.0.0.0.0.0.0.0.0.0.e.&.- 6 z.I.D.A.A.A.A.A.A.A.A.A.A.A.A.A.A.A.A.A.A.A.A.A.A.A.A.A.A.A.A.A.A.A.A.A.A.A.A.A.A.A.A.A.A.A.A.A.A.A.A.A.A.A.A.A.A.A.A.A.A.A.A.A.A.A.A.A.A.A.A.I.x.u o &                                                                                                                                                                                                                                                                                                                                                       ",
"h.                                    o o o s k.Z.Y.K.D.A.A.A.A.A.A.A.A.A.D.G.I.Y.C.z.D 6 o o o 1           & o o o o o : = z V O.$.$.#.+.+.+.+.#.$.#...n z 4 # o o 3 y n ] @.$.$.@.+.+.+.$...e o W @X$X$X$X$X$X$X$X$X$X$X$X$X$X$X$X&X.Xj o J G.G.A.A.A.A.A.A.A.A.A.A.A.A.A.A.A.A.A.A.A.A.A.A.A.A.A.A.A.A.A.A.A.A.A.A.A.A.A.A.A.A.A.A.A.A.A.A.A.A.A.A.A.A.A.A.A.A.A.A.A.A.A.A.A.A.A.A.A.A.A.A.A.A.A.A.A.A.A.A.A.A.A.J.f.; e 3.5.n 4 3 y  .7.e.0.0.0.0.0.0.0.0.0.0.0.0.0.0.0.0.0.0.0.0.0.0.0.0.0.0.0.0.0.0.0.0.0.0.0.0.0.0.0.0.0.0.0.0.0.0.0.0.0.0.0.0.0.0.0.0.0.0.0.0.0.0.0.0.0.0.0.0.0.0.0.0.0.0.0.0.0.0.0.0.0.0.0.0.0.0.0.0.0.e.=.3 ; k.I.D.A.A.A.A.A.A.A.A.A.A.A.A.A.A.A.A.A.A.A.A.A.A.A.A.A.A.A.A.A.A.A.A.A.A.A.A.A.A.A.A.A.A.A.A.A.A.A.A.A.A.A.A.A.A.A.A.A.A.A.A.A.A.A.A.A.A.A.A.I.k.6 o &                                                                                                                                                                                                                                                                                                                                                       ",
"h.                                      o o o 6 G c.V.I.Y.I.J.G.G.G.J.K.Y.Y.J.N.l.F 8 o o o &                   1 & o o o o $ 4 y n ] @.$.$.@.+.+.+.@.$.$.+.] b y 3 o o # w x B ..#.$.#.+.$.B 3 < t.$X$X$X$X$X$X$X$X$X$X$X$X$X$X$X$X&X+XU o D V.K.A.A.A.A.A.A.A.A.A.A.A.A.A.A.A.A.A.A.A.A.A.A.A.A.A.A.A.A.A.A.A.A.A.A.A.A.A.A.A.A.A.A.A.A.A.A.A.A.A.A.A.A.A.A.A.A.A.A.A.A.A.A.A.A.A.A.A.A.A.A.A.A.A.A.A.A.A.A.A.A.A.G.d.; r 3.r.7.3.=.4.q.e.0.0.0.0.0.0.0.0.0.0.0.0.0.0.0.0.0.0.0.0.0.0.0.0.0.0.0.0.0.0.0.0.0.0.0.0.0.0.0.0.0.0.0.0.0.0.0.0.0.0.0.0.0.0.0.0.0.0.0.0.0.0.0.0.0.0.0.0.0.0.0.0.0.0.0.0.0.0.0.0.0.0.0.0.0.0.0.0.0.0.e.3.4 % g.K.G.A.A.A.A.A.A.A.A.A.A.A.A.A.A.A.A.A.A.A.A.A.A.A.A.A.A.A.A.A.A.A.A.A.A.A.A.A.A.A.A.A.A.A.A.A.A.A.A.A.A.A.A.A.A.A.A.A.A.A.A.A.A.A.A.A.A.A.D.I.s.; o ,                                                                                                                                                                                                                                                                                                                                                       ",
"h.                                        & o o o u F f.c.M.V.C.Z.C.V.M.b.l.K Z 7 o o o o ,                           , & o o o o $ w x B ..@.$.@.+.+.+.@.#.$.#.O.B c e $ o o 3 r c V O.$.$.c # h (.&X$X$X$X$X$X$X$X$X$X$X$X$X$X$X$X$X#X! # s m.Y.A.A.A.A.A.A.A.A.A.A.A.A.A.A.A.A.A.A.A.A.A.A.A.A.A.A.A.A.A.A.A.A.A.A.A.A.A.A.A.A.A.A.A.A.A.A.A.A.A.A.A.A.A.A.A.A.A.A.A.A.A.A.A.A.A.A.A.A.A.A.A.A.A.A.A.A.A.A.A.A.A.G.s.= r 3.w.e.r.r.r.w.0.0.0.0.0.0.0.0.0.0.0.0.0.0.0.0.0.0.0.0.0.0.0.0.0.0.0.0.0.0.0.0.0.0.0.0.0.0.0.0.0.0.0.0.0.0.0.0.0.0.0.0.0.0.0.0.0.0.0.0.0.0.0.0.0.0.0.0.0.0.0.0.0.0.0.0.0.0.0.0.0.0.0.0.0.0.0.0.0.0.0.r.3.w o d.J.G.A.A.A.A.A.A.A.A.A.A.A.A.A.A.A.A.A.A.A.A.A.A.A.A.A.A.A.A.A.A.A.A.A.A.A.A.A.A.A.A.A.A.A.A.A.A.A.A.A.A.A.A.A.A.A.A.A.A.A.A.A.A.A.A.A.A.A.G.D.G o o                                                                                                                                                                                                                                                                                                                                                         ",
"h.                                          , o o o o : i C D F G F D Z a 6 % o o o o &                                     & o o o o # 3 r b V O.#.@.+.+.+.+.@.$.$.@...n z 4 # o $ 4 y n V e o U +X$X$X$X$X$X$X$X$X$X$X$X$X$X$X$X$X$X$Xy.3 7 x.Y.D.A.A.A.A.A.A.A.A.A.A.A.A.A.A.A.A.A.A.A.A.A.A.A.A.A.A.A.A.A.A.A.A.A.A.A.A.A.A.A.A.A.A.A.A.A.A.A.A.A.A.A.A.A.A.A.A.A.A.A.A.A.A.A.A.A.A.A.A.A.A.A.A.A.A.A.A.A.A.A.A.G.s.= r 3.w.0.0.q.0.0.0.0.0.0.0.0.0.0.0.0.0.0.0.0.0.0.0.0.0.0.0.0.0.0.0.0.0.0.0.0.0.0.0.0.0.0.0.0.0.0.0.0.0.0.0.0.0.0.0.0.0.0.0.0.0.0.0.0.0.0.0.0.0.0.0.0.0.0.0.0.0.0.0.0.0.0.0.0.0.0.0.0.0.0.0.0.0.0.0.0.0.r.3.e o d.J.G.A.A.A.A.A.A.A.A.A.A.A.A.A.A.A.A.A.A.A.A.A.A.A.A.A.A.A.A.A.A.A.A.A.A.A.A.A.A.A.A.A.A.A.A.A.A.A.A.A.A.A.A.A.A.A.A.A.A.A.A.A.A.A.A.A.A.A.K.B.S o o                                                                                                                                                                                                                                                                                                                                                         ",
"h.                                              & o o o o o o o % % o o o o o o & ,                                             1 & o o o o $ 4 z n ] +.#.@.@.+.+.+.#.$.#.O.V b y 3 o o - 4 = 1 t.$X$X$X$X$X$X$X$X$X$X$X$X$X$X$X$X$X$X*X(.t o d.I.G.A.A.A.A.A.A.A.A.A.A.A.A.A.A.A.A.A.A.A.A.A.A.A.A.A.A.A.A.A.A.A.A.A.A.A.A.A.A.A.A.A.A.A.A.A.A.A.A.A.A.A.A.A.A.A.A.A.A.A.A.A.A.A.A.A.A.A.A.A.A.A.A.A.A.A.A.A.A.A.A.G.s.= r 3.w.0.0.0.0.0.0.0.0.0.0.0.0.0.0.0.0.0.0.0.0.0.0.0.0.0.0.0.0.0.0.0.0.0.0.0.0.0.0.0.0.0.0.0.0.0.0.0.0.0.0.0.0.0.0.0.0.0.0.0.0.0.0.0.0.0.0.0.0.0.0.0.0.0.0.0.0.0.0.0.0.0.0.0.0.0.0.0.0.0.0.0.0.0.0.0.0.r.3.e o d.J.G.A.A.A.A.A.A.A.A.A.A.A.A.A.A.A.A.A.A.A.A.A.A.A.A.A.A.A.A.A.A.A.A.A.A.A.A.A.A.A.A.A.A.A.A.A.A.A.A.A.A.A.A.A.A.A.A.A.A.A.A.A.A.A.A.A.A.A.Y.n.a o o                                                                                                                                                                                                                                                                                                                                                         ",
"h.                                                  1 , & o o o o o o o o & ,                                                         , o o o o o - e c B ..+.@.@.@.+.+.@.#.#.+...B c e - o o h  X*X$X$X$X$X$X$X$X$X$X$X$X$X$X$X$X$X$X*XOXM o G Z.J.A.A.A.A.A.A.A.A.A.A.A.A.A.A.A.A.A.A.A.A.A.A.A.A.A.A.A.A.A.A.A.A.A.A.A.A.A.A.A.A.A.A.A.A.A.A.A.A.A.A.A.A.A.A.A.A.A.A.A.A.A.A.A.A.A.A.A.A.A.A.A.A.A.A.A.A.A.A.A.A.G.d.; r 3.w.0.0.0.0.0.0.0.0.0.0.0.0.0.0.0.0.0.0.0.0.0.0.0.0.0.0.0.0.0.0.0.0.0.0.0.0.0.0.0.0.0.0.0.0.0.0.0.0.0.0.0.0.0.0.0.0.0.0.0.0.0.0.0.0.0.0.0.0.0.0.0.0.0.0.0.0.0.0.0.0.0.0.0.0.0.0.0.0.0.0.0.0.0.0.0.0.r.3.w o d.J.G.A.A.A.A.A.A.A.A.A.A.A.A.A.A.A.A.A.A.A.A.A.A.A.A.A.A.A.A.A.A.A.A.A.A.A.A.A.A.A.A.A.A.A.A.A.A.A.A.A.A.A.A.A.A.A.A.A.A.A.A.A.A.A.A.A.A.D.Y.z.7 o &                                                                                                                                                                                                                                                                                                                                                         ",
"h.                                                                                                                                          , o o o o $ 4 y b V O.@.#.#.+.+.+.@.@.@.+...c $ o W @X*X$X$X$X$X$X$X$X$X$X$X$X$X$X$X$X$X$X*X#XQ o C M.I.A.A.A.A.A.A.A.A.A.A.A.A.A.A.A.A.A.A.A.A.A.A.A.A.A.A.A.A.A.A.A.A.A.A.A.A.A.A.A.A.A.A.A.A.A.A.A.A.A.A.A.A.A.A.A.A.A.A.A.A.A.A.A.A.A.A.A.A.A.A.A.A.A.A.A.A.A.A.A.A.J.f.; e 3.w.0.0.0.0.0.0.0.0.0.0.0.0.0.0.0.0.0.0.0.0.0.0.0.0.0.0.0.0.0.0.0.0.0.0.0.0.0.0.0.0.0.0.0.0.0.0.0.0.0.0.0.0.0.0.0.0.0.0.0.0.0.0.0.0.0.0.0.0.0.0.0.0.0.0.0.0.0.0.0.0.0.0.0.0.0.0.0.0.0.0.0.0.0.0.0.0.e.3.w o f.K.G.A.A.A.A.A.A.A.A.A.A.A.A.A.A.A.A.A.A.A.A.A.A.A.A.A.A.A.A.A.A.A.A.A.A.A.A.A.A.A.A.A.A.A.A.A.A.A.A.A.A.A.A.A.A.A.A.A.A.A.A.A.A.A.A.A.A.G.I.s.; o &                                                                                                                                                                                                                                                                                                                                                         ",
"h.                                                                                                                                              , & o o o o - w z n ] @.$.$.@.+.+.+.#.$.b o 9 ^.*X$X$X$X$X$X$X$X$X$X$X$X$X$X$X$X$X$X$X&X&Xt.$ 7 x.Y.D.A.A.A.A.A.A.A.A.A.A.A.A.A.A.A.A.A.A.A.A.A.A.A.A.A.A.A.A.A.A.A.A.A.A.A.A.A.A.A.A.A.A.A.A.A.A.A.A.A.A.A.A.A.A.A.A.A.A.A.A.A.A.A.A.A.A.A.A.A.A.A.A.A.A.A.A.A.A.A.J.g.: w =.e.0.0.0.0.0.0.0.0.0.0.0.0.0.0.0.0.0.0.0.0.0.0.0.0.0.0.0.0.0.0.0.0.0.0.0.0.0.0.0.0.0.0.0.0.0.0.0.0.0.0.0.0.0.0.0.0.0.0.0.0.0.0.0.0.0.0.0.0.0.0.0.0.0.0.0.0.0.0.0.0.0.0.0.0.0.0.0.0.0.0.0.0.0.0.0.0.e.=.4 ; j.I.G.A.A.A.A.A.A.A.A.A.A.A.A.A.A.A.A.A.A.A.A.A.A.A.A.A.A.A.A.A.A.A.A.A.A.A.A.A.A.A.A.A.A.A.A.A.A.A.A.A.A.A.A.A.A.A.A.A.A.A.A.A.A.A.A.A.A.K.Z.F o o 1                                                                                                                                                                                                                                                                                                                                                         ",
"h.                                                                                                                                                    & o o o o o - e c V O.#.$.#.@.$.] w o N +X=X$X$X$X$X$X$X$X$X$X$X$X$X$X$X$X$X$X$X$X=X(.w o d.K.G.A.A.A.A.A.A.A.A.A.A.A.A.A.A.A.A.A.A.A.A.A.A.A.A.A.A.A.A.A.A.A.A.A.A.A.A.A.A.A.A.A.A.A.A.A.A.A.A.A.A.A.A.A.A.A.A.A.A.A.A.A.A.A.A.A.A.A.A.A.A.A.A.A.A.A.A.A.A.A.J.k.7 4 =.e.0.0.0.0.0.0.0.0.0.0.0.0.0.0.0.0.0.w.w.e.e.e.e.e.e.w.w.q.q.0.0.0.0.0.0.0.0.0.0.0.0.0.0.0.0.0.0.0.0.0.0.0.0.0.0.0.0.0.0.0.0.0.0.0.0.0.0.0.0.0.0.0.0.0.0.0.0.0.0.0.0.0.0.0.0.0.0.0.0.0.0.0.0.0.0.0.e.*.3 : l.I.D.A.A.A.A.A.A.A.A.A.A.A.A.A.A.A.A.A.A.A.A.A.A.A.A.A.A.A.A.A.A.A.A.A.A.A.A.A.A.A.A.A.A.A.A.A.A.A.A.A.A.A.A.A.A.A.A.A.A.A.A.A.A.A.A.A.A.Y.M.d o o                                                                                                                                                                                                                                                                                                                                                           ",
"h.                                                                                                                                                        1 & o o o o o 3 y n ] +.$.$.b # < y.=X&X$X$X$X$X$X$X$X$X$X$X$X$X$X$X$X$X$X$X$X=XOXM o F C.I.A.A.A.A.A.A.A.A.A.A.A.A.A.A.A.A.A.A.A.A.A.A.A.A.A.A.A.A.A.A.A.A.A.A.A.A.A.A.A.A.A.A.A.A.A.A.A.A.A.A.A.A.A.A.A.A.A.A.A.A.A.A.A.A.A.A.A.A.A.A.A.A.A.A.A.A.A.A.A.G.z.8 3 &.e.0.0.0.0.0.0.0.0.0.0.0.0.q.e.r.r.r.w.q.8.8.7.7.7.8.0.w.e.r.r.r.w.q.0.0.0.0.0.0.0.0.0.0.0.0.0.0.0.0.0.0.0.0.0.0.0.0.0.0.0.0.0.0.0.0.0.0.0.0.0.0.0.0.0.0.0.0.0.0.0.0.0.0.0.0.0.0.0.0.0.0.0.0.0.0.0.w.&.$ 7 x.I.D.A.A.A.A.A.A.A.A.A.A.A.A.A.A.A.A.A.A.A.A.A.A.A.A.A.A.A.A.A.A.A.A.A.A.A.A.A.A.A.A.A.A.A.A.A.A.A.A.A.A.A.A.A.A.A.A.A.A.A.A.A.A.A.A.A.D.Y.z.7 o &                                                                                                                                                                                                                                                                                                                                                           ",
"h.                                                                                                                                                              , & o o o o $ w x B V e o N +X-X$X$X$X$X$X$X$X$X$X$X$X$X$X$X$X$X$X$X$X$X*X$X! o a n.I.A.A.A.A.A.A.A.A.A.A.A.A.A.A.A.A.A.A.A.A.A.A.A.A.A.A.A.A.A.A.A.A.A.A.A.A.A.A.A.A.A.A.A.A.A.A.A.A.A.A.A.A.A.A.A.A.A.A.A.A.A.A.A.A.A.A.A.A.A.A.A.A.A.A.A.A.A.A.A.G.c.p - X.e.0.0.0.0.0.0.0.0.0.q.e.r.w.7.4.=.X. .m n v v v v v m V X.*.3.5.8.e.r.e.q.0.0.0.0.0.0.0.0.0.0.0.0.0.0.0.0.0.0.0.0.0.0.0.0.0.0.0.0.0.0.0.0.0.0.0.0.0.0.0.0.0.0.0.0.0.0.0.0.0.0.0.0.0.0.0.0.0.0.0.0.q. .o i b.I.A.A.A.A.A.A.A.A.A.A.A.A.A.A.A.A.A.A.A.A.A.A.A.A.A.A.A.A.A.A.A.A.A.A.A.A.A.A.A.A.A.A.A.A.A.A.A.D.G.G.A.A.A.A.A.A.A.A.A.A.A.A.A.A.A.A.G.J.K o o ,                                                                                                                                                                                                                                                                                                                                                           ",
"h.                                                                                                                                                                    & o o o o o 3 w # 1 y.3X-X$X$X$X$X$X$X$X$X$X$X$X$X$X$X$X$X$X$X$X$X$X=Xy.3 % j.K.G.A.A.A.A.A.A.A.A.A.A.A.A.A.A.A.A.A.A.A.A.A.A.A.A.A.A.A.A.A.A.A.A.A.A.A.A.A.A.A.A.A.A.A.A.A.A.A.A.A.A.A.A.A.A.A.A.A.A.A.A.A.A.A.A.A.A.A.A.A.A.A.A.A.A.A.A.A.A.G.b.s $  .w.0.0.0.0.0.0.0.q.e.q.5.=.V c r 4 $ o o o o o o o o o o # 3 w z v  .=.4.0.e.e.q.0.0.0.0.0.0.0.0.0.0.0.0.0.0.0.0.0.0.0.0.0.0.0.0.0.0.0.0.0.0.0.0.0.0.0.0.0.0.0.0.0.0.0.0.0.0.0.0.0.0.0.0.0.0.0.0.w.8.m o d N.I.A.A.A.A.A.A.A.A.A.A.A.A.A.A.A.A.A.A.A.A.A.A.A.A.A.A.A.A.A.A.A.A.A.A.A.A.A.A.A.A.A.A.A.A.A.A.D.G.A.G.I.D.A.A.A.A.A.A.A.A.A.A.A.A.A.A.I.B.Z o o                                                                                                                                                                                                                                                                                                                                                             ",
"h.                                                                                                                                                                        1 & o o o o o 1 U y..X#X*X$X$X$X$X$X$X$X$X$X$X$X$X$X$X$X$X$X$X$X-X.Xh o H Z.J.A.A.A.A.A.A.A.A.A.A.A.A.A.A.A.A.A.A.A.A.A.A.A.A.A.A.A.A.A.A.A.A.A.A.A.A.A.A.A.A.A.A.A.A.A.A.A.A.A.A.A.A.A.A.A.A.A.A.A.A.A.A.A.A.A.A.A.A.A.A.A.A.A.A.A.A.A.A.D.M.Z # m 8.q.0.0.0.0.q.w.7.=.V z 4 # o o = 9 r x c b n n b b x y e 1 o o o $ 4 z m &.4.0.w.0.0.0.0.0.0.0.0.0.0.0.0.0.0.0.0.0.0.0.0.0.0.0.0.0.0.0.0.0.0.0.0.0.0.0.0.0.0.0.0.0.0.0.0.0.0.0.0.0.0.0.0.0.0.0.e.7.c o D V.I.A.A.A.A.A.A.A.A.A.A.A.A.A.A.A.A.A.A.A.A.A.A.A.A.A.A.A.A.A.A.A.A.A.A.A.A.A.A.A.A.A.A.A.A.A.D.D.x.G K v.D.J.D.A.A.A.A.A.A.A.A.A.A.A.D.I.x.8 o o                                                                                                                                                                                                                                                                                                                                                             ",
"h.                                                                                                                                                                              , & o o o $ 9 j ! ^.OX$X&X$X$X$X$X$X$X$X$X$X$X$X$X$X$X$X$X=X#XW o d m.K.D.A.A.A.A.A.A.A.A.A.A.A.A.A.A.A.A.A.A.A.A.A.A.A.A.A.A.A.A.A.A.A.A.A.A.A.A.A.A.A.A.A.A.A.A.A.A.A.A.A.A.A.A.A.A.A.A.A.A.A.A.A.A.A.A.A.A.A.A.A.A.A.A.A.A.A.A.A.D.B.F o c 7.w.0.0.q.q.5.&.v w # o = t b o.;.,.u.[.[.{.{.{.{.{.[.u.6.,.-.B c t < o o 3 z V =.7.q.q.0.0.0.0.0.0.0.0.0.0.0.0.0.0.0.0.0.0.0.0.0.0.0.0.0.0.0.0.0.0.0.0.0.0.0.0.0.0.0.0.0.0.0.0.0.0.0.0.0.0.0.0.e.4.y o J D.J.A.A.A.A.A.A.A.A.A.A.A.A.A.A.A.A.A.A.A.A.A.A.A.A.A.A.A.A.A.A.A.A.A.A.A.A.A.A.A.A.A.A.A.A.A.G.N.D o o a L b.A.G.D.A.A.A.A.A.A.A.A.A.J.D.K o o &                                                                                                                                                                                                                                                                                                                                                             ",
"h.                                                                                                                                                                                    , o o o o = t N >.(.@X&X&X&X$X$X$X$X$X$X$X$X$X$X$X$X$X-Xt.- 6 l.J.D.A.A.A.A.A.A.A.A.A.A.A.A.A.A.A.A.A.A.A.A.A.A.A.A.A.A.A.A.A.A.A.A.A.A.A.A.A.A.A.A.A.A.A.A.A.A.A.A.A.A.A.A.A.A.A.A.A.A.A.A.A.A.A.A.A.A.A.A.A.A.A.A.A.A.A.A.A.D.Z.J o y 4.e.q.w.5.&.c 4 o # t n -.6.[.}.XXXXXXXXXXXXXXXXXXXXXXXXXXXX|.}.[.6.-.B z 3 o # w v &.5.q.w.q.0.0.0.0.0.0.0.0.0.0.0.0.0.0.0.0.0.0.0.0.0.0.0.0.0.0.0.0.0.0.0.0.0.0.0.0.0.0.0.0.0.0.0.0.0.0.0.0.0.w.=.4 % f.I.G.A.A.A.A.A.A.A.A.A.A.A.A.A.A.A.A.A.A.A.A.A.A.A.A.A.A.A.A.A.A.A.A.A.A.A.A.A.A.A.A.A.A.A.A.A.G.x.u o o o ; d i.n.A.G.G.A.A.A.A.A.A.A.I.M.Z o o                                                                                                                                                                                                                                                                                                                                                               ",
"h.                                                                                                                                                                                        , & o o o o < h W y..X#X*X=X&X$X$X$X$X$X$X$X$X$X$X-X Xh o J Z.G.A.A.A.A.A.A.A.A.A.A.A.A.A.A.A.A.A.D.D.A.A.A.A.A.A.A.A.A.A.A.A.A.A.A.A.A.A.A.A.A.A.A.A.A.A.A.A.A.A.A.A.A.A.A.A.A.A.A.A.A.A.A.A.A.A.A.A.A.A.A.A.A.A.A.A.A.A.D.D.f.; w 3.r.8.=.v 4 o - z o.6.{.XXXXXXXX|.|.|.|.|.|.|.|.|.|.|.|.|.|.XXXXXXXXXX{.u.;.n t = o 4 c &.5.e.w.0.0.0.0.0.0.0.0.0.0.0.0.0.0.0.0.0.0.0.0.0.0.0.0.0.0.0.0.0.0.0.0.0.0.0.0.0.0.0.0.0.0.0.0.0.0.0.q.q.X.- 7 x.Y.D.A.A.A.A.A.A.A.A.A.A.A.A.A.A.A.A.A.A.A.A.A.A.A.A.A.A.A.A.A.A.A.A.A.A.A.A.A.A.A.A.A.A.A.A.D.G.z.7 o o o o o : C d.n.G.J.G.A.A.A.A.D.J.l.7 o &                                                                                                                                                                                                                                                                                                                                                               ",
"h.                                                                                                                                                                                              & o o o o $ 9 M ! (.+X&X-X=X$X$X$X$X$X$X$X$X=X@XW o C m.G.A.A.A.A.A.A.A.A.A.A.A.A.A.A.A.D.K.I.K.G.A.A.A.A.A.A.A.A.A.A.A.A.A.A.A.A.A.A.A.A.A.A.A.A.A.A.A.A.A.A.A.A.A.A.A.A.A.A.A.A.A.A.A.A.A.A.A.A.A.A.A.A.A.A.A.A.A.A.G.z.8 3 &.5.m 4 o = x o.u.|.XX|.|.|.|.|.|.|.|.|.|.|.|.|.|.|.|.|.|.|.|.|.|.|.|.|.XXXX{.6.o.z - o 3 v =.8.r.w.0.0.0.0.0.0.0.0.0.0.0.0.0.0.0.0.0.0.0.0.0.0.0.0.0.0.0.0.0.0.0.0.0.0.0.0.0.0.0.0.0.0.0.0.0.q.8.m o s M.Y.A.A.A.A.A.A.A.A.A.A.A.A.A.A.A.A.A.A.A.A.A.A.A.A.A.A.A.A.A.A.A.A.A.A.A.A.A.A.A.A.A.A.A.A.A.A.G.M.G 6 o o o o o o : C f.M.K.I.G.A.A.J.C.G o o ,                                                                                                                                                                                                                                                                                                                                                               ",
"h.                                                                                                                                                                                                    , o o o o = t N >. X#X-X-X*X$X$X$X$X$X$X-Xy.< 6 k.G.D.A.A.A.A.A.A.A.A.A.A.A.A.A.K.I.N.z.x.Z.G.A.A.A.A.A.A.A.A.A.A.A.A.A.A.A.A.A.A.A.A.A.A.A.A.A.A.A.A.A.A.A.A.A.A.A.A.A.A.A.A.A.A.A.A.A.A.A.A.A.A.A.A.A.A.A.A.A.G.b.d - x z o o y o.u.|.XX|.|.|.|.|.|.|.|.|.|.|.|.|.|.|.|.|.|.|.|.|.|.|.|.|.|.|.|.|.|.XX|.u.o.x $ o 4 m 4.e.e.0.0.0.0.0.0.0.0.0.0.0.0.0.0.0.0.0.0.0.0.0.0.0.0.0.0.0.0.0.0.0.0.0.0.0.0.0.0.0.0.0.0.0.0.w.5.x o F C.K.A.A.A.A.A.A.A.A.A.A.A.A.A.A.A.A.A.A.A.A.A.A.A.A.A.A.A.A.A.A.A.A.A.A.A.A.A.A.A.A.A.A.A.A.A.A.D.G.N.g.C ; o o o o o o : Z g.B.I.I.G.J.c.p o o                                                                                                                                                                                                                                                                                                                                                                 ",
"h.                                                                                                                                                                                                        , & o o o o < h Q ^.OX*X3X=X$X$X$X$X3X.Xh o H C.G.A.A.A.A.A.A.A.A.A.A.Z.G.I.D.x.D 6 u g.J.G.A.A.A.A.A.A.A.A.A.A.A.A.A.A.A.A.A.A.A.A.A.A.A.A.A.A.A.A.A.A.A.A.A.A.A.A.A.A.A.A.A.A.A.A.A.A.A.A.A.A.A.A.A.A.A.A.G.B.D # # o 3 B 6.XXoX|.|.|.|.|.|.|.|.|.|.|.|.|.|.|.|.|.|.|.|.|.|.|.|.|.|.|.|.|.|.|.|.|.|.oXXXu.o.r o o z &.8.r.0.0.0.0.0.0.0.0.0.0.0.0.0.0.0.0.0.0.0.0.0.0.0.0.0.0.0.0.0.0.0.0.0.0.0.0.0.0.0.0.0.0.0.q.=.w % d.I.G.A.A.A.A.A.A.A.A.A.A.A.A.A.A.A.A.A.A.A.A.A.A.A.A.A.A.A.A.A.A.A.A.A.A.A.A.A.A.A.A.A.A.A.A.A.A.A.A.J.I.N.f.d % o o o o o o : S k.V.Y.J.K % o ,                                                                                                                                                                                                                                                                                                                                                                 ",
"h.                                                                                                                                                                                                              & o o o o o 5 M :.(.@X-X-X&X$X*X$XQ o s b.G.A.A.A.A.A.A.A.A.A.D.I.I.m.J u o o o a b.I.D.A.A.A.A.A.A.A.A.A.A.A.A.A.A.A.A.A.A.A.A.A.A.A.A.A.A.A.A.A.A.A.A.A.A.A.A.A.A.A.A.A.A.A.A.A.A.A.A.A.A.A.A.A.A.A.G.A.K o o y ;.}.oXXX|.|.|.|.|.|.|.|.|.|.|.|.|.|.|.|.|.|.|.|.|.|.|.|.|.|.|.|.|.|.|.|.|.|.|.|.XXoXXX6.B < o 3 V 5.e.q.0.0.0.0.0.0.0.0.0.0.0.0.0.0.0.0.0.0.0.0.0.0.0.0.0.0.0.0.0.0.0.0.0.0.0.0.0.0.0.0.0.0. .$ u c.Y.A.A.A.A.A.A.A.A.A.A.A.A.A.A.A.A.A.A.A.A.A.A.A.A.A.A.A.A.A.A.A.A.A.A.A.A.A.A.A.A.A.A.A.A.A.A.A.A.A.A.D.I.I.M.s.d o o o o o o o 6 D z.c.d o o                                                                                                                                                                                                                                                                                                                                                                   ",
"h.                                                                                                                                                                                                                  1 , o o o o $ t U t..X$X-X*X3X^.9 ; d.G.A.A.A.A.A.A.A.A.G.I.B.g.d o o o o o o L K.G.A.A.A.A.A.A.A.A.A.A.A.A.A.A.A.A.A.A.A.A.A.A.A.A.A.A.A.A.A.A.A.A.A.A.A.A.A.A.A.A.A.A.A.A.A.A.A.A.A.A.A.A.A.A.A.D.G.z.6 # o.oXoX|.|.|.|.|.|.|.|.|.|.|.|.|.|.|.|.|.|.|.|.|.|.|.|.|.|.|.|.|.|.|.|.|.|.|.|.|.|.|.|.XXoX}.;.y o o c 3.w.q.0.0.0.0.0.0.0.0.0.0.0.0.0.0.0.0.0.0.0.0.0.0.0.0.0.0.0.0.0.0.0.0.0.0.0.0.0.0.0.0.5.c o S B.I.A.A.A.A.A.A.A.A.A.A.A.A.A.A.A.A.A.A.A.A.A.A.A.A.A.A.A.A.A.A.A.A.A.A.A.A.A.A.A.A.A.A.A.A.A.A.A.A.A.A.A.A.G.I.K.m.i.s o o o o o o o 8 s ; o &                                                                                                                                                                                                                                                                                                                                                                   ",
"h.                                                                                                                                                                                                                        , & o o o o 1 j Q ^.OX-X+XN o S N.D.A.A.A.A.A.D.J.C.z.D : o o o o o o ; d.K.G.A.A.A.A.A.A.A.A.A.A.A.A.A.A.A.A.A.A.A.A.A.A.A.A.A.A.A.A.A.A.A.A.A.A.A.A.A.A.A.A.A.A.A.A.A.A.A.A.A.A.A.A.A.A.A.A.G.M.C o B |.XX|.|.|.|.|.|.|.|.|.|.|.|.|.|.|.|.|.|.|.|.|.|.|.|.|.|.|.|.|.|.|.|.|.|.|.|.|.|.|.|.|.|.oXoX6.n = o y *.q.w.0.0.0.0.0.0.0.0.0.0.0.0.0.0.0.0.0.0.0.0.0.0.0.0.0.0.0.0.0.0.0.0.0.0.0.0.0.0.q.=.w % i.J.G.A.A.A.A.A.A.A.A.A.A.A.A.A.A.A.A.A.A.A.A.A.A.A.A.A.A.A.A.A.A.A.A.A.A.A.A.A.A.A.A.A.A.A.A.A.A.A.A.A.A.A.A.A.A.G.I.G.n.L s o o o o o o o o o                                                                                                                                                                                                                                                                                                                                                                     ",
"h.                                                                                                                                                                                                                              & o o o o # 0 M >. X:.3 8 z.J.A.A.A.D.G.A.v.H i o o o o o o o i K N.J.A.A.A.A.A.A.A.A.A.A.A.A.A.A.A.A.A.A.A.A.A.A.A.A.A.A.A.A.A.A.A.A.A.A.A.A.A.A.A.A.A.A.A.A.A.A.A.A.A.A.A.A.A.A.A.A.A.G.Z.J o r u.oX|.|.|.|.|.|.|.|.|.|.|.|.|.|.|.|.|.|.|.|.|.|.|.|.|.|.|.|.|.|.|.|.|.|.|.|.|.|.|.|.|.|.|.XXoX[.o.w o e X.8.w.0.0.0.0.0.0.0.0.0.0.0.0.0.0.0.0.0.0.0.0.0.0.0.0.0.0.0.0.0.0.0.0.0.0.0.0.0.8.V $ p c.I.A.A.A.A.A.A.A.A.A.A.A.A.A.A.A.A.A.A.A.A.A.A.A.A.A.A.A.A.A.A.A.A.A.A.A.A.A.A.A.A.A.A.A.A.A.A.A.A.A.A.A.A.A.A.A.A.D.G.I.D.b.K a o o o o o o &                                                                                                                                                                                                                                                                                                                                                                     ",
"h.                                                                                                                                                                                                                                  1 & o o o o = h N 0 % G C.D.D.G.J.M.d.d ; o o o o o o 6 D z.C.G.A.A.A.A.A.A.A.A.A.A.A.A.A.A.A.A.A.A.A.A.A.A.A.A.A.A.A.A.A.A.A.A.A.A.A.A.A.A.A.A.A.A.A.A.A.A.A.A.A.A.A.A.A.A.A.A.A.A.D.J.l.6 $ -.oXXX|.|.|.|.|.|.|.|.|.|.|.|.|.|.|.|.|.|.|.|.|.|.|.|.|.|.|.|.|.|.|.|.|.|.|.|.|.|.|.|.|.|.|.|.XX{.-.y o 4 X.8.e.0.0.0.0.0.0.0.0.0.0.0.0.0.0.0.0.0.0.0.0.0.0.0.0.0.0.0.0.0.0.0.0.0.0.0.w.4.z o D B.J.A.A.A.A.A.A.A.A.A.A.A.A.A.A.A.A.A.A.A.A.A.A.A.A.A.A.A.A.A.A.A.A.A.A.A.A.A.A.A.A.A.A.A.A.A.A.A.A.A.A.A.A.A.A.A.A.A.A.D.G.K.A.v.J p % o o o                                                                                                                                                                                                                                                                                                                                                                       ",
"h.                                                                                                                                                                                                                                        , & o o o = < o 8 z.Y.I.V.l.D 6 o o o o o o % s d.M.G.G.A.A.A.A.A.A.A.A.A.A.A.A.A.A.A.A.A.A.A.A.A.A.A.A.A.A.A.A.A.A.A.A.A.A.A.A.A.A.A.A.A.A.A.A.A.A.A.A.A.A.A.A.A.A.A.A.A.A.A.A.K.M.Z o b {.oX|.|.|.|.|.|.|.|.|.|.|.|.|.|.|.|.|.|.|.|.|.|.|.|.|.|.|.|.|.|.|.|.|.|.|.|.|.|.|.|.|.|.|.|.|.XX|.,.z o 3  .0.e.0.0.0.0.0.0.0.0.0.0.0.0.0.0.0.0.0.0.0.0.0.0.0.0.0.0.0.0.0.0.0.0.0.0.w.X.3 6 g.J.D.A.A.A.A.A.A.A.A.A.A.A.A.A.A.A.A.A.A.A.A.A.A.A.A.A.A.A.A.A.A.A.A.A.A.A.A.A.A.A.A.A.A.A.A.A.A.A.A.A.A.A.A.A.A.A.A.A.A.A.A.D.G.J.D.z.s o o ,                                                                                                                                                                                                                                                                                                                                                                       ",
"h.                                                                                                                                                                                                                                              , o o o o o F G.n.H u o o o o o o o 7 G c.D.G.D.A.A.A.A.A.A.A.A.A.A.A.A.A.A.A.A.A.A.A.A.A.A.A.A.A.A.A.A.A.A.A.A.A.A.A.A.A.A.A.A.A.A.A.A.A.A.A.A.A.A.A.A.A.A.A.A.A.A.A.A.A.G.G.i.o 4 ,.oXXX|.|.|.|.|.|.|.|.|.|.|.|.|.|.|.|.|.|.|.|.|.|.|.|.|.|.|.|.|.|.|.|.|.|.|.|.|.|.|.|.|.|.|.|.|.XXXX,.z o 4 X.q.w.0.0.0.0.0.0.0.0.0.0.0.0.0.0.0.0.0.0.0.0.0.0.0.0.0.0.0.0.0.0.0.0.w.5.c # C m.G.A.A.A.A.A.A.A.A.A.A.A.A.A.A.A.A.A.A.A.A.A.A.A.A.A.A.A.A.A.A.A.A.A.A.A.A.A.A.A.A.A.A.A.A.A.A.A.A.A.A.A.A.A.A.A.A.A.A.A.A.A.A.A.G.I.k.8 o o                                                                                                                                                                                                                                                                                                                                                                         ",
"h.                                                                                                                                                                                                                                                  , & o o s K d o o o o o o o o C k.V.J.D.A.A.A.A.A.A.A.A.A.A.A.A.A.A.A.A.A.A.A.A.A.A.A.A.A.A.A.A.A.A.A.A.A.A.A.A.A.A.A.A.A.A.A.A.A.A.A.A.A.A.A.A.A.A.A.A.A.A.A.A.A.A.A.D.I.b.p o m }.XX|.|.|.|.|.|.|.|.|.|.|.|.|.|.|.|.|.|.|.|.|.|.|.|.|.|.|.|.|.|.|.|.|.|.|.|.|.|.|.|.|.|.|.|.|.|.XXoX6.y o w *.w.q.0.0.0.0.0.0.0.0.0.0.0.0.0.0.0.0.0.0.0.0.0.0.0.0.0.0.0.0.0.0.0.e.*.4 ; i.D.A.A.A.A.A.A.A.A.A.A.A.A.A.A.A.A.A.A.A.A.A.A.A.A.A.A.A.A.A.A.A.A.A.A.A.A.A.A.A.A.A.A.A.A.A.A.A.A.A.A.A.A.A.A.A.A.A.A.A.A.A.A.A.D.Y.n.d o o ,                                                                                                                                                                                                                                                                                                                                                                         ",
"h.                                                                                                                                                                                                                                                      & o ; ; o o o o o o o u K M.I.J.A.A.A.A.A.A.A.A.A.A.A.A.A.A.A.A.A.A.A.A.A.A.A.A.A.A.A.A.A.A.A.A.A.A.A.A.A.A.A.A.A.A.A.A.A.A.A.A.A.A.A.A.A.A.A.A.A.A.A.A.A.A.A.A.A.A.J.G.J o 4 ,.oX|.|.|.|.|.|.|.|.|.|.|.|.|.|.|.|.|.|.|.|.|.|.|.|.|.|.|.|.|.|.|.|.|.|.|.|.|.|.|.|.|.|.|.|.|.|.|.XXoX,.e o y 3.w.0.0.0.0.0.0.0.0.0.0.0.0.0.0.0.0.0.0.0.0.0.0.0.0.0.0.0.0.0.0.e.7.c o d b.G.A.A.A.A.A.A.A.A.A.A.A.A.A.A.A.A.A.A.A.A.A.A.A.A.A.A.A.A.A.A.A.A.A.A.A.A.A.A.A.A.A.A.A.A.A.A.A.A.A.A.A.A.A.A.A.A.A.A.A.A.A.A.Z.I.Z.G o o &                                                                                                                                                                                                                                                                                                                                                                           ",
"h.                                                                                                                                                                                                                                                        o o o o o o o o : S z.G.I.D.Z.A.A.A.A.A.A.A.A.A.A.A.A.A.A.A.A.A.A.A.A.A.A.A.A.A.A.A.A.A.A.A.A.A.A.A.A.A.A.A.A.A.A.A.A.A.A.A.A.A.A.A.A.A.A.A.A.A.A.A.A.A.A.A.A.A.A.D.Y.v.i o n {.XX|.|.|.|.|.|.|.|.|.|.|.|.|.|.|.|.|.|.|.|.|.|.|.|.|.|.|.|.|.|.|.|.|.|.|.|.|.|.|.|.|.|.|.|.|.|.}.XXoX;.5 o c 5.w.0.0.0.0.0.0.0.0.0.0.0.0.0.0.0.0.0.0.0.0.0.0.0.0.0.0.0.0.q.r.&.3 % i.A.D.A.A.A.A.A.A.A.A.A.A.A.A.A.A.A.A.A.A.A.A.A.A.A.A.A.A.A.A.A.A.A.A.A.A.A.A.A.A.A.A.A.A.A.A.A.A.A.A.A.A.A.A.A.A.A.A.A.A.A.A.A.Z.J.I.g.: o o                                                                                                                                                                                                                                                                                                                                                                             ",
"h.                                                                                                                                                                                                                                                        & o o o o o o a s.N.I.J.A.A.A.A.A.A.A.A.A.A.A.A.A.A.A.A.A.A.A.A.A.A.A.A.A.A.A.A.A.A.A.A.A.A.A.A.A.A.A.A.A.A.A.A.A.A.A.A.A.A.A.A.A.A.A.A.A.A.A.A.A.A.A.A.A.A.A.A.A.A.K.G.J o 4 ;.XX|.|.|.|.|.|.|.|.|.|.|.|.|.|.|.|.|.|.|.|.|.|.|.|.|.|.|.|.|.|.|.|.|.|.|.|.|.|.|.|.|.|.|.|.|.|.|.}.oXXXo.= $ V 8.q.0.0.0.0.0.0.0.0.0.0.0.0.0.0.0.0.0.0.0.0.0.0.0.0.0.0.0.r.5.z o C n.J.A.A.A.A.A.A.A.A.A.A.A.A.A.A.A.A.A.A.A.A.A.A.A.A.A.A.A.A.A.A.A.A.A.A.A.A.A.A.A.A.A.A.A.A.A.A.A.A.A.A.A.A.A.A.A.A.A.A.A.A.A.A.G.I.x.p o o ,                                                                                                                                                                                                                                                                                                                                                                             ",
"h.                                                                                                                                                                                                                                                        1 o o o o 7 G c.G.I.D.A.A.A.A.A.A.A.A.A.A.A.A.A.A.A.A.A.A.A.A.A.A.A.A.A.A.A.A.A.A.A.A.A.A.A.A.A.A.A.A.A.A.A.A.A.A.A.A.A.A.A.A.A.A.A.A.A.A.A.A.A.A.A.A.A.A.A.A.A.A.A.A.Y.n.s o c u.XX|.|.|.|.|.|.|.|.|.|.|.|.|.|.|.|.|.|.|.|.|.|.|.|.|.|.|.|.|.|.|.|.|.|.|.|.|.|.|.|.|.|.|.|.|.|.|.|.oX[.n o w *.w.0.0.0.0.0.0.0.0.0.0.0.0.0.0.0.0.0.0.0.0.0.0.0.0.0.0.w.q.V # : f.G.G.A.A.A.A.A.A.A.A.A.A.A.A.A.A.A.A.A.A.A.A.A.A.A.A.A.A.A.A.A.A.A.A.A.A.A.A.A.A.A.A.A.A.A.A.A.A.A.A.A.A.A.A.A.A.A.A.A.A.A.A.A.D.K.n.Z o o &                                                                                                                                                                                                                                                                                                                                                                               ",
"h.                                                                                                                                                                                                                                                          & o o a g.V.I.J.A.A.A.A.A.A.A.A.A.A.A.A.A.A.A.A.A.A.A.A.A.A.A.A.A.A.A.A.A.A.A.A.A.A.A.A.A.A.A.A.A.A.A.A.A.A.A.A.A.A.A.A.A.A.A.A.A.A.A.A.A.A.A.A.A.A.A.A.A.A.A.A.A.A.G.I.f.: $ ] {.|.|.|.|.|.|.|.|.|.|.|.|.|.|.|.|.|.|.|.|.|.|.|.|.|.|.|.|.|.|.|.|.|.|.|.|.|.|.|.|.|.|.|.|.|.|.|.|.|.oX6.y o c 5.w.0.0.0.0.0.0.0.0.0.0.0.0.0.0.0.0.0.0.0.0.0.0.0.0.0.e.=.w o D N.J.A.A.A.A.A.A.A.A.A.A.A.A.A.A.A.A.A.A.A.A.A.A.A.A.A.A.A.A.A.A.A.A.A.A.A.A.A.A.A.A.A.A.A.A.A.A.A.A.A.A.A.A.A.A.A.A.A.A.A.A.A.D.G.M.F o o o                                                                                                                                                                                                                                                                                                                                                                                 ",
"h.                                                                                                                                                                                                                                                          1 o o s n.Y.G.A.A.A.A.A.A.A.A.A.A.A.A.A.A.A.A.A.A.A.A.A.A.A.A.A.A.A.A.A.A.A.A.A.A.A.A.A.A.A.A.A.A.A.A.A.A.A.A.A.A.A.A.A.A.A.A.A.A.A.A.A.A.A.A.A.A.A.A.A.A.A.A.A.A.A.A.K.N.F o w ;.|.|.|.|.|.|.|.|.|.|.|.|.|.|.|.|.|.|.|.|.|.|.|.|.|.|.|.|.|.|.|.|.|.|.|.|.|.|.|.|.|.|.|.|.|.|.|.|.|.|.|.o.< -  .w.q.0.0.0.0.0.0.0.0.0.0.0.0.0.0.0.0.0.0.0.0.0.0.0.e.5.c o i x.K.D.A.A.A.A.A.A.A.A.A.A.A.A.A.A.A.A.A.A.A.A.A.A.A.A.A.A.A.A.A.A.A.A.A.A.A.A.A.A.A.A.A.A.A.A.A.A.A.A.A.A.A.A.A.A.A.A.A.A.A.A.A.G.B.J : o o                                                                                                                                                                                                                                                                                                                                                                                   ",
"h.                                                                                                                                                                                                                                                            & o ; L D.G.A.A.A.A.A.A.A.A.A.A.A.A.A.A.A.A.A.A.A.A.A.A.A.A.A.A.A.A.A.A.A.A.A.A.A.A.A.A.A.A.A.A.A.A.A.A.A.A.A.A.A.A.A.A.A.A.A.A.A.A.A.A.A.A.A.A.A.A.A.A.A.A.A.A.A.A.A.K.c.s o z 6.oX|.|.|.|.|.|.|.|.|.|.|.|.|.|.|.|.|.|.|.|.|.|.|.|.|.|.|.|.|.|.|.|.|.|.|.|.|.|.|.|.|.|.|.|.|.|.|.|.XXu.b o z 4.r.0.0.0.0.0.0.0.0.0.0.0.0.0.0.0.0.0.0.0.0.0.0.w.8.V $ ; i.A.J.A.A.A.A.A.A.A.A.A.A.A.A.A.A.A.A.A.A.A.A.A.A.A.A.A.A.A.A.A.A.A.A.A.A.A.A.A.A.A.A.A.A.A.A.A.A.A.A.A.A.A.A.A.A.A.A.A.A.A.A.A.G.V.i.7 o o ,                                                                                                                                                                                                                                                                                                                                                                                   ",
"h.                                                                                                                                                                                                                                                              o o a c.I.D.A.A.A.A.A.A.A.A.A.A.A.A.A.A.A.A.A.A.A.A.A.A.A.A.A.A.A.A.A.A.A.A.A.A.A.A.A.A.A.A.A.A.A.A.A.A.A.A.A.A.A.A.A.A.A.A.A.A.A.A.A.A.A.A.A.A.A.A.A.A.A.A.A.A.A.A.D.A.g.8 # b u.oX|.|.|.|.|.|.|.|.|.|.|.|.|.|.|.|.|.|.|.|.|.|.|.|.|.|.|.|.|.|.|.|.|.|.|.|.|.|.|.|.|.|.|.|.|.|.|.|.XX;.5 =  .e.0.0.0.0.0.0.0.0.0.0.0.0.0.0.0.0.0.0.0.0.0.w.q.X.4 o D N.I.D.A.A.A.A.A.A.A.A.A.A.A.A.A.A.A.A.A.A.A.A.A.A.A.A.A.A.A.A.A.A.A.A.A.A.A.A.A.A.A.A.A.A.A.A.A.A.A.A.A.A.A.A.A.A.A.A.A.A.A.A.J.C.d.u o o ,                                                                                                                                                                                                                                                                                                                                                                                     ",
"h.                                                                                                                                                                                                                                                              , o % G V.G.A.A.A.A.A.A.A.A.A.A.A.A.A.A.A.A.A.A.A.A.A.A.A.A.A.A.A.A.A.A.A.A.A.A.A.A.A.A.A.A.A.A.A.A.A.A.A.A.A.A.A.A.A.A.A.A.A.A.A.A.A.A.A.A.A.A.A.A.A.A.A.A.A.A.A.A.A.D.V.L : # n [.oX|.|.|.|.|.|.|.|.|.|.|.|.|.|.|.|.|.|.|.|.|.|.|.|.|.|.|.|.|.|.|.|.|.|.|.|.|.|.|.|.|.|.|.|.|.|.|.XX[.b o z 5.r.0.0.0.0.0.0.0.0.0.0.0.0.0.0.0.0.0.0.0.q.w.=.r o d b.I.D.A.A.A.A.A.A.A.A.A.A.A.A.A.A.A.A.A.A.A.A.A.A.A.A.A.A.A.A.A.A.A.A.A.A.A.A.A.A.A.A.A.A.A.A.A.A.A.A.A.A.A.A.A.A.A.A.A.A.A.A.I.D.f.u o o &                                                                                                                                                                                                                                                                                                                                                                                       ",
"h.                                                                                                                                                                                                                                                                o o u k.J.D.A.A.A.A.A.A.A.A.A.A.A.A.A.A.A.A.A.A.A.A.A.A.A.J.I.J.A.A.A.A.A.A.A.A.A.A.A.A.A.A.A.A.A.A.A.A.A.A.A.A.A.A.A.A.A.A.A.A.A.A.A.A.A.A.A.A.A.A.A.A.A.A.A.A.A.A.A.G.N.G o # B {.oX|.|.|.|.|.|.|.|.|.|.|.|.|.|.|.|.|.|.|.|.|.|.|.|.|.|.|.|.|.|.|.|.|.|.|.|.|.|.|.|.|.|.|.|.|.|.|.XX;.= = X.r.0.0.0.0.0.0.0.0.0.0.0.0.0.0.0.0.0.0.q.e.3.z o u z.I.G.A.A.A.A.A.A.A.A.A.A.A.A.A.A.A.A.A.A.A.A.A.A.A.A.A.A.A.A.A.A.A.A.A.A.A.A.A.A.A.A.A.A.A.A.A.A.A.A.A.A.A.A.A.A.A.A.A.A.A.A.I.G.d.8 o o ,                                                                                                                                                                                                                                                                                                                                                                                         ",
"h.                                                                                                                                                                                                                                                                , o o S M.J.A.A.A.A.A.A.A.A.A.A.A.A.A.A.A.A.A.A.A.A.A.A.I.Z.N.Z.J.Z.A.A.A.A.A.A.A.A.A.A.A.A.A.A.A.A.A.A.A.A.A.A.A.A.A.A.A.A.A.A.A.A.A.A.A.A.A.A.A.A.A.A.A.A.A.A.A.A.A.A.I.M.D o # B [.oX|.|.|.|.|.|.|.|.|.|.|.|.|.|.|.|.|.|.|.|.|.|.|.|.|.|.|.|.|.|.|.|.|.|.|.|.|.|.|.|.|.|.|.|.|.|.XX[.x o v 8.e.0.0.0.0.0.0.0.0.0.0.0.0.0.0.0.0.q.e.3.x o 6 f.K.J.Z.A.A.A.A.A.A.A.A.A.A.A.A.A.A.A.A.A.A.A.A.A.A.A.A.A.A.A.A.A.A.A.A.A.A.A.A.A.A.A.A.A.A.A.A.A.A.A.A.A.A.A.A.A.A.A.A.A.A.D.I.D.s.7 o o ,                                                                                                                                                                                                                                                                                                                                                                                           ",
"h.                                                                                                                                                                                                                                                                  o o : L Z.D.A.A.A.A.A.A.A.A.A.A.A.A.A.A.A.A.A.A.A.D.I.N.J d H M.J.Z.A.A.A.A.A.A.A.A.A.A.A.A.A.A.A.A.A.A.A.A.A.A.A.A.A.A.A.A.A.A.A.A.A.A.A.A.A.A.A.A.A.A.A.A.A.A.A.A.A.D.I.M.D o # n u.oXXX|.|.|.|.|.|.|.|.|.|.|.|.|.|.|.|.|.|.|.|.|.|.|.|.|.|.|.|.|.|.|.|.|.|.|.|.|.|.|.|.|.|.|.|.XXXXo.o w 3.r.0.0.0.0.0.0.0.0.0.0.0.0.0.0.0.q.e.3.x o : i.A.K.Z.A.A.A.A.A.A.A.A.A.A.A.A.A.A.A.A.A.A.A.A.A.A.A.A.A.A.A.A.A.A.A.A.A.A.A.A.A.A.A.A.A.A.A.A.A.A.A.A.A.A.A.A.A.A.A.A.A.A.D.I.V.K : o o ,                                                                                                                                                                                                                                                                                                                                                                                             ",
"h.                                                                                                                                                                                                                                                                    o o p x.J.A.A.A.A.A.A.A.A.A.A.A.A.A.A.A.A.A.A.G.J.b.D o o o H V.G.A.A.A.A.A.A.A.A.A.A.A.A.A.A.A.A.A.A.A.A.A.A.A.A.A.A.A.A.A.A.A.A.A.A.A.A.A.A.A.A.A.A.A.A.A.A.A.A.A.A.D.Y.M.D o o b 6.XXXX|.|.|.|.|.|.|.|.|.|.|.|.|.|.|.|.|.|.|.|.|.|.|.|.|.|.|.|.|.|.|.|.|.|.|.|.|.|.|.|.|.|.|.|.oX,.5 o  .w.q.0.0.0.0.0.0.0.0.0.0.0.0.0.q.e.3.z o 6 K V.J.A.A.A.A.A.A.A.A.A.A.A.A.A.A.A.A.A.A.A.A.A.A.A.A.A.A.A.A.A.A.A.A.A.A.A.A.A.A.A.A.A.A.A.A.A.A.A.A.A.A.A.A.A.A.A.A.A.A.A.D.K.M.G ; o o ,                                                                                                                                                                                                                                                                                                                                                                                               ",
"h.                                                                                                                                                                                                                                                                    , o o D M.J.A.A.A.A.A.A.A.A.A.A.A.A.A.A.A.A.G.G.x.C o o o o a m.J.A.A.A.A.A.A.A.A.A.A.A.A.A.A.A.A.A.A.A.A.A.A.A.A.A.A.A.A.A.A.A.A.A.A.A.A.A.A.A.A.A.A.A.A.A.A.A.A.A.A.A.D.Y.N.G ; o z ;.{.XX|.|.|.|.|.|.|.|.|.|.|.|.|.|.|.|.|.|.|.|.|.|.|.|.|.|.|.|.|.|.|.|.|.|.|.|.|.|.|.|.|.|.|.oX[.x o v 8.e.0.0.0.0.0.0.0.0.0.0.0.0.w.q.*.r o 7 L B.J.A.A.A.A.A.A.A.A.A.A.A.A.A.A.A.A.A.A.A.A.A.A.A.A.A.A.A.A.A.A.A.A.A.A.A.A.A.A.A.A.A.A.A.A.A.A.A.A.A.A.A.A.A.A.A.A.A.A.A.D.G.v.D ; o o &                                                                                                                                                                                                                                                                                                                                                                                                 ",
"h.                                                                                                                                                                                                                                                                      o o : i.Z.G.A.A.A.A.A.A.A.A.A.A.A.A.A.D.J.Z.g.p o o o o % F B.G.A.A.A.A.A.A.A.A.A.A.A.A.A.A.A.A.A.A.A.A.A.A.A.A.A.A.A.A.A.A.A.A.A.A.A.A.A.A.A.A.A.A.A.A.A.A.A.A.A.A.A.A.D.I.B.K 8 o w o.u.XXXX|.|.|.|.|.|.|.|.|.|.|.|.|.|.|.|.|.|.|.|.|.|.|.|.|.|.|.|.|.|.|.|.|.|.|.|.|.|.|.|.|.XX|.V o r 4.e.0.0.0.0.0.0.0.0.0.0.q.w.7. .w o u s.V.J.A.A.A.A.A.A.A.A.A.A.A.A.A.A.A.A.A.A.A.A.A.A.A.A.A.A.A.A.A.A.A.A.A.A.A.A.A.A.A.A.A.A.A.A.A.A.A.A.A.A.A.A.A.A.A.A.A.A.D.G.C.l.C o o o ,                                                                                                                                                                                                                                                                                                                                                                                                   ",
"h.                                                                                                                                                                                                                                                                      , o o p z.I.G.A.A.A.A.A.A.A.A.A.A.A.D.K.B.i.8 o o o o : F n.G.A.A.A.A.A.A.A.A.A.A.A.A.A.A.A.A.A.A.A.A.A.A.A.A.A.A.A.A.A.A.A.A.A.A.A.A.A.A.A.A.A.A.A.A.A.A.A.A.A.A.A.A.A.A.D.J.V.g.s o - b ,.}.oXXX|.|.|.|.|.|.|.|.|.|.|.|.|.|.|.|.|.|.|.|.|.|.|.|.|.|.|.|.|.|.|.|.|.|.|.|.|.|.|.XXoX;.= 3 =.e.q.0.0.0.0.0.0.0.q.w.q.3.n 3 o a g.C.J.A.A.A.A.A.A.A.A.A.A.A.A.A.A.A.A.A.A.A.A.A.A.A.A.A.A.A.A.A.A.A.A.A.A.A.A.A.A.A.A.A.A.A.A.A.A.A.A.A.A.A.A.A.A.A.A.A.A.G.J.N.s.p o o o 1                                                                                                                                                                                                                                                                                                                                                                                                     ",
"h.                                                                                                                                                                                                                                                                        , o o Z m.Y.D.A.A.A.A.A.A.A.A.A.G.J.m.G 6 o o o o : H m.G.A.A.A.A.A.A.A.A.A.A.A.A.A.A.A.A.A.A.A.A.A.A.A.A.A.A.A.A.A.A.A.A.A.A.A.A.A.A.A.A.A.A.A.A.A.A.A.A.A.A.A.A.A.A.A.A.A.G.Z.x.D : o e o.u.XXoXXX|.|.|.|.|.|.|.|.|.|.|.|.|.|.|.|.|.|.|.|.|.|.|.|.|.|.|.|.|.|.|.|.|.|.|.|.|.|.oX6.w o  .q.q.0.0.0.0.0.0.w.e.7.X.z $ o Z x.G.J.A.A.A.A.A.A.A.A.A.A.A.A.A.A.A.A.A.A.A.A.A.A.A.A.A.A.A.A.A.A.A.A.A.A.A.A.A.A.A.A.A.A.A.A.A.A.A.A.A.A.A.A.A.A.A.A.A.D.K.I.b.G 7 o o &                                                                                                                                                                                                                                                                                                                                                                                                         ",
"h.                                                                                                                                                                                                                                                                          o o % G C.I.A.A.A.A.A.A.A.Z.G.J.v.D ; o o o o 6 K N.G.D.A.A.A.A.A.A.A.A.A.A.A.A.A.A.A.A.A.A.A.A.A.A.A.A.A.A.A.A.A.A.A.A.A.A.A.A.A.A.A.A.A.A.A.A.A.A.A.A.A.A.A.A.A.A.A.A.A.A.D.J.M.i.p o # x -.[.oXoXXX|.|.|.|.|.|.|.|.|.|.|.|.|.|.|.|.|.|.|.|.|.|.|.|.|.|.|.|.|.|.|.|.|.|.|.|.oX[.x o m 8.w.0.0.0.0.w.r.q.3.n 4 o 7 H m.K.G.A.A.A.A.A.A.A.A.A.A.A.A.A.A.A.A.A.A.A.A.A.A.A.A.A.A.A.A.A.A.A.A.A.A.A.A.A.A.A.A.A.A.A.A.A.A.A.A.A.A.A.A.A.A.A.A.A.G.Y.D.k.C o o o ,                                                                                                                                                                                                                                                                                                                                                                                                           ",
"h.                                                                                                                                                                                                                                                                          , o o ; d.K.J.A.A.A.A.A.Z.K.J.z.C o o o o o 7 s.C.J.A.A.A.A.A.A.A.A.A.A.A.A.A.A.A.A.A.A.A.A.A.A.A.A.A.A.A.A.A.A.A.A.A.A.A.A.A.A.A.A.A.A.A.A.A.A.A.A.A.A.A.A.A.A.A.A.A.A.A.A.A.D.J.D.c.F : o - c ;.[.oXoXXX|.|.|.|.|.|.|.|.|.|.|.|.|.|.|.|.|.|.|.|.|.|.|.|.|.|.|.|.|.|.|.|.|.|.XX}.B o x 5.e.0.0.w.r.e.4.V e o o d j.Z.I.A.A.A.A.A.A.A.A.A.A.A.A.A.A.A.A.A.A.A.A.A.A.A.A.A.A.A.A.A.A.A.A.A.A.A.A.A.A.A.A.A.A.A.A.A.A.A.A.A.A.A.A.A.A.A.A.A.D.I.Y.M.J 7 o o o ,                                                                                                                                                                                                                                                                                                                                                                                                             ",
"h.                                                                                                                                                                                                                                                                          , o o o u z.I.G.A.A.A.A.I.J.g.p o o o o o 8 g.G.I.A.A.A.A.A.A.A.A.A.A.A.A.A.A.A.A.A.A.A.A.A.A.A.A.A.A.A.A.A.A.A.A.A.A.A.A.A.A.A.A.A.A.A.A.A.A.A.A.A.A.A.A.A.A.A.A.A.A.A.A.A.A.A.A.J.Y.V.j.C o o 3 c -.u.XXoXoX|.|.|.|.|.|.|.|.|.|.|.|.|.|.|.|.|.|.|.|.|.|.|.|.|.|.|.|.|.|.|.|.XXXXo.o r 4.e.e.r.w.4. .r o o 8 H n.K.J.Z.A.A.A.A.A.A.A.A.A.A.A.A.A.A.A.A.A.A.A.A.A.A.A.A.A.A.A.A.A.A.A.A.A.A.A.A.A.A.A.A.A.A.A.A.A.A.A.A.A.A.A.A.A.A.A.A.G.I.Z.l.C o o o &                                                                                                                                                                                                                                                                                                                                                                                                                 ",
"h.                                                                                                                                                                                                                                                                          & o 8 u o d b.I.D.A.D.I.C.i.7 o o % o o p l.I.K.A.A.A.A.A.A.A.A.A.A.A.A.A.A.A.A.A.A.A.A.A.A.A.A.A.A.A.A.A.A.A.A.A.A.A.A.A.A.A.A.A.A.A.A.A.A.A.A.A.A.A.A.A.A.A.A.A.A.A.A.A.A.A.A.A.A.D.I.I.N.d.d % o - z o.6.{.oXoXXX|.|.|.|.|.|.|.|.|.|.|.|.|.|.|.|.|.|.|.|.|.|.|.|.|.|.|.|.|.XXoX;.= 4 3.r.8.3.V r # o 6 D z.Z.I.G.Z.A.A.A.A.A.A.A.A.A.A.A.A.A.A.A.A.A.A.A.A.A.A.A.A.A.A.A.A.A.A.A.A.A.A.A.A.A.A.A.A.A.A.A.A.A.A.A.A.A.A.A.A.A.A.A.A.K.G.b.H 8 o o o &                                                                                                                                                                                                                                                                                                                                                                                                                   ",
"h.                                                                                                                                                                                                                                                                          o o Z i.8 o D m.J.D.I.M.G ; o o o o o d x.I.K.A.A.A.A.A.A.A.A.A.A.A.A.A.A.A.A.A.A.A.A.A.A.A.A.A.A.A.A.A.A.A.A.A.A.A.A.A.A.A.A.A.A.A.A.A.A.A.A.A.A.A.A.A.A.A.A.A.A.A.A.A.A.A.A.A.A.A.A.A.G.I.J.m.d.C : o o w b -.6.{.XXoXXX|.|.|.|.|.|.|.|.|.|.|.|.|.|.|.|.|.|.|.|.|.|.|.|.|.|.|.oX,.5 -  .&.v e # o 6 S k.B.I.J.D.A.A.A.A.A.A.A.A.A.A.A.A.A.A.A.A.A.A.A.A.A.A.A.A.A.A.A.A.A.A.A.A.A.A.A.A.A.A.A.A.A.A.A.A.A.A.A.A.A.A.A.A.A.A.A.A.G.J.M.d.d % o o &                                                                                                                                                                                                                                                                                                                                                                                                                       ",
"h.                                                                                                                                                                                                                                                                          o o F B.i.% o G N.J.v.D o o o o o % Z c.I.J.A.A.A.A.A.A.A.A.A.A.A.A.A.A.A.A.A.A.A.A.A.A.A.A.A.A.A.A.A.A.A.A.A.A.A.A.A.A.A.A.A.A.A.A.A.A.A.A.A.A.A.A.A.A.A.A.A.A.A.A.A.A.A.A.A.A.A.A.A.A.A.A.G.I.G.M.j.D i o o - r b o.,.u.{.|.XXXXXX|.|.|.|.|.|.|.|.|.|.|.|.|.|.|.|.|.XXXXXXXX}.{.;.3 o w 3 o o u F k.B.I.I.G.A.A.A.A.A.A.A.A.A.A.A.A.A.A.A.A.A.A.A.A.A.A.A.A.A.A.A.A.A.A.A.A.A.A.A.A.A.A.A.A.A.A.A.A.A.A.A.A.A.A.A.A.A.A.A.D.G.J.V.k.S : o o o ,                                                                                                                                                                                                                                                                                                                                                                                                                         ",
"h.                                                                                                                                                                                                                                                                          o o G I.V.G o : J j.C o o o o o ; D v.J.G.A.A.A.A.A.A.A.A.A.A.A.A.A.A.A.A.A.A.A.A.A.A.A.A.A.A.A.A.A.A.A.A.A.A.A.A.A.A.A.A.A.A.A.A.A.A.A.A.A.A.A.A.A.A.A.A.A.A.A.A.A.A.A.A.A.A.A.A.A.A.A.A.A.A.D.G.J.G.B.x.L Z 8 % o - w z n o.;.6.u.[.{.}.|.|.|.XXXXXXXXXXXX|.|.|.}.{.[.u.,.-.] b e o o o 7 C J x.B.J.K.G.A.A.A.A.A.A.A.A.A.A.A.A.A.A.A.A.A.A.A.A.A.A.A.A.A.A.A.A.A.A.A.A.A.A.A.A.A.A.A.A.A.A.A.A.A.A.A.A.A.A.A.A.A.A.A.D.G.J.C.x.F 7 o o o &                                                                                                                                                                                                                                                                                                                                                                                                                             ",
"h.                                                                                                                                                                                                                                                                        , o % K J.Y.m.D % 6 8 o o o o o : F n.G.D.A.A.A.A.A.A.A.A.A.A.A.A.A.A.A.A.A.A.A.A.A.A.A.A.A.A.A.A.A.A.A.A.A.A.A.A.A.A.A.A.A.A.A.A.A.A.A.A.A.A.A.A.A.A.A.A.A.A.A.A.A.A.A.A.A.A.A.A.A.A.A.A.A.A.A.A.A.A.G.G.G.Z.M.z.L S p : % # $ 3 e z b B ] o.-.;.,.,.,.,.,.;.;.-.o.] m c y w 3 $ o ; 7 s G k.n.C.G.G.D.A.A.A.A.A.A.A.A.A.A.A.A.A.A.A.A.A.A.A.A.A.A.A.A.A.A.A.A.A.A.A.A.A.A.A.A.A.A.A.A.A.A.A.A.A.A.A.A.A.A.A.A.A.A.A.D.G.J.C.x.H p % o o o ,                                                                                                                                                                                                                                                                                                                                                                                                                               ",
"h.                                                                                                                                                                                                                                                                        , o ; d.I.G.J.v.Z o o o o o o : H M.G.D.A.A.A.A.A.A.A.A.A.A.A.A.A.A.A.A.A.A.A.A.A.A.A.D.G.D.A.A.A.A.A.A.A.A.A.A.A.A.A.A.A.A.A.A.A.A.A.A.A.A.A.A.A.A.A.A.A.A.A.A.A.A.A.A.A.A.A.A.A.A.A.A.A.A.A.A.A.A.A.A.A.D.D.G.G.A.N.c.g.J S s 8 : % o o # $ - 3 4 4 4 4 4 4 3 - $ # o o % : 8 d D i.l.n.C.G.G.D.D.A.A.A.A.A.A.A.A.A.A.A.A.A.A.A.A.A.A.A.A.A.A.A.A.A.A.A.A.A.A.A.A.A.A.A.A.A.A.A.A.A.A.A.A.A.A.A.A.A.A.A.A.A.A.A.D.K.J.C.x.H a ; o o o ,                                                                                                                                                                                                                                                                                                                                                                                                                                   ",
"h.                                                                                                                                                                                                                                                                        & o : j.Y.D.A.G.x.a o o o o 7 K B.J.D.A.A.A.A.A.A.A.A.A.A.A.A.A.A.A.A.A.A.A.A.A.A.A.D.K.I.I.G.A.A.A.A.A.A.A.A.A.A.A.A.A.A.A.A.A.A.A.A.A.A.A.A.A.A.A.A.A.A.A.A.A.A.A.A.A.A.A.A.A.A.A.A.A.A.A.A.A.A.A.A.A.A.A.A.A.A.D.D.G.J.Z.N.b.z.f.J F S C a u 8 7 6 6 6 6 7 8 i s C S G K g.x.n.V.G.J.G.D.A.A.A.A.A.A.A.A.A.A.A.A.A.A.A.A.A.A.A.A.A.A.A.A.A.A.A.A.A.A.A.A.A.A.A.A.A.A.A.A.A.A.A.A.A.A.A.A.A.A.A.A.A.A.A.A.A.G.I.I.C.x.H a ; o o o ,                                                                                                                                                                                                                                                                                                                                                                                                                                       ",
"h.                                                                                                                                                                                                                                                                        , o 7 z.Y.D.A.D.J.z.a o o : d.J.I.A.A.A.A.A.A.A.A.A.A.A.A.A.A.A.A.A.A.A.A.A.A.A.A.A.J.m.f.z.A.J.Z.A.A.A.A.A.A.A.A.A.A.A.A.A.A.A.A.A.A.A.A.A.A.A.A.A.A.A.A.A.A.A.A.A.A.A.A.A.A.A.A.A.A.A.A.A.A.A.A.A.A.A.A.A.A.A.A.A.A.A.A.D.G.J.I.I.G.C.B.M.n.v.x.z.z.l.l.z.z.x.v.n.M.B.Z.J.I.I.J.G.D.A.A.A.A.A.A.A.A.A.A.A.A.A.A.A.A.A.A.A.A.A.A.A.A.A.A.A.A.A.A.A.A.A.A.A.A.A.A.A.A.A.A.A.A.A.A.A.A.A.A.A.A.A.A.A.A.A.A.G.Y.I.V.z.F u o o o o ,                                                                                                                                                                                                                                                                                                                                                                                                                                           ",
"h.                                                                                                                                                                                                                                                                        & o 8 x.Y.A.A.A.G.I.z.u o : i.G.I.D.A.A.A.A.A.A.A.A.A.A.A.A.A.A.A.A.A.A.A.A.A.A.Z.I.M.S % 8 f.D.G.A.A.A.A.A.A.A.A.A.A.A.A.A.A.A.A.A.A.A.A.A.A.A.A.A.A.A.A.A.A.A.A.A.A.A.A.A.A.A.A.A.A.A.A.A.A.A.A.A.A.A.A.A.A.A.A.A.A.A.A.A.A.A.A.D.G.G.J.I.I.Y.Y.Y.Y.Y.Y.Y.Y.Y.Y.I.I.J.G.D.D.A.A.A.A.A.A.A.A.A.A.A.A.A.A.A.A.A.A.A.A.A.A.A.A.A.A.A.A.A.A.A.A.A.A.A.A.A.A.A.A.A.A.A.A.A.A.A.A.A.A.A.A.A.A.A.A.A.A.A.D.J.Y.J.M.j.S 7 o o o o ,                                                                                                                                                                                                                                                                                                                                                                                                                                               ",
"h.                                                                                                                                                                                                                                                                        & o i v.Y.A.A.A.A.J.I.z.a o : J B.I.D.A.A.A.A.A.A.A.A.A.A.A.A.A.A.A.A.A.A.A.A.Z.I.Z.F o o o 8 k.J.D.A.A.A.A.A.A.A.A.A.A.A.A.A.A.A.A.A.A.A.A.A.A.A.A.A.A.A.A.A.A.A.A.A.A.A.A.A.A.A.A.A.A.A.A.A.A.A.A.A.A.A.A.A.A.A.A.A.A.A.A.A.A.A.A.A.A.A.A.A.A.A.A.D.D.D.D.A.A.A.A.A.A.A.A.A.A.A.A.A.A.A.A.A.A.A.A.A.A.A.A.A.A.A.A.A.A.A.A.A.A.A.A.A.A.A.A.A.A.A.A.A.A.A.A.A.A.A.A.A.A.A.A.A.A.A.A.A.A.A.A.A.A.D.K.I.C.v.i.C : o o o o &                                                                                                                                                                                                                                                                                                                                                                                                                                                   ",
"h.                                                                                                                                                                                                                                                                        & o a b.I.A.A.A.A.A.J.Y.v.C o ; G m.K.D.A.A.A.A.A.A.A.A.A.A.A.A.A.A.A.A.A.A.A.J.J.i.o o o o o F D.G.A.A.A.A.A.A.A.A.A.A.A.A.A.A.A.A.A.A.A.A.A.A.A.A.A.A.A.A.A.A.A.A.A.A.A.A.A.A.A.A.A.A.A.A.A.A.A.A.A.A.A.A.A.A.A.A.A.A.A.A.A.A.A.A.A.A.A.A.A.A.A.A.A.A.A.A.A.A.A.A.A.A.A.A.A.A.A.A.A.A.A.A.A.A.A.A.A.A.A.A.A.A.A.A.A.A.A.A.A.A.A.A.A.A.A.A.A.A.A.A.A.A.A.A.A.A.A.A.A.A.A.A.A.A.A.A.A.A.A.A.G.I.G.M.k.F p ; o o o o ,                                                                                                                                                                                                                                                                                                                                                                                                                                                       ",
"h.                                                                                                                                                                                                                                                                        & o s n.I.A.A.A.A.A.A.G.Y.b.S o % D c.G.D.A.A.A.A.A.A.A.A.A.A.A.A.A.A.A.A.A.G.K.j.6 o o o o : s.G.G.A.A.A.A.A.A.A.A.A.A.A.A.A.A.A.A.A.A.A.A.A.A.A.A.A.A.A.A.A.A.A.A.A.A.A.A.A.A.A.A.A.A.A.A.A.A.A.A.A.A.A.A.A.A.A.A.A.A.A.A.A.A.A.A.A.A.A.A.A.A.A.A.A.A.A.A.A.A.A.A.A.A.A.A.A.A.A.A.A.A.A.A.A.A.A.A.A.A.A.A.A.A.A.A.A.A.A.A.A.A.A.A.A.A.A.A.A.A.A.A.A.A.A.A.A.A.A.A.A.A.A.A.A.A.A.A.D.D.G.G.N.x.K C 7 o o o o & ,                                                                                                                                                                                                                                                                                                                                                                                                                                                           ",
"h.                                                                                                                                                                                                                                                                        & o d m.I.A.A.A.A.A.A.A.G.I.m.F : o C l.C.G.D.A.A.A.A.A.A.A.A.A.A.A.A.A.A.D.I.x.p o o o o ; G N.G.A.A.A.A.A.A.A.A.A.A.A.A.A.A.A.A.A.A.A.A.A.A.A.A.A.A.A.A.A.A.A.A.A.A.A.A.A.A.A.A.A.A.A.A.A.A.A.A.A.A.A.A.A.A.A.A.A.A.A.A.A.A.A.A.A.A.A.A.A.A.A.A.A.A.A.A.A.A.A.A.A.A.A.A.A.A.A.A.A.A.A.A.A.A.A.A.A.A.A.A.A.A.A.A.A.A.A.A.A.A.A.A.A.A.A.A.A.A.A.A.A.A.A.A.A.A.A.A.A.A.A.A.A.D.G.G.G.D.B.c.d.D u % o o o o ,                                                                                                                                                                                                                                                                                                                                                                                                                                                                 ",
"h.                                                                                                                                                                                                                                                                        & o d m.I.A.A.A.A.A.A.A.A.D.K.M.K 8 o p i.N.I.G.A.A.A.A.A.A.A.A.A.A.A.A.D.I.m.Z o o o o o S b.J.A.A.A.A.A.A.A.A.A.A.A.A.A.A.A.A.A.A.A.A.A.A.A.A.A.A.A.A.A.A.A.A.A.A.A.A.A.A.A.A.A.A.A.A.A.A.A.A.A.A.A.A.A.A.A.A.A.A.A.A.A.A.A.A.A.A.A.A.A.A.A.A.A.A.A.A.A.A.A.A.A.A.A.A.A.A.A.A.A.A.A.A.A.A.A.A.A.A.A.A.A.A.A.A.A.A.A.A.A.A.A.A.A.A.A.A.A.A.A.A.A.A.A.A.A.A.A.A.A.A.D.D.G.J.G.D.B.c.d.D a 6 o o o o & ,                                                                                                                                                                                                                                                                                                                                                                                                                                                                     ",
"h.                                                                                                                                                                                                                                                                        & o d m.I.A.A.A.A.A.A.A.A.A.D.G.B.f.a o : F b.I.K.D.A.A.A.A.A.A.A.A.A.D.I.B.F o o o o o d x.G.A.A.A.A.A.A.A.A.A.A.A.A.A.A.A.A.A.A.A.A.A.A.A.A.A.A.A.A.A.A.A.A.A.A.A.A.A.A.A.A.A.A.A.A.A.A.A.A.A.A.A.A.A.A.A.A.A.A.A.A.A.A.A.A.A.A.A.A.A.A.A.A.A.A.A.A.A.A.A.A.A.A.A.A.A.A.A.A.A.A.A.A.A.A.A.A.A.A.A.A.A.A.A.A.A.A.A.A.A.A.A.A.A.A.A.A.A.A.A.A.A.A.A.A.A.A.A.A.D.G.J.I.J.A.N.x.s.D a 6 o o o o o &                                                                                                                                                                                                                                                                                                                                                                                                                                                                           ",
"h.                                                                                                                                                                                                                                                                        & o d m.I.A.A.A.A.A.A.A.A.A.A.A.D.A.x.Z o o d j.C.Y.G.A.A.A.A.A.A.A.A.J.Z.K : o o o o i j.D.D.A.A.A.A.A.A.A.A.A.A.A.A.A.A.A.A.A.A.A.A.A.A.A.A.A.A.A.A.A.A.A.A.A.A.A.A.A.A.A.A.A.A.A.A.A.A.A.A.A.A.A.A.A.A.A.A.A.A.A.A.A.A.A.A.A.A.A.A.A.A.A.A.A.A.A.A.A.A.A.A.A.A.A.A.A.A.A.A.A.A.A.A.A.A.A.A.A.A.A.A.A.A.A.A.A.A.A.A.A.A.A.A.A.A.A.A.A.A.A.A.A.A.A.A.D.G.J.I.I.J.C.m.l.K S i ; o o o o o , 1                                                                                                                                                                                                                                                                                                                                                                                                                                                                               ",
"h.                                                                                                                                                                                                                                                                        , o d m.I.A.A.A.A.A.A.A.A.A.A.A.A.G.I.m.H 6 o 6 G n.K.I.D.A.A.A.A.A.G.G.g.7 o o o o 6 s.Z.G.A.A.A.A.A.A.A.A.A.A.A.A.A.A.A.A.A.A.A.A.A.A.A.A.A.A.A.A.A.A.A.A.A.A.A.A.A.A.A.A.A.A.A.A.A.A.A.A.A.A.A.A.A.A.A.A.A.A.A.A.A.A.A.A.A.A.A.A.A.A.A.A.A.A.A.A.A.A.A.A.A.A.A.A.A.A.A.A.A.A.A.A.A.A.A.A.A.A.A.A.A.A.A.A.A.A.A.A.A.A.A.A.A.A.A.A.A.A.A.A.A.D.G.J.I.Y.I.D.N.c.d.F d 7 o o o o o o , 1                                                                                                                                                                                                                                                                                                                                                                                                                                                                                     ",
"h.                                                                                                                                                                                                                                                                        , o s n.I.A.A.A.A.A.A.A.A.A.A.A.A.A.D.I.Z.j.s o o d f.B.I.K.A.A.A.A.J.x.a o o o o o H V.J.A.A.A.A.A.A.A.A.A.A.A.A.A.A.A.A.A.A.A.A.A.A.A.A.A.A.A.A.A.A.A.A.A.A.A.A.A.A.A.A.A.A.A.A.A.A.A.A.A.A.A.A.A.A.A.A.A.A.A.A.A.A.A.A.A.A.A.A.A.A.A.A.A.A.A.A.A.A.A.A.A.A.A.A.A.A.A.A.A.A.A.A.A.A.A.A.A.A.A.A.A.A.A.A.A.A.A.A.A.A.A.A.A.A.A.A.A.A.D.G.J.Y.Y.I.A.N.c.g.H C u ; o o o o o o & 1                                                                                                                                                                                                                                                                                                                                                                                                                                                                                           ",
"h.                                                                                                                                                                                                                                                                        & o a b.I.A.A.A.A.A.A.A.A.A.A.A.A.A.A.A.I.Y.n.G 6 o : S l.C.I.G.Z.K.n.C o o o o o S N.I.D.A.A.A.A.A.A.A.A.A.A.A.A.A.A.A.A.A.A.A.A.A.A.A.A.A.A.A.A.A.A.A.A.A.A.A.A.A.A.A.A.A.A.A.A.A.A.A.A.A.A.A.A.A.A.A.A.A.A.A.A.A.A.A.A.A.A.A.A.A.A.A.A.A.A.A.A.A.A.A.A.A.A.A.A.A.A.A.A.A.A.A.A.A.A.A.A.A.A.A.A.A.A.A.A.A.A.A.A.A.A.A.A.A.D.D.G.K.I.I.G.V.m.x.d.G C i : o o o o o o & ,                                                                                                                                                                                                                                                                                                                                                                                                                                                                                                   ",
"h.                                                                                                                                                                                                                                                                        & o u c.Y.A.A.A.A.A.A.A.A.A.A.A.A.A.A.A.Z.G.Y.C.j.C % o 8 G x.Z.Y.N.F o o o o o d b.Y.D.A.A.A.A.A.A.A.A.A.A.A.A.A.A.A.A.A.A.A.A.A.A.A.A.A.A.A.A.A.A.A.A.A.A.A.A.A.A.A.A.A.A.A.A.A.A.A.A.A.A.A.A.A.A.A.A.A.A.A.A.A.A.A.A.A.A.A.A.A.A.A.A.A.A.A.A.A.A.A.A.A.A.A.A.A.A.A.A.A.A.A.A.A.A.A.A.A.A.A.A.A.A.A.A.A.A.A.A.A.D.D.G.J.I.K.D.B.m.c.g.J D s 8 ; o o o o o o & & 1                                                                                                                                                                                                                                                                                                                                                                                                                                                                                                         ",
"h.                                                                                                                                                                                                                                                                        , o 7 z.Y.A.A.A.A.A.A.A.A.A.A.A.A.A.A.A.A.A.D.K.J.m.L a o o i H x.K : o o o o p z.I.G.Z.A.A.A.A.A.A.A.A.A.A.A.A.A.A.A.A.A.A.A.A.A.A.A.A.A.A.A.A.A.A.A.A.A.A.A.A.A.A.A.A.A.A.A.A.A.A.A.A.A.A.A.A.A.A.A.A.A.A.A.A.A.A.A.A.A.A.A.A.A.A.A.A.A.A.A.A.A.A.A.A.A.A.A.A.A.A.A.A.A.A.A.A.A.A.A.A.A.A.A.A.A.A.A.A.D.G.G.G.G.Z.B.M.v.z.f.H D d u : % o o o o o o & , 1                                                                                                                                                                                                                                                                                                                                                                                                                                                                                                                 ",
"h.                                                                                                                                                                                                                                                                        1 o 6 j.Y.D.A.A.A.A.A.A.A.A.A.A.A.A.A.A.A.A.A.A.G.J.Z.c.H p o % i 7 o o o o 8 g.J.J.A.A.A.A.A.A.A.A.A.A.A.A.A.A.A.A.A.A.A.A.A.A.A.A.A.A.A.A.A.A.A.A.A.A.A.A.A.A.A.A.A.A.A.A.A.A.A.A.A.A.A.A.A.A.A.A.A.A.A.A.A.A.A.A.A.A.A.A.A.A.A.A.A.A.A.A.A.A.A.A.A.A.A.A.A.A.A.A.A.A.A.A.A.A.A.A.A.A.A.A.A.A.A.A.D.D.B.v.z.j.s.H D C a 8 : % o o o o o o o & & 1                                                                                                                                                                                                                                                                                                                                                                                                                                                                                                                         ",
"h.                                                                                                                                                                                                                                                                          o ; d.I.G.A.A.A.A.A.A.A.A.A.A.A.A.A.A.A.A.A.A.A.D.G.J.C.x.H p % o o o o 6 K A.Y.G.D.A.A.A.A.A.A.A.A.A.A.A.A.A.A.A.A.A.A.A.A.A.A.A.A.A.A.A.A.A.A.A.A.A.A.A.A.A.A.A.A.A.A.A.A.A.A.A.A.A.A.A.A.A.A.A.A.A.A.A.A.A.A.A.A.A.A.A.A.A.A.A.A.A.A.A.A.A.A.A.A.A.A.A.A.A.A.A.A.A.A.A.A.A.A.A.A.A.A.A.A.A.A.A.J.M.H a u 6 ; % o o o o o o o o & , ,                                                                                                                                                                                                                                                                                                                                                                                                                                                                                                                                   ",
"h.                                                                                                                                                                                                                                                                          o o J G.G.A.A.A.A.A.A.A.A.A.A.A.A.A.A.A.A.A.A.A.A.A.D.D.J.C.x.H p o o o 8 H x.B.G.I.K.G.D.A.A.A.A.A.A.A.A.A.A.A.A.A.A.A.A.A.A.A.A.A.A.A.A.A.A.A.A.A.A.A.A.A.A.A.A.A.A.A.A.A.A.A.A.A.A.A.A.A.A.A.A.A.A.A.A.A.A.A.A.A.A.A.A.A.A.A.A.A.A.A.A.A.A.A.A.A.A.A.A.A.A.A.A.A.A.A.A.A.A.A.A.A.A.A.A.A.A.A.D.I.l.7 o o o o o o o o & & ,                                                                                                                                                                                                                                                                                                                                                                                                                                                                                                                                             ",
"h.                                                                                                                                                                                                                                                                          o o F C.J.A.A.A.A.A.A.A.A.A.A.A.A.A.A.A.A.A.A.A.A.A.A.A.A.D.J.Z.c.K d 6 o o 8 D d.v.V.J.I.I.G.D.A.A.A.A.A.A.A.A.A.A.A.A.A.A.A.A.A.A.A.A.A.A.A.A.A.A.A.A.A.A.A.A.A.A.A.A.A.A.A.A.A.A.A.A.A.A.A.A.A.A.A.A.A.A.A.A.A.A.A.A.A.A.A.A.A.A.A.A.A.A.A.A.A.A.A.A.A.A.A.A.A.A.A.A.A.A.A.A.A.A.A.A.A.A.A.A.D.Y.l.6 o o , , 1                                                                                                                                                                                                                                                                                                                                                                                                                                                                                                                                                         ",
"h.                                                                                                                                                                                                                                                                          o o C N.I.A.A.A.A.A.A.A.A.A.A.A.A.A.A.A.A.A.A.A.A.A.A.A.A.A.A.D.I.G.m.j.D i o o o p D d.c.B.G.Y.Y.K.G.D.A.A.A.A.A.A.A.A.A.A.A.A.A.A.A.A.A.A.A.A.A.A.A.A.A.A.A.A.A.A.A.A.A.A.A.A.A.A.A.A.A.A.A.A.A.A.A.A.A.A.A.A.A.A.A.A.A.A.A.A.A.A.A.A.A.A.A.A.A.A.A.A.A.A.A.A.A.A.A.A.A.A.A.A.A.A.A.A.A.A.A.A.A.I.M.d o o                                                                                                                                                                                                                                                                                                                                                                                                                                                                                                                                                               ",
"h.                                                                                                                                                                                                                                                                          & o i v.Y.A.A.A.A.A.A.A.A.A.A.A.A.A.A.A.A.A.A.A.A.A.A.A.A.A.A.A.A.D.I.I.C.c.L C 6 o o o u S K z.M.Z.I.Y.Y.K.G.D.A.A.A.A.A.A.A.A.A.A.A.A.A.A.A.A.A.A.A.A.A.A.A.A.A.A.A.A.A.A.A.A.A.A.A.A.A.A.A.A.A.A.A.A.A.A.A.A.A.A.A.A.A.A.A.A.A.A.A.A.A.A.A.A.A.A.A.A.A.A.A.A.A.A.A.A.A.A.A.A.A.A.A.A.A.A.A.A.A.G.G.K o o &                                                                                                                                                                                                                                                                                                                                                                                                                                                                                                                                                             ",
"h.                                                                                                                                                                                                                                                                          , o : j.Y.D.A.A.A.A.A.A.A.A.A.A.A.A.A.A.A.A.A.A.A.A.A.A.A.A.A.A.A.A.A.D.I.Y.J.N.z.J C 7 o o o 6 s F s.z.m.V.J.I.Y.I.I.G.D.A.A.A.A.A.A.A.A.A.A.A.A.A.A.A.A.A.A.A.A.A.A.A.A.A.A.A.A.A.A.A.A.A.A.A.A.A.A.A.A.A.A.A.A.A.A.A.A.A.A.A.A.A.A.A.A.A.A.A.A.A.A.A.A.A.A.A.A.A.A.A.A.A.A.A.A.A.A.A.A.A.A.A.A.A.Y.x.8 o o                                                                                                                                                                                                                                                                                                                                                                                                                                                                                                                                                             ",
"h.                                                                                                                                                                                                                                                                          , o o J G.J.A.A.A.A.A.A.A.A.A.A.A.A.A.A.A.A.A.A.A.A.A.A.A.A.A.A.A.A.A.A.A.A.G.I.Y.D.N.z.L S p % o o % 7 s D J g.x.v.m.Z.K.I.K.J.G.D.D.D.A.A.A.A.A.A.A.A.A.A.A.A.A.A.A.A.A.A.A.A.A.A.A.A.A.A.A.A.A.A.A.A.A.A.A.A.A.A.A.A.A.A.A.A.A.A.A.A.A.A.A.A.A.A.A.A.A.A.A.A.A.A.A.A.A.A.A.A.A.A.A.A.A.D.D.D.D.G.Y.V.S o o                                                                                                                                                                                                                                                                                                                                                                                                                                                                                                                                                             ",
"h.                                                                                                                                                                                                                                                                            o o Z B.I.A.A.A.A.A.A.A.A.A.A.A.A.A.A.A.A.A.A.A.A.A.A.A.A.A.A.A.A.A.A.A.A.A.A.D.J.I.I.G.V.v.g.H Z u ; o o % : 8 u s G s.k.x.b.M.B.C.D.G.G.G.G.G.G.G.D.D.D.D.D.D.D.D.D.D.D.D.D.D.D.D.D.D.D.D.G.G.G.G.G.G.J.G.D.D.A.A.A.A.A.A.A.A.A.A.A.A.A.A.A.A.A.A.A.A.A.A.A.D.D.D.D.D.D.G.G.G.G.G.G.G.D.Z.C.B.N.N.N.H ; o &                                                                                                                                                                                                                                                                                                                                                                                                                                                                                                                                                           ",
"h.                                                                                                                                                                                                                                                                            o o i c.Y.D.A.A.A.A.A.A.A.A.A.A.A.A.A.A.A.A.A.A.A.A.A.A.A.A.A.A.A.A.A.A.A.A.A.A.A.A.D.G.K.K.G.Z.M.c.g.J D d : o o o o : 6 i s Z D G K d.j.z.x.v.b.m.M.N.B.B.V.C.C.C.Z.C.Z.C.C.C.C.V.V.B.N.M.M.n.b.c.z.k.f.i.f.n.D.D.A.A.A.A.A.A.A.A.A.A.A.A.A.D.D.D.G.G.G.G.G.D.D.Z.V.B.M.n.v.x.l.j.f.i.J H G D S Z Z a % o o                                                                                                                                                                                                                                                                                                                                                                                                                                                                                                                                                           ",
"h.                                                                                                                                                                                                                                                                            , o ; d.J.G.A.A.A.A.A.A.A.A.A.A.A.A.A.A.A.A.A.A.A.A.A.A.A.A.A.A.A.A.A.A.A.A.A.A.A.A.A.A.A.D.G.G.J.G.G.G.N.i.i o o o o o o o o o o % ; : 6 8 i a d C Z S D F G G H H H J J H H H H G F F D S Z d s p u 7 ; % ; G B.G.A.A.A.A.A.A.A.D.D.G.G.J.J.G.G.A.C.B.m.v.z.j.d.K G D Z d a i 8 6 ; ; % % # # # # # # o o o                                                                                                                                                                                                                                                                                                                                                                                                                                                                                                                                                           ",
"h.                                                                                                                                                                                                                                                                            1 o o D V.I.A.A.A.A.A.A.A.A.A.A.A.A.A.A.A.A.A.A.A.A.A.A.A.A.A.A.A.A.A.A.A.A.A.A.A.A.A.A.A.A.A.A.A.G.I.V.d.a o o o 1 1 , , & o o o o o o o o o o o o o o o o o % % % % ; ; % % % % % o o o o o o o o o o o o o u z.G.D.A.D.D.G.J.I.K.J.D.C.B.n.x.j.s.H D C a u 6 ; % o o o # $ - - 3 4 w e e r y z x x c r $ o ,                                                                                                                                                                                                                                                                                                                                                                                                                                                                                                                                                         ",
"h.                                                                                                                                                                                                                                                                              o o i c.I.D.A.A.A.A.A.A.A.A.A.A.A.A.A.A.A.A.A.A.A.A.A.A.A.A.A.A.A.A.A.A.A.A.A.A.A.A.A.A.A.A.A.J.I.m.H 7 o o &                   1 , & , & & & o o o o o o o o o o o o o o o o o o o o o o o o o & & , & & o ; J A.I.I.I.I.G.C.N.v.l.d.H S s u 6 % o o o # - 3 4 w r y x c b n m B V ] ] ....O.O.+.+.$.m 3 o &                                                                                                                                                                                                                                                                                                                                                                                                                                                                                                                                                         ",
"h.                                                                                                                                                                                                                                                                              & o % L G.J.A.A.A.A.A.A.A.A.A.A.A.A.A.A.A.A.A.A.A.A.A.A.A.A.A.A.A.A.A.A.A.A.A.A.A.A.A.A.A.D.I.I.x.S ; o o ,                                                   1 1 1 1 1 1 1 1 1                           o o C m.D.N.b.l.i.F C p 6 % o o o # - 4 e y x c n B V ] ..O.+.@.#.$.$.$.#.#.@.@.@.@.@.@.+.@.] w o o                                                                                                                                                                                                                                                                                                                                                                                                                                                                                                                                                         ",
"h.                                                                                                                                                                                                                                                                                o o C M.K.A.A.A.A.A.A.A.A.A.A.A.A.A.A.A.A.A.A.A.A.A.A.A.A.A.A.A.A.A.A.A.A.A.A.A.A.A.A.G.Y.C.f.p o o o ,                                                                                                 & o 6 F H Z i : o o o o $ 3 e y c n B ] ..O.@.$.$.$.$.$.#.@.@.@.+.+.+.+.+.+.+.+.+.+.+.+.+.@.O.z o o 1                                                                                                                                                                                                                                                                                                                                                                                                                                                                                                                                                       ",
"h.                                                                                                                                                                                                                                                                                & o : f.G.G.A.A.A.A.A.A.A.A.A.A.A.A.A.A.A.A.A.A.A.A.A.A.A.A.A.A.A.A.A.A.A.A.A.A.A.D.I.I.b.F : o o o                                                                                                     , o o o o o o $ 4 e z b m V ..O.@.$.$.$.$.#.@.@.+.+.+.+.+.+.+.+.+.+.+.+.+.+.+.+.+.+.+.+.+.+.@.b = o &                                                                                                                                                                                                                                                                                                                                                                                                                                                                                                                                                       ",
"h.                                                                                                                                                                                                                                                                                1 o o Z M.G.D.A.A.A.A.A.A.A.A.A.A.A.A.A.A.A.A.A.A.A.A.A.A.A.A.A.A.A.A.A.A.A.A.A.G.I.B.f.s o o o &                                                                                                         o o # w z c m V ..+.#.$.$.$.#.@.@.+.+.+.+.+.+.+.+.+.+.+.+.+.+.+.+.+.+.+.+.+.+.+.+.+.+.+.+.@.B 3 o &                                                                                                                                                                                                                                                                                                                                                                                                                                                                                                                                                       ",
"h.                                                                                                                                                                                                                                                                                  & o 6 d.D.D.A.A.A.A.A.A.A.A.A.A.A.A.A.A.A.A.A.A.A.A.A.A.A.A.A.A.A.A.A.A.A.D.G.C.x.F 6 o o o ,                                                                                                           & o - b +.@.$.$.$.#.@.@.+.+.+.+.+.+.+.+.+.+.+.+.+.+.+.+.+.+.+.+.+.+.+.+.+.+.+.+.+.+.+.+.+.@.] e o o                                                                                                                                                                                                                                                                                                                                                                                                                                                                                                                                                       ",
"h.                                                                                                                                                                                                                                                                                  1 o o d v.G.A.A.A.A.A.A.A.A.A.A.A.A.A.A.A.A.A.A.A.A.A.A.A.A.A.A.A.A.D.G.G.C.c.H p o o o &                                                                                                               , o $ c #.#.@.+.+.+.+.+.+.+.+.+.+.+.+.+.+.+.+.+.+.+.+.+.+.+.+.+.+.+.+.+.+.+.+.+.+.+.+.+.+.@.O.z o o                                                                                                                                                                                                                                                                                                                                                                                                                                                                                                                                                       ",
"h.                                                                                                                                                                                                                                                                                    & o ; G N.G.A.A.A.A.A.A.A.A.A.A.A.A.A.A.A.A.A.A.A.A.A.A.A.A.D.G.J.J.C.v.K s ; o o o ,                                                                                                                   o o r ..@.+.+.+.+.+.+.+.+.+.+.+.+.+.+.+.+.+.+.+.+.+.+.+.+.+.+.+.+.+.+.+.+.+.+.+.+.+.+.+.@.+.c $ o                                                                                                                                                                                                                                                                                                                                                                                                                                                                                                                                                       ",
"h.                                                                                                                                                                                                                                                                                      o o 7 s.Z.K.A.A.A.A.A.A.A.A.A.A.A.A.A.A.A.A.A.A.A.A.D.G.J.K.J.V.x.J s ; o o o ,                               1 , 1                                                                                   o o 4 V $.+.+.+.+.+.+.+.+.+.+.+.+.+.+.+.+.+.+.+.+.+.+.+.+.+.+.+.+.+.+.+.+.+.+.+.+.+.+.+.+.@.n - o                                                                                                                                                                                                                                                                                                                                                                                                                                                                                                                                                       ",
"h.                                                                                                                                                                                                                                                                                      , o o i g.G.I.G.A.A.A.A.A.A.A.A.A.A.A.A.A.A.A.D.G.I.I.J.C.n.g.F i % o o o &                               & o o o o o & 1                                                                             , o - n $.+.+.+.+.+.+.+.+.+.+.+.+.+.+.+.+.+.+.+.+.+.+.+.+.+.+.+.+.+.+.+.+.+.+.+.+.+.+.+.+.@.V 4 o &                                                                                                                                                                                                                                                                                                                                                                                                                                                                                                                                                     ",
"h.                                                                                                                                                                                                                                                                                        , o o u d.V.Y.Y.K.G.G.D.D.D.D.D.D.G.J.K.I.Y.Y.G.V.b.j.G d 6 o o o o &                               & o o o o % o o o o &                                                                           , o o x +.@.+.+.+.+.+.+.+.+.+.+.+.+.+.+.+.+.+.+.+.+.+.+.+.+.+.+.+.+.+.+.+.+.+.+.+.+.+.+.+.@.] e o &                                                                                                                                                                                                                                                                                                                                                                                                                                                                                                                                                     ",
"h.                                                                                                                                                                                                                                                                                          & o o : D l.M.Z.J.I.Y.Y.Y.Y.Y.I.I.G.C.N.b.l.L D a : o o o o o &                                 , o o ; s G K H C ; o o &                                                                           o o r ..#.+.+.+.+.+.+.+.+.+.+.+.+.+.+.+.+.+.+.+.+.+.+.+.+.+.+.+.+.+.+.+.+.+.+.+.+.+.+.+.@.O.y o o                                                                                                                                                                                                                                                                                                                                                                                                                                                                                                                                                     ",
"h.                                                                                                                                                                                                                                                                                            , o o o 6 C G L g.k.z.z.z.l.g.s.J F Z p 6 o o o o o o & ,                                   , o o 8 J n.Z.J.J.N.K 6 o o 1                                                                         o o 4 ] $.+.+.+.+.+.+.+.+.+.+.+.+.+.+.+.+.+.+.+.+.+.+.+.+.+.+.+.+.+.+.+.+.+.+.+.+.+.+.+.@.+.x o o                                                                                                                                                                                                                                                                                                                                                                                                                                                                                                                                                     ",
"h.                                                                                                                                                                                                                                                                                              , o o o o o % : 6 7 7 7 6 : % o o o o o o o o & ,                                         o o 7 f.G.Y.K.G.J.Y.D.L ; o o                                                                         & o - m $.+.+.+.+.+.+.+.+.+.+.+.+.+.+.+.+.+.+.+.+.+.+.+.+.+.+.+.+.+.+.+.+.+.+.+.+.+.+.+.@.+.b $ o                                                                                                                                                                                                                                                                                                                                                                                                                                                                                                                                                     ",
"h.                                                                                                                                                                                                                                                                                                  , & o o o o o o o o o o o o o o o & ,                                               & o % H D.I.D.A.A.A.D.Y.B.D o o &                                                                       & o $ b $.#.@.@.@.@.@.@.@.#.#.#.#.#.@.@.@.@.@.@.@.@.@.+.+.+.+.+.+.+.+.+.+.+.+.+.+.+.+.+.@.@.n - o                                                                                                                                                                                                                                                                                                                                                                                                                                                                                                                                                     ",
"h.                                                                                                                                                                                                                                                                                                          , & , , & , , & , 1                                                         o o a b.Y.D.A.A.A.A.A.D.Y.x.i o o                                                                       1 o # e c c c c c c c c b b b n n m m B B V ] ] ....O.O.+.@.@.@.@.@.@.@.@.@.+.+.+.+.+.+.@.#.B 3 o 1                                                                                                                                                                                                                                                                                                                                                                                                                                                                                                                                                   ",
"h.                                                                                                                                                                                                                                                                                                                                                                                    , o o G D.K.A.A.A.A.A.A.A.J.C.G o o                                                                         o o o # # $ $ = = = = = $ $ $ - - - 3 3 4 w w e r z x c b n B V ] ..O.+.+.@.@.#.#.@.@.@.#.V 4 o ,                                                                                                                                                                                                                                                                                                                                                                                                                                                                                                                                                   ",
"h.                                                                                                                                                                                                                                                                                                                                                                                    & o : g.I.G.A.A.A.A.A.A.A.A.I.l.7 o &                                                                       o o < j j j j j j j j h h h t t 0 0 9 1 < = = # # o o o # $ - 3 w r z c b m V ] O.+.@.#.$.] w o ,                                                                                                                                                                                                                                                                                                                                                                                                                                                                                                                                                   ",
"h.                                                                                                                                                                                                                                                                                                                                                                                    , o 8 x.Y.D.A.A.A.A.A.A.A.A.G.M.Z o o                                                                       o o t (.OX.X.X.X.X.X.X X X X(.(.^.^.y.t.t.>.! Q W N M j h 0 5 < % o o o o $ 3 w r x b m ] V e o &                                                                                                                                                                                                                                                                                                                                                                                                                                                                                                                                                   ",
"h.                                                                                                                                                                                                                                                                                                                                                                                    & o p b.Y.A.A.A.A.A.A.A.A.A.D.D.K % o                                                                       & o t .X3X&X&X&X&X*X*X*X*X*X=X=X=X=X=X=X=X*X&X#X@X+XOX.X X(.y.>.! W N j t 9 = o o o o # 4 w 3 o &                                                                                                                                                                                                                                                                                                                                                                                                                                                                                                                                                   ",
"h.                                                                                                                                                                                                                                                                                                                                                                                    , o s m.I.A.A.A.A.A.A.A.A.A.A.J.l.8 o ,                                                                     & o 0 (.3X$X$X$X$X$X$X$X$X$X$X$X$X$X$X$X$X$X$X$X&X*X=X=X-X3X-X-X*X#X+X.X X^.t.! U j t 5 % o o o o                                                                                                                                                                                                                                                                                                                                                                                                                                                                                                                                                   ",
"h.                                                                                                                                                                                                                                                                                                                                                                                    , o s m.I.A.A.A.A.A.A.A.A.A.A.G.n.d o &                                                                     & o 9 ^.3X$X$X$X$X$X$X$X$X$X$X$X$X$X$X$X$X$X$X$X$X$X$X$X$X$X$X$X&X*X=X-X3X3X-X&X@XOX X^.>.Q t o o                                                                                                                                                                                                                                                                                                                                                                                                                                                                                                                                                   ",
"h.                                                                                                                                                                                                                                                                                                                                                                                    & o p n.Y.A.A.A.A.A.A.A.A.A.A.D.B.D o o                                                                     , o 5 ^.3X$X$X$X$X$X$X$X$X$X$X$X$X$X$X$X$X$X$X$X$X$X$X$X$X$X$X$X$X$X$X$X$X$X$X*X=X-X3X-X3X@XU o o                                                                                                                                                                                                                                                                                                                                                                                                                                                                                                                                                   ",
"h.                                                                                                                                                                                                                                                                                                                                                                                    , o u c.Y.A.A.A.A.A.A.A.A.A.A.D.A.K % o                                                                     , o 5 ^.3X$X$X$X$X$X$X$X$X$X$X$X$X$X$X$X$X$X$X$X$X$X$X$X$X$X$X$X$X$X$X$X$X$X$X$X$X$X$X$X-X#XU o o                                                                                                                                                                                                                                                                                                                                                                                                                                                                                                                                                   ",
"h.                                                                                                                                                                                                                                                                                                                                                                                      o 6 l.Y.D.A.A.A.A.A.A.A.A.A.D.D.g.6 o                                                                     , o 9 ^.3X$X$X$X$X$X$X$X$X$X$X$X$X$X$X$X$X$X$X$X$X$X$X$X$X$X$X$X$X$X$X$X$X$X$X$X$X$X$X$X=X@XU o o                                                                                                                                                                                                                                                                                                                                                                                                                                                                                                                                                   ",
"h.                                                                                                                                                                                                                                                                                                                                                                                      o % s.I.G.A.A.A.A.A.A.A.A.A.A.G.z.u o ,                                                                   , o 9 ^.3X$X$X$X$X$X$X$X$X$X$X$X$X$X$X$X$X$X$X$X$X$X$X$X$X$X$X$X$X$X$X$X$X$X$X$X$X$X$X$X=X+XN o o                                                                                                                                                                                                                                                                                                                                                                                                                                                                                                                                                   ",
"h.                                                                                                                                                                                                                                                                                                                                                                                      o o G A.J.A.A.A.A.A.A.A.A.A.A.G.v.s o ,                                                                   & o 0 ^.3X$X$X$X$X$X$X$X$X$X$X$X$X$X$X$X$X$X$X$X$X$X$X$X$X$X$X$X$X$X$X$X$X$X$X$X$X$X$X$X=X+XN o o                                                                                                                                                                                                                                                                                                                                                                                                                                                                                                                                                   ",
"h.                                                                                                                                                                                                                                                                                                                                                                                      o o C M.Y.A.A.A.A.A.A.A.A.A.A.G.M.Z o &                                                                   & o t (.3X$X$X$X$X$X$X$X$X$X$X$X$X$X$X$X$X$X$X$X$X$X$X$X$X$X$X$X$X$X$X$X$X$X$X$X$X$X$X$X=XOXM o &                                                                                                                                                                                                                                                                                                                                                                                                                                                                                                                                                   ",
"h.                                                                                                                                                                                                                                                                                                                                                                                      & o 7 x.Y.D.A.A.A.A.A.A.A.A.A.G.V.F o o                                                                   & o h  X3X$X$X$X$X$X$X$X$X$X$X$X$X$X$X$X$X$X$X$X$X$X$X$X$X$X$X$X$X$X$X$X$X$X$X$X$X$X$X$X=X.Xj o &                                                                                                                                                                                                                                                                                                                                                                                                                                                                                                                                                   ",
"h.                                                                                                                                                                                                                                                                                                                                                                                        o o K G.J.A.A.A.A.A.A.A.A.A.G.Z.J % o                                                                   o o j OX-X$X$X$X$X$X$X$X$X$X$X$X$X$X$X$X$X$X$X$X$X$X$X$X$X$X$X$X$X$X$X$X$X$X$X$X$X$X$X$X=X Xh o &                                                                                                                                                                                                                                                                                                                                                                                                                                                                                                                                                   ",
"h.                                                                                                                                                                                                                                                                                                                                                                                        o o C M.I.A.A.A.A.A.A.A.A.A.D.D.d.: o                                                                   o o N +X=X$X$X$X$X$X$X$X$X$X$X$X$X$X$X$X$X$X$X$X$X$X$X$X$X$X$X$X$X$X$X$X$X$X$X$X$X$X$X$X*X(.t o ,                                                                                                                                                                                                                                                                                                                                                                                                                                                                                                                                                   ",
"h.                                                                                                                                                                                                                                                                                                                                                                                        & o 6 k.I.G.A.A.A.A.A.A.A.A.D.G.l.7 o                                                                   o o Q $X*X$X$X$X$X$X$X$X$X$X$X$X$X$X$X$X$X$X$X$X$X$X$X$X$X$X$X$X$X$X$X$X$X$X$X$X$X$X$X$X&X^.9 o ,                                                                                                                                                                                                                                                                                                                                                                                                                                                                                                                                                   ",
"h.                                                                                                                                                                                                                                                                                                                                                                                        , o o D V.K.A.A.A.A.A.A.A.A.D.G.c.p o &                                                                 o < >.=X$X$X$X$X$X$X$X$X$X$X$X$X$X$X$X$X$X$X$X$X$X$X$X$X$X$X$X$X$X$X$X$X$X$X$X$X$X$X$X$X$Xt.1 o 1                                                                                                                                                                                                                                                                                                                                                                                                                                                                                                                                                   ",
"h.                                                                                                                                                                                                                                                                                                                                                                                          o o 8 z.J.D.A.A.A.A.A.A.A.A.J.m.C o &                                                               , o 0 ^.3X$X$X$X$X$X$X$X$X$X$X$X$X$X$X$X$X$X$X$X$X$X$X$X$X$X$X$X$X$X$X$X$X$X$X$X$X$X$X$X&X$X:.= o                                                                                                                                                                                                                                                                                                                                                                                                                                                                                                                                                     ",
"h.                                                                                                                                                                                                                                                                                                                                                                                          & o o F B.J.A.A.A.A.A.A.A.A.G.V.F o o                                                               & o j .X-X$X$X$X$X$X$X$X$X$X$X$X$X$X$X$X$X$X$X$X$X$X$X$X$X$X$X$X$X$X$X$X$X$X$X$X$X$X$X$X&X@XQ o o                                                                                                                                                                                                                                                                                                                                                                                                                                                                                                                                                     ",
"h.                                                                                                                                                                                                                                                                                                                                                                                            o o 8 k.G.D.A.A.A.A.A.A.A.G.Z.K % o                                                               o o W @X*X$X$X$X$X$X$X$X$X$X$X$X$X$X$X$X$X$X$X$X$X$X$X$X$X$X$X$X$X$X$X$X$X$X$X$X$X$X$X$X&X+XN o o                                                                                                                                                                                                                                                                                                                                                                                                                                                                                                                                                     ",
"h.                                                                                                                                                                                                                                                                                                                                                                                            , o o S m.J.A.A.A.A.A.A.A.D.G.j.6 o                                                               o < >.=X$X$X$X$X$X$X$X$X$X$X$X$X$X$X$X$X$X$X$X$X$X$X$X$X$X$X$X$X$X$X$X$X$X$X$X$X$X$X$X$X&X.Xj o o                                                                                                                                                                                                                                                                                                                                                                                                                                                                                                                                                     ",
"h.                                                                                                                                                                                                                                                                                                                                                                                              o o : L Z.G.A.A.A.A.A.A.D.K.v.a o &                                                           , o h (.-X$X$X$X$X$X$X$X$X$X$X$X$X$X$X$X$X$X$X$X$X$X$X$X$X$X$X$X$X$X$X$X$X$X$X$X$X$X$X$X$X&X(.t o &                                                                                                                                                                                                                                                                                                                                                                                                                                                                                                                                                     ",
"h.                                                                                                                                                                                                                                                                                                                                                                                                o o u l.J.D.A.A.A.A.A.A.K.B.D o o                                                           o o U +X&X$X$X$X$X$X$X$X$X$X$X$X$X$X$X$X$X$X$X$X$X$X$X$X$X$X$X$X$X$X$X$X$X$X$X$X$X$X$X$X$X$Xt.5 o ,                                                                                                                                                                                                                                                                                                                                                                                                                                                                                                                                                     ",
"h.                                                                                                                                                                                                                                                                                                                                                                                                , o o C b.I.A.A.A.A.A.A.G.G.s.% o                                                           o 5 t.*X$X$X$X$X$X$X$X$X$X$X$X$X$X$X$X$X$X$X$X$X$X$X$X$X$X$X$X$X$X$X$X$X$X$X$X$X$X$X$X$X$X#X! $ o ,                                                                                                                                                                                                                                                                                                                                                                                                                                                                                                                                                     ",
"h.                                                                                                                                                                                                                                                                                                                                                                                                  & o o F N.I.A.A.A.A.A.D.I.v.i o &                                                       o o j  X*X$X$X$X$X$X$X$X$X$X$X$X$X$X$X$X$X$X$X$X$X$X$X$X$X$X$X$X$X$X$X$X$X$X$X$X$X$X$X$X$X$X+XU o o                                                                                                                                                                                                                                                                                                                                                                                                                                                                                                                                                       ",
"h.                                                                                                                                                                                                                                                                                                                                                                        , & & & &                   o o % J C.I.A.A.A.A.A.I.C.F o o                                                       o = ! #X$X$X$X$X$X$X$X$X$X$X$X$X$X$X$X$X$X$X$X$X$X$X$X$X$X$X$X$X$X$X$X$X$X$X$X$X$X$X$X$X$X$X Xj o o                                                                                                                                                                                                                                                                                                                                                                                                                                                                                                                                                       ",
"h.                                                                                                                                                                                                                                                                                                                                                                  , o o o o o o o o o & ,           , o o : L Z.K.A.A.A.A.G.I.l.7 o &                                                   & o t (.&X$X$X$X$X$X$X$X$X$X$X$X$X$X$X$X$X$X$X$X$X$X$X$X$X$X$X$X$X$X$X$X$X$X$X$X$X$X$X$X$X$X&X^.0 o &                                                                                                                                                                                                                                                                                                                                                                                                                                                                                                                                                       ",
"h.                                                                                                                                                                                                                                                                                                                                                              & o o o : p C S p o o o o o &           , o o 7 s.C.K.D.A.A.A.I.B.D o o                                                   o o W +X$X$X$X$X$X$X$X$X$X$X$X$X$X$X$X$X$X$X$X$X$X$X$X$X$X$X$X$X$X$X$X$X$X$X$X$X$X$X$X$X$X$X$X:.< o ,                                                                                                                                                                                                                                                                                                                                                                                                                                                                                                                                                       ",
"h.                                                                                                                                                                                                                                                                                                                                                          , o o % u D d.x.m.V.L ; o i 7 o o 1           & o o 8 s.C.I.D.A.A.G.I.l.7 o &                                               & o 0 ^.&X$X$X$X$X$X$X$X$X$X$X$X$X$X$X$X$X$X$X$X$X$X$X$X$X$X$X$X$X$X$X$X$X$X$X$X$X$X$X$X$X$X$X+XU # o                                                                                                                                                                                                                                                                                                                                                                                                                                                                                                                                                         ",
"h.                                                                                                                                                                                                                                                                                                                                                        & o o 7 F l.N.G.G.I.A.G % i j.J : o o             , o o 7 L V.I.D.A.A.K.V.F o o                                               o o U +X&X$X$X$X$X$X$X$X$X$X$X$X$X$X$X$X$X$X$X$X$X$X$X$X$X$X$X$X$X$X$X$X$X$X$X$X$X$X$X$X$X$X&X Xj o o                                                                                                                                                                                                                                                                                                                                                                                                                                                                                                                                                         ",
"h.                                                                                                                                                                                                                                                                                                                                                      o o o s g.B.J.G.A.J.Y.k.8 o H D.v.p o o o             , o o 6 J N.I.D.A.D.I.c.p o o                                           & o 0 ^.*X$X$X$X$X$X$X$X$X$X$X$X$X$X$X$X$X$X$X$X$X$X$X$X$X$X$X$X$X$X$X$X$X$X$X$X$X$X$X$X$X$X$X=Xy.0 o &                                                                                                                                                                                                                                                                                                                                                                                                                                                                                                                                                         ",
"h.                                                                                                                                                                                                                                                                                                                                                    o o o S v.I.J.A.A.G.Y.v.s o d v.Y.v.p o o o o             & o o : F m.I.G.Z.G.G.i.: o &               1 , ,                     o o W @X=X$X$X$X$X$X$X$X$X$X$X$X$X$X$X$X$X$X$X$X$X$X$X$X$X$X$X$X$X$X$X$X$X$X$X$X$X$X$X$X$X$X$X$X! = o ,                                                                                                                                                                                                                                                                                                                                                                                                                                                                                                                                                         ",
"h.                                                                                                                                                                                                                                                                                                                                                  o o % G N.Y.G.A.A.D.Y.M.Z o 7 j.J.I.j.: 7 a % o ,             , o o % S c.I.J.Z.K.N.D o o         o o o o o o o o o &           o o t (.-X$X$X$X$X$X$X$X$X$X$X$X$X$X$X$X$X$X$X$X$X$X$X$X$X$X$X$X$X$X$X$X$X$X$X$X$X$X$X$X$X$X$X*XOXM o o                                                                                                                                                                                                                                                                                                                                                                                                                                                                                                                                                           ",
"h.                                                                                                                                                                                                                                                                                                                                                o o ; G B.Y.D.Z.A.D.I.N.F o % L Z.I.B.D o Z k.s o o               , o o o s j.G.I.A.J.x.s o o , o o o o 1 0 t t 9 < o o o o &   & o $ ! &X=X$X$X$X$X$X$X$X$X$X$X$X$X$X$X$X$X$X$X$X$X$X$X$X$X$X$X$X$X$X$X$X$X$X$X$X$X$X$X$X$X$X$X-X(.t o &                                                                                                                                                                                                                                                                                                                                                                                                                                                                                                                                                           ",
"h.                                                                                                                                                                                                                                                                                                                                              , o % F N.Y.D.A.A.D.J.N.G o o G V.I.J.k.7 % i.D.G o o                   o o o 7 K N.K.G.D.j.a ; % o = j Q t.(.(.(.^.>.W j 5 o o o o o M .X-X$X$X$X$X$X$X$X$X$X$X$X$X$X$X$X$X$X$X$X$X$X$X$X$X$X$X$X$X$X$X$X$X$X$X$X$X$X$X$X$X$X$X$X*X:.= o &                                                                                                                                                                                                                                                                                                                                                                                                                                                                                                                                                           ",
"h.                                                                                                                                                                                                                                                                                                                                              o o Z n.I.D.A.A.A.G.N.H ; o D N.Y.J.n.Z o s m.I.G o o                     & o o ; S x.A.I.b.Z % o < Q .X#X*X=X-X-X=X&X@X Xt.N 0 o o 9 y.-X&X$X$X$X$X$X$X$X$X$X$X$X$X$X$X$X$X$X$X$X$X$X$X$X$X$X$X$X$X$X$X$X$X$X$X$X$X$X$X$X$X$X$X=X+XN o o                                                                                                                                                                                                                                                                                                                                                                                                                                                                                                                                                             ",
"h.                                                                                                                                                                                                                                                                                                                                            o o a z.K.D.A.A.A.D.N.H : o D m.I.J.N.H % 6 d.Y.B.Z o o                       & o o o p i.x.F 6 o o = ! $X3X&X$X$X$X$X&X*X*X$XOXy.U j :.@X=X$X$X$X$X$X$X$X$X$X$X$X$X$X$X$X$X$X$X$X$X$X$X$X$X$X$X$X$X$X$X$X$X$X$X$X$X$X$X$X$X$X$X$X-X(.t o o                                                                                                                                                                                                                                                                                                                                                                                                                                                                                                                                                             ",
"h.                                                                                                                                                                                                                                                                                                                                          , o 6 i.C.D.A.A.A.D.A.k.8 % S n.I.K.C.i.7 % F N.E.z.7 o &                         1 o o o 6 a : = f q o 9 >.$X=X$X$X$X$X$X$X$X$X&X$XOX.X@X&X$X$X$X$X$X$X$X$X$X$X$X$X$X$X$X$X$X$X$X$X$X$X$X$X$X$X$X$X$X$X$X$X$X$X$X$X$X$X$X$X$X$X$X&X*X:.= o &                                                                                                                                                                                                                                                                                                                                                                                                                                                                                                                                                             ",
"h.                                                                                                                                                                                                                                                                                                                                          o o S m.G.A.A.A.A.D.Z.z.Z G b.J.J.Z.f.8 o Z b.Y.C.F o o ,                             , o o o # f R Y 0 o t y.$X*X$X$X$X$X$X$X$X$X$X$X$X$X$X$X$X$X$X$X$X$X$X$X$X$X$X$X$X$X$X$X$X$X$X$X$X$X$X$X$X$X$X$X$X$X$X$X$X$X$X$X$X$X$X$X$X$X-X+XM o o                                                                                                                                                                                                                                                                                                                                                                                                                                                                                                                                                               ",
"h.                                                                                                                                                                                                                                                                                                                                        & o 8 j.G.D.A.A.A.A.A.D.V.m.B.G.G.D.g.8 o d x.K.Y.l.7 o &                                 & o o q Y / / I 1 o h ^.*X&X$X$X$X$X$X$X$X$X$X$X$X$X$X$X$X$X$X$X$X$X$X$X$X$X$X$X$X$X$X$X$X$X$X$X$X$X$X$X$X$X$X$X$X$X$X$X$X$X$X$X$X$X$X$X$X3X^.0 o &                                                                                                                                                                                                                                                                                                                                                                                                                                                                                                                                                               ",
"h.                                                                                                                                                                                                                                                                                                                                        o o D N.G.A.A.A.A.A.A.A.D.G.G.D.K.N.C o s z.G.Y.m.C o o                                   o o 1 P ^ ^ ^ ( P < o j (.*X$X$X$X$X$X$X$X$X$X$X$X$X$X$X$X$X$X$X$X$X$X$X$X$X$X$X$X$X$X$X$X$X$X$X$X$X$X$X$X$X$X$X$X$X$X$X$X$X$X$X$X$X$X$X=X$X! o o ,                                                                                                                                                                                                                                                                                                                                                                                                                                                                                                                                                               ",
"h.                                                                                                                                                                                                                                                                                                                                      & o 7 k.J.D.A.A.A.A.A.A.A.A.A.A.D.G.B.i.F x.G.Y.B.G o o &                                 & o o g E ^ ^ ^ / / l = o M  X=X$X$X$X$X$X$X$X$X$X$X$X$X$X$X$X$X$X$X$X$X$X$X$X$X$X$X$X$X$X$X$X$X$X$X$X$X$X$X$X$X$X$X$X$X$X$X$X$X$X$X$X$X$X-X.Xj o o                                                                                                                                                                                                                                                                                                                                                                                                                                                                                                                                                                 ",
"h.                                                                                                                                                                                                                                                                                                                                      o o S N.J.A.A.A.A.A.A.A.A.A.A.A.A.D.D.C.C.J.I.V.K ; o o                                   o o 1 P / ^ ^ ^ ^ / ^ k % o N .X=X$X$X$X$X$X$X$X$X$X$X$X$X$X$X$X$X$X$X$X$X$X$X$X$X$X$X$X$X$X$X$X$X$X$X$X$X$X$X$X$X$X$X$X$X$X$X$X$X$X$X$X&X=Xt.= o &                                                                                                                                                                                                                                                                                                                                                                                                                                                                                                                                                                 ",
"h.                                                                                                                                                                                                                                                                                                                                      o ; d.J.J.G.G.G.D.D.D.A.A.A.A.A.A.A.D.J.J.G.V.s.7 o o                                     o o q R / ^ ^ ^ ^ ^ / E k % o N .X=X$X$X$X$X$X$X$X$X$X$X$X$X$X$X$X$X$X$X$X$X$X$X$X$X$X$X$X$X$X$X$X$X$X$X$X$X$X$X$X$X$X$X$X$X$X$X$X$X$X$X=X+XN o o 1                                                                                                                                                                                                                                                                                                                                                                                                                                                                                                                                                                 ",
"h.                                                                                                                                                                                                                                                                                                                                    & o s b.Z.N.M.m.M.N.B.Z.G.G.D.D.A.A.A.A.A.D.C.f.u o o &                                   , o o g ^ ^ ^ ^ ^ ^ ^ ^ / R g o o U .X=X$X$X$X$X$X$X$X$X$X$X$X$X$X$X$X$X$X$X$X$X$X$X$X$X$X$X$X$X$X$X$X$X$X$X$X$X$X$X$X$X$X$X$X$X$X$X$X$X$X=X^.0 o o                                                                                                                                                                                                                                                                                                                                                                                                                                                                                                                                                                   ",
"h.                                                                                                                                                                                                                                                                                                                                    o o d H F S C C C Z F J j.b.V.G.G.D.A.A.G.Z.j.p o o ,                                     & o % l ^ ^ ^ ^ ^ ^ ^ ^ ^ ^ R g o # U .X=X$X$X$X$X$X$X$X$X$X$X$X$X$X$X$X$X$X$X$X$X$X$X$X$X$X$X$X$X$X$X$X$X$X$X$X$X$X$X$X$X$X$X$X$X$X$X$X*X#XQ o o ,                                                                                                                                                                                                                                                                                                                                                                                                                                                                                                                                                                   ",
"h.                                                                                                                                                                                                                                                                                                                                , o o o o o # = = = = % % % 6 s G z.V.J.D.D.K.z.a o o &                                       & o = l ^ ^ ^ ^ ^ ^ ^ ^ ^ ^ ^ R f o $ U .X-X$X$X$X$X$X$X$X$X$X$X$X$X$X$X$X$X$X$X$X$X$X$X$X$X$X$X$X$X$X$X$X$X$X$X$X$X$X$X$X$X$X$X$X$X$X$X*X Xh o o                                                                                                                                                                                                                                                                                                                                                                                                                                                                                                                                                                     ",
"h.                                                                                                                                                                                                                                                                                                                              , o o # 1 t M U Q ! ! ! Q N j 9 # o u J m.I.Y.v.d o o &                                         & o = l ^ ^ ^ ^ ^ ^ ^ ^ ^ ^ ~ ^ R f o $ U .X-X$X$X$X$X$X$X$X$X$X$X$X$X$X$X$X$X$X$X$X$X$X$X$X$X$X$X$X$X$X$X$X$X$X$X$X$X$X$X$X$X$X$X$X$X$X$X:.< o ,                                                                                                                                                                                                                                                                                                                                                                                                                                                                                                                                                                     ",
"h.                                                                                                                                                                                                                                                                                                                              o o t Q y. XOX+X#X$X$X$X#X+X.X^.Q h o o S M.C.F o o &                                           , o o k ^ ^ ^ ^ ^ ^ ^ ^ ^ ^ ^ ^ ^ R f o $ U .X-X$X$X$X$X$X$X$X$X$X$X$X$X$X$X$X$X$X$X$X$X$X$X$X$X$X$X$X$X$X$X$X$X$X$X$X$X$X$X$X$X$X$X$X&X.XM o o                                                                                                                                                                                                                                                                                                                                                                                                                                                                                                                                                                       ",
"h.                                                                                                                                                                                                                                                                                                                              o o Q &X3X-X*X&X$X$X$X$X$X&X=X-X$X(.W $ o D K 6 o o                                             1 o o f E ^ ^ ^ ^ ^ ^ ^ ^ ^ ^ ^ ^ ^ R f o # N .X=X$X$X$X$X$X$X$X$X$X$X$X$X$X$X$X$X$X$X$X$X$X$X$X$X$X$X$X$X$X$X$X$X$X$X$X$X$X$X$X$X$X$X$Xt.1 o &                                                                                                                                                                                                                                                                                                                                                                                                                                                                                                                                                                       ",
"h.                                                                                                                                                                                                                                                                                                                              o = >.-X$X$X$X$X$X$X$X$X$X$X$X$X&X3X+X! = o 6 o o 1                                               o o 0 R ^ ^ ^ ^ ^ ^ ^ ^ ^ ^ ^ ^ ^ ( E g o o N  X=X$X$X$X$X$X$X$X$X$X$X$X$X$X$X$X$X$X$X$X$X$X$X$X$X$X$X$X$X$X$X$X$X$X$X$X$X$X$X$X$X&XOXN o o 1                                                                                                                                                                                                                                                                                                                                                                                                                                                                                                                                                                       ",
"h.                                                                                                                                                                                                                                                                                                                              o 5 y.-X$X$X$X$X$X$X$X$X$X$X$X$X$X$X-X@XQ - o o &                                                 & o < A ^ ^ ^ ^ ~ ^ ^ ^ ^ ^ ^ ^ ^ ^ ( E g o o M (.=X&X$X$X$X$X$X$X$X$X$X$X$X$X$X$X$X$X$X$X$X$X$X$X$X$X$X$X$X$X$X$X$X$X$X$X$X$X$X$X$Xy.5 o &                                                                                                                                                                                                                                                                                                                                                                                                                                                                                                                                                                         ",
"h.                                                                                                                                                                                                                                                                                                                            1 o 0 (.-X$X$X$X$X$X$X$X$X$X$X$X$X$X$X$X3X.Xh o o                                                   , o o q R ^ ^ ^ E ^ ^ ^ ^ E ^ ^ ^ ^ ^ / E g % o j (.*X&X$X$X$X$X$X$X$X$X$X$X$X$X$X$X$X$X$X$X$X$X$X$X$X$X$X$X$X$X$X$X$X$X$X$X$X$X&XOXN o o ,                                                                                                                                                                                                                                                                                                                                                                                                                                                                                                                                                                         ",
"h.                                                                                                                                                                                                                                                                                                                            , o h  X-X$X$X$X$X$X$X$X$X$X$X$X$X$X$X$X-X.Xh o o                                                   , o o % A ^ ^ ^ ^ ^ ^ ^ ^ ^ ^ ^ ^ ^ ^ ^ / E k = o h y.$X*X$X$X$X$X$X$X$X$X$X$X$X$X$X$X$X$X$X$X$X$X$X$X$X$X$X$X$X$X$X$X$X$X$X$X$X&Xy.9 o o                                                                                                                                                                                                                                                                                                                                                                                                                                                                                                                                                                           ",
"h.                                                                                                                                                                                                                                                                                                                            , o j .X=X$X$X$X$X$X$X$X$X$X$X$X$X$X$X$X=X^.0 o &                                                   o o o o f E ^ ^ ^ ^ ^ ^ ^ ^ ^ ^ ^ ^ ^ ^ ^ / E l 1 o t >.@X=X$X$X$X$X$X$X$X$X$X$X$X$X$X$X$X$X$X$X$X$X$X$X$X$X$X$X$X$X$X$X$X$X$X*XOXN o o ,                                                                                                                                                                                                                                                                                                                                                                                                                                                                                                                                                                           ",
"h.                                                                                                                                                                                                                                                                                                                            & o M .X=X$X$X$X$X$X$X$X$X$X$X$X$X$X$X$X=Xy.< o &                                               , o o = 1 o 1 P / ^ ^ ^ ^ ^ ^ ^ ^ ^ ^ ^ ^ ^ ^ ^ ^ ^ A 1 o 9 ! OX=X$X$X$X$X$X$X$X$X$X$X$X$X$X$X$X$X$X$X$X$X$X$X$X$X$X$X$X$X$X$X$X$X=Xt.5 o o                                                                                                                                                                                                                                                                                                                                                                                                                                                                                                                                                                             ",
"h.                                                                                                                                                                                                                                                                                                                            & o M OX*X$X$X$X$X$X$X$X$X$X$X$X$X$X$X$X*Xt.= o &                                             & o o < f g < o q Y / ^ ^ ^ ^ ^ ^ ^ ^ ^ ^ ^ ^ ^ ^ ^ / ^ g o o < W .X*X&X$X$X$X$X$X$X$X$X$X$X$X$X$X$X$X$X$X$X$X$X$X$X$X$X$X$X$X$X$X-XOXM o o ,                                                                                                                                                                                                                                                                                                                                                                                                                                                                                                                                                                             ",
"h.                                                                                                                                                                                                                                                                                                                            & % N OX*X$X$X$X$X$X$X$X$X$X$X$X$X$X$X$X*Xy.< o &                                           o o o 1 g A A q o % g ^ / ^ ^ ^ ^ ^ ^ ^ ^ ~ ^ ^ ^ ^ ^ / E q o f 1 o M (.&X=X$X$X$X$X$X$X$X$X$X$X$X$X$X$X$X$X$X$X$X$X$X$X$X$X$X$X$X&X=X>.< o &                                                                                                                                                                                                                                                                                                                                                                                                                                                                                                                                                                               ",
"h.                                                                                                                                                                                                                                                                                                                            & $ N +X*X$X$X$X$X$X$X$X$X$X$X$X$X$X$X$X=X^.9 o &                                         o o o 9 g A A A k 5 o < A ^ / ^ ^ ^ ^ ^ ^ ^ ^ ~ ^ ^ E ^ / Y 1 % ` Q.9 o h y.$X-X$X$X$X$X$X$X$X$X$X$X$X$X$X$X$X$X$X$X$X$X$X$X$X$X$X$X-X Xj o o 1                                                                                                                                                                                                                                                                                                                                                                                                                                                                                                                                                                               ",
"h.                                                                                                                                                                                                                                                                                                                            o # N +X*X$X$X$X$X$X$X$X$X$X$X$X$X&X=X3X3X.Xh o o                                     , o o = g I P A A A A g = o 9 I / ^ ^ ^ ^ ^ ^ ^ ^ ^ ^ ^ ^ ^ / I < % /.rX~.q o 9 :.+X3X&X$X$X$X$X$X$X$X$X$X$X$X$X$X$X$X$X$X$X$X$X$X$X$X&X*X:.o o &                                                                                                                                                                                                                                                                                                                                                                                                                                                                                                                                                                                 ",
"h.                                                                                                                                                                                                                                                                                                                            & o N +X*X$X$X$X$X$X$X$X$X$X&X-X-X$X+X X(.y.j o o                                   o o o 1 k E ( Y l A A A l q o o q Y ^ ^ ^ ^ ^ ^ ^ ^ ^ ^ ^ ^ ^ / I < = /.tXtX`.l o $ U  X-X*X$X$X$X$X$X$X$X$X$X$X$X$X$X$X$X$X$X$X$X$X$X$X*X*X! o o &                                                                                                                                                                                                                                                                                                                                                                                                                                                                                                                                                                                 ",
"h.                                                                                                                                                                                                                                                                                                                            & o M OX*X$X$X$X$X$X$X$X&X=X#X Xy.Q M h 0 9 9 = o ,                             & o o % q P ^ / ^ ^ I l A A A l 0 o o f Y ^ ^ ^ ^ ^ ~ ^ ^ ^ ^ ^ ^ / I < = ~.tXtXtX:X^ = o j y.#X=X$X$X$X$X$X$X$X$X$X$X$X$X$X$X$X$X$X$X$X$X$X$X=X Xj o o ,                                                                                                                                                                                                                                                                                                                                                                                                                                                                                                                                                                               ",
"h.                                                                                                                                                                                                                                                                                                                            & o j .X=X$X$X$X$X$X$X&X+X^.Q h 1 o o o o ; 0 1 o o                           o o o 1 g Y / / ^ ^ / R A l A A A k 1 o = g R ^ ^ ^ ~ ~ ^ ^ ^ E ^ ^ / Y 1 o !.tXtXtXtX7XQ.q o 0 ! .X&X$X$X$X$X$X$X$X$X$X$X$X$X$X$X$X$X$X$X$X$X$X$X-X^.h o o ,                                                                                                                                                                                                                                                                                                                                                                                                                                                                                                                                                                             ",
"h.                                                                                                                                                                                                                                                                                                                            , o h  X=X$X$X$X$X&X@X^.U 0 o o % 9 f k A I Y f o o ,                     o o o = q P E / ^ ^ ^ ^ ^ ^ I l A A A A g < o < k R ^ ^ ^ ^ ^ ^ ^ ^ ^ ^ / R 0 o _ rXtXtXtXtXrX).A o $ M ^.@X&X$X$X$X$X$X$X$X$X$X$X$X$X$X$X$X$X$X$X$X$X*X&X>.9 o o                                                                                                                                                                                                                                                                                                                                                                                                                                                                                                                                                                             ",
"h.                                                                                                                                                                                                                                                                                                                            & o t (.-X$X$X$X&XOX:.t o o 9 g P Y E ^ ^ ^ ( P < o o               , o o o % 9 k Y / ^ ^ ^ ^ ^ ^ ^ ^ R P A A A A A g < o 1 k R ^ ^ ^ ^ ^ ^ ^ ^ ^ / ^ f o A 7XtXtXtXtXtXtX1X) 9 o t ! .X&X*X$X$X$X$X$X$X$X$X$X$X$X$X$X$X$X$X$X$X$X*X+XQ = o &                                                                                                                                                                                                                                                                                                                                                                                                                                                                                                                                                                           ",
"h.                                                                                                                                                                                                                                                                                                                            1 o 9 ^.-X$X$X*X.XQ 5 o 1 k Y ^ ^ ^ ^ ^ ^ ^ ^ ^ k = o o o , & & o o o o % 9 g I ^ ^ ^ ^ ^ ^ ^ ^ ^ ^ ^ ^ Y A A A A A A f = o 1 k E ^ ^ ^ ^ ^ ^ ^ ^ ( ^ g o < /.tXtXtXtXtXtXtX8X~.k o $ M y.@X-X*X$X$X$X$X$X$X$X$X$X$X$X$X$X$X$X$X$X$X*X Xj o o                                                                                                                                                                                                                                                                                                                                                                                                                                                                                                                                                                           ",
"h.                                                                                                                                                                                                                                                                                                                              o < >.-X$X=XOXW = o q I ^ ^ ^ ^ ^ ^ ^ ^ ^ ^ ^ E k 1 o o o o o o o = 0 k I ^ ^ ^ ^ ^ ^ ^ ^ ^ ^ ^ ^ ^ ^ ^ I A A A A A A f = o < k ^ ^ ^ ^ ^ ^ / ^ Y k 1 o o I 8XtXtXtXtXtXtXtXtX:X) 9 o 5 W  X*X3X*X$X$X$X$X$X$X$X$X$X$X$X$X$X$X$X$X$X$X>.5 o &                                                                                                                                                                                                                                                                                                                                                                                                                                                                                                                                                                         ",
"h.                                                                                                                                                                                                                                                                                                                              o # Q $X-X@XQ = o f R / ^ E ~ ^ ^ ^ ^ ^ ^ ^ ^ ^ ^ P g 0 1 1 9 q g P R ^ ^ ^ ^ ^ ^ ^ ^ ^ ^ ^ ^ ^ ^ ^ ^ ^ E P A A A A A A f < o < k ^ / ^ / / R k 9 o o % o 1 !.tXtXtXtXtXtXtXtXtX8X/.A o o h :.OX-X-X$X$X$X$X$X$X$X$X$X$X$X$X$X$X$X$X&XOXN o o                                                                                                                                                                                                                                                                                                                                                                                                                                                                                                                                                                         ",
"h.                                                                                                                                                                                                                                                                                                                              o o M @X3X>.< o f R / ^ ^ ^ ^ ^ ^ ^ ^ ^ ^ ^ ^ ^ ^ / ^ R Y Y Y E ^ ( / ^ ^ ^ ^ ^ ^ ^ ^ ^ ^ ^ ^ ^ ^ ^ ^ ^ ^ R P A A A A A A f = o = k ^ ( R l 0 o o = f A q o f `.tXtXtXtXtXtXtXtXtXtX2X` q o o j t.+X-X-X$X$X$X$X$X$X$X$X$X$X$X$X$X$X$X&Xt.5 o ,                                                                                                                                                                                                                                                                                                                                                                                                                                                                                                                                                                       ",
"h.                                                                                                                                                                                                                                                                                                                              o o t .X Xt o 0 Y ( ^ ^ ^ ^ ^ ^ ^ ^ ^ ^ ^ ^ ^ ^ ^ ^ ^ / ( ( ( / ^ ^ ^ ^ ^ ^ ~ E ^ ^ ^ ^ ^ ^ ^ ^ ^ ^ ^ ^ ^ ^ Y A A A A A k 9 % o o = g l q % o % q A E ( I 1 o g ).rXtXtXtXtXtXtXtXtXtXrX].E < o < N y.+X=X=X$X$X$X$X$X$X$X$X$X$X$X$X$X&X.XM o o                                                                                                                                                                                                                                                                                                                                                                                                                                                                                                                                                                       ",
"h.                                                                                                                                                                                                                                                                                                                              , o 5 :.W o < P / ^ ^ ^ ^ ^ ^ ^ ^ ^ ^ ^ ^ ^ ^ ^ ^ ^ ^ ^ ^ ^ ^ ^ ^ ^ ^ ^ ^ ^ ^ ^ ^ ^ ^ E ^ ^ ^ ^ ^ ^ ^ ^ ^ ^ ^ Y A A A f 1 o o o o o o % o % q l R / / / / A 1 o q Q.4XtXtXtXtXtXtXtXtXtXtXwX).Y 1 o 5 N y.+X=X*X$X$X$X$X$X$X$X$X$X$X$X&X#X! $ o                                                                                                                                                                                                                                                                                                                                                                                                                                                                                                                                                                       ",
"h.                                                                                                                                                                                                                                                                                                                              1 o = h 9 o k ^ / ^ ^ ^ E ^ ^ ^ ^ ^ ^ ^ ^ ^ ^ ^ ^ ^ ^ ^ ^ ^ ^ ^ ^ ^ ^ ^ ^ ^ ^ ^ ^ ^ ^ ^ E ^ ^ ^ ^ E ^ ^ ^ ^ ^ ^ Y l q = o o o   & o o o % f R / ^ ^ ^ ^ ^ / A 9 o < Y ).7XtXtXtXtXtXtXtXtXtXtX1X) q o o 5 N y.OX&X*X$X$X$X$X$X$X$X$X$X$X*X^.9 o                                                                                                                                                                                                                                                                                                                                                                                                                                                                                                                                                                       ",
"h.                                                                                                                                                                                                                                                                                                                                o o # o 0 R / ^ ^ ^ ^ ^ ^ ^ ^ ^ ^ ^ ~ ^ ^ ^ ^ ^ ^ ^ ^ E ^ ^ ^ ^ ^ ^ ^ ^ ^ ^ ^ ^ ^ ^ ^ ^ ^ ^ ^ ^ ~ ^ ^ ^ ^ ^ ^ P 0 o o o &       , o o o 9 A E ^ ^ ^ ^ ^ ^ ^ I f % o 9 Y !.].2X7X8X8X7X2X'.~.( g 1 < 1 o o 5 M >..X#X&X&X$X$X$X$X$X$X$X*X Xh o ,                                                                                                                                                                                                                                                                                                                                                                                                                                                                                                                                                                     ",
"h.                                                                                                                                                                                                                                                                                                                                & o o o l / ^ ^ ^ ^ ^ ^ ^ ^ ^ ^ ^ ~ ~ ^ ^ ^ ^ E ~ ^ ^ ^ ^ ^ ^ ^ ^ ^ ^ ^ ^ ^ ^ ^ ^ ^ ^ ^ ^ ^ ^ ^ ^ ^ ^ ^ ^ R k 9 o o o &             o o o < g Y ^ ^ ^ ^ ^ ^ ^ R l 0 % o = q l T ^ ^ Y l q = o % 9 k I k 0 o o 5 j :.(.@X&X*X&X$X$X$X$X=XOXM o &                                                                                                                                                                                                                                                                                                                                                                                                                                                                                                                                                                     ",
"h.                                                                                                                                                                                                                                                                                                                                  o o % A ( ^ ^ ^ ^ ^ ^ ^ ^ ^ ^ ^ ^ ^ ^ ^ ~ E ^ ^ ^ ^ ^ ^ ^ ^ ^ ^ ^ ^ E ^ ^ ^ ^ ^ ^ ^ ^ ^ ^ ^ ^ ^ ^ ^ ^ P f = o o o 1                 & o o = q P ^ / ^ ^ ^ ^ ^ ^ Y l f 1 o o o % % o o % 1 q k I E ^ ^ Y l q = o $ h W y.OX$X=X=X&X$X=X+XN o o                                                                                                                                                                                                                                                                                                                                                                                                                                                                                                                                                                     ",
"h.                                                                                                                                                                                                                                                                                                                                  & o o q R ( ^ ^ ^ ^ ^ ^ ^ ^ ^ ^ ^ E ^ ^ ^ ^ ^ ^ ^ ^ ^ ^ ^ ^ ^ ^ ^ ^ ^ ^ ^ ^ ^ ^ ^ ^ ^ ^ ^ ^ ^ / / Y k 1 o o o &                       , o o o 1 k R ( / ^ ^ ^ ^ ^ ^ ^ l = o 0 f f g k A I R ^ ^ ^ ^ ^ ^ ^ R A f < o o 5 M >. X@X=X-X3X+XN o o                                                                                                                                                                                                                                                                                                                                                                                                                                                                                                                                                                     ",
"h.                                                                                                                                                                                                                                                                                                                                    o o % g E ^ ^ ^ ^ ^ ^ ^ ^ ^ ^ ^ ~ ^ ^ ^ ^ ^ ^ ^ ^ ^ ^ ^ ^ ^ ^ ^ ^ ^ ^ ^ ^ ^ ^ ^ ^ ^ ^ ^ / ( E A 0 % o o o ,                             o o o % q I ^ ( ^ ^ ^ ^ ^ ( k o 1 P ^ ^ ^ / / / ^ ^ ^ ^ ^ ^ ^ ^ ^ / E I g 9 o o o t W y..X=X+XM o &                                                                                                                                                                                                                                                                                                                                                                                                                                                                                                                                                                     ",
"h.                                                                                                                                                                                                                                                                                                                                      o o = k ^ ^ ^ ^ ^ ^ ^ ^ ^ ^ ^ ^ ^ ^ ^ ^ ~ ^ ^ ^ ^ ^ ^ ^ ^ ^ ~ ^ ^ ^ ^ ^ ^ ^ ^ ^ ^ / ( ^ P q = o o o ,                                   , o o o 1 k R ( / ^ ^ / E q o q E / ^ ^ ^ ^ ^ ^ ^ ^ ^ ^ ^ ^ E ^ ^ ^ ( ^ Y l q = o o < j ! >.h o ,                                                                                                                                                                                                                                                                                                                                                                                                                                                                                                                                                                     ",
"h.                                                                                                                                                                                                                                                                                                                                      , o o < k E ^ ^ ^ ^ ^ ^ ^ ^ ^ ^ ^ ^ ^ ^ ~ ^ ^ ^ ^ ^ ^ ^ ^ ^ ~ E ^ ^ ^ ^ ^ ^ ^ ^ / E P f < o o o &                                         1 o o o o 0 A E / ^ ( I < o k ^ ^ ^ ^ ^ ^ ^ ^ ^ ^ ^ ^ ^ ^ ^ ~ ^ ^ ^ ^ ( / E P g 9 o o o < = o 1                                                                                                                                                                                                                                                                                                                                                                                                                                                                                                                                                                     ",
"h.                                                                                                                                                                                                                                                                                                                                        & o o = f Y ^ ^ ^ ^ ^ ^ ^ ^ ^ ^ ^ ^ ^ ^ ^ ^ ^ ^ ^ ^ ^ ^ ~ ~ ^ ^ ^ ^ ^ ^ / / R P f 1 o o o o ,                                               , o o o = f I ^ ( k o < I / ^ ^ ^ ^ ^ ^ ^ ^ ^ ^ ^ ^ ^ ^ ^ ^ ^ ^ ^ ^ ^ / ( ^ Y A f 1 o o o                                                                                                                                                                                                                                                                                                                                                                                                                                                                                                                                                                       ",
"h.                                                                                                                                                                                                                                                                                                                                          & o o o 0 l R ^ ^ ^ ^ ^ ^ ^ ^ ^ ^ ^ ^ ^ ^ ^ ^ ^ ^ ^ ^ ^ ^ ^ ^ ^ ^ / ^ Y l q < o o o o ,                                                     & o o o o 1 k I q o q R / ^ ^ ^ ^ ^ ^ ^ ^ ^ ^ ^ ^ ^ ^ ^ ^ ^ ^ ^ ^ ^ ^ ^ / / / ^ P 1 o o                                                                                                                                                                                                                                                                                                                                                                                                                                                                                                                                                                       ",
"h.                                                                                                                                                                                                                                                                                                                                            , o o o = q l Y ^ ^ ^ ^ ^ ^ ^ ^ ^ ^ ^ ^ ^ ^ ^ ^ ^ ^ ^ ^ ^ ^ ^ Y P g 0 = o o o o &                                                         o o < 0 < o % 1 = o k ^ / ^ ^ ^ ^ ^ ^ ^ ^ ^ ^ ^ ^ ^ ^ ^ ^ ^ ^ ^ ^ ^ ^ ^ ^ ^ ^ / l < o ,                                                                                                                                                                                                                                                                                                                                                                                                                                                                                                                                                                       ",
"h.                                                                                                                                                                                                                                                                                                                                                & o o o = 0 g P Y E ^ ^ ^ ^ ^ / / / / ^ ^ ^ ^ ^ ^ R I A g 0 < o o o o o ,                                                           , o o q l g 0 = o o o f Y ^ / ^ ^ ^ ^ ^ ^ ^ ^ ^ ^ ^ ^ ^ ^ ^ ^ ^ ^ ^ ^ ^ ^ ^ ^ ^ Y 0 o o                                                                                                                                                                                                                                                                                                                                                                                                                                                                                                                                                                         ",
"h.                                                                                                                                                                                                                                                                                                                                                  , o o o o o < 0 f k A I Y R R R R R R Y I P l g q 9 < o o o o o & 1                                                               o o < g A A l g 9 % o % 9 g I E ^ ^ ^ ^ ^ ^ ^ ^ ^ ^ ^ ^ ^ ^ ^ ^ ^ ^ ^ ^ ^ ^ / R g = o &                                                                                                                                                                                                                                                                                                                                                                                                                                                                                                                                                                         ",
"h.                                                                                                                                                                                                                                                                                                                                                      , & o o o o o $ < 1 9 0 q q q q 0 0 5 < = o o o o o o & ,                                                                   & o o 0 l A A A A l f 9 = o o 1 f A R ^ ^ ^ ^ ^ ^ ^ ^ ^ ^ ^ ^ ^ E ~ ^ ^ ^ ^ ( E k < o o                                                                                                                                                                                                                                                                                                                                                                                                                                                                                                                                                                           ",
"h.                                                                                                                                                                                                                                                                                                                                                            & & o o o o o o o o o o o o o o o o o o o & ,                                                                         o o = g A A A A A A A l g 0 = o o = 0 g P R ^ ( ( ^ ^ ^ ^ ^ ^ ^ ^ ^ ^ / ( ( R g = o o ,                                                                                                                                                                                                                                                                                                                                                                                                                                                                                                                                                                           ",
"h.                                                                                                                                                                                                                                                                                                                                                                  1 , , & o o o o o o o o & & & ,                                                                               , o o 9 l A A A A A A A A A l g q 1 o o o < 0 g A Y R ^ ^ ( ( ( ( ( ( ( ^ R A q o o o &                                                                                                                                                                                                                                                                                                                                                                                                                                                                                                                                                                             ",
"h.                                                                                                                                                                                                                                                                                                                                                                                                                                                                                & o = g A A A A A A A A A A A A A k f 9 < o o o % 1 q g k A P I I I P l g 0 = o o o ,                                                                                                                                                                                                                                                                                                                                                                                                                                                                                                                                                                               ",
"h.                                                                                                                                                                                                                                                                                                                                                                                                                                                                              1 o o q R R P A A A A A A A A A A A P A A k 0 o o o o o o % = < 1 1 < = % o o o o o                                                                                                                                                                                                                                                                                                                                                                                                                                                                                                                                                                                   ",
"h.                                                                                                                                                                                                                                                                                                                                                                                                                                                                              & o % l ( / R Y P A A A A A A A A A A A P l 9 o o & o o o o o o o o o o o o o & ,                                                                                                                                                                                                                                                                                                                                                                                                                                                                                                                                                                                     ",
"h.                                                                                                                                                                                                                                                                                                                                                                                                                                                                              o o 9 Y ( ^ ^ ^ E R I P A A A A A A A A A f % o &       1 , , & & & & & & ,                                                                                                                                                                                                                                                                                                                                                                                                                                                                                                                                                                                           ",
"h.                                                                                                                                                                                                                                                                                                                                                                                                                                                                            1 o o g ^ ^ ~ ^ ^ ^ ^ ^ R Y P A A A A A A l 5 o o ,                                                                                                                                                                                                                                                                                                                                                                                                                                                                                                                                                                                                                     ",
"h.                                                                                                                                                                                                                                                                                                                                                                                                                                                                            , o < P ( ^ ~ E ^ ^ ^ ^ ^ ^ E Y I A A A A f % o &                                                                                                                                                                                                                                                                                                                                                                                                                                                                                                                                                                                                                       ",
"h.                                                                                                                                                                                                                                                                                                                                                                                                                                                                            o o q R ^ ^ ^ ^ ^ ^ ^ ^ ^ ^ ^ ^ E R I P l 1 o o 1                                                                                                                                                                                                                                                                                                                                                                                                                                                                                                                                                                                                                       ",
"h.                                                                                                                                                                                                                                                                                                                                                                                                                                                                            o = l ^ ^ ^ ^ ^ ^ ^ ^ ^ ^ ^ ^ ^ ^ ^ ^ R g % o &                                                                                                                                                                                                                                                                                                                                                                                                                                                                                                                                                                                                                         ",
"h.                                                                                                                                                                                                                                                                                                                                                                                                                                                                          & o 9 Y / ^ ^ ^ ^ ^ ^ ^ ^ ^ ^ ^ ^ ^ ^ / R q o o 1                                                                                                                                                                                                                                                                                                                                                                                                                                                                                                                                                                                                                         ",
"h.                                                                                                                                                                                                                                                                                                                                                                                                                                                                          o o f E ^ ^ ^ ^ ^ ^ ^ ^ ^ ^ ^ ^ ^ ^ ^ ^ l = o &                                                                                                                                                                                                                                                                                                                                                                                                                                                                                                                                                                                                                           ",
"h.                                                                                                                                                                                                                                                                                                                                                                                                                                                                        , o < A / ^ ^ ~ ^ ^ ^ ^ ^ ^ ^ ^ ^ ^ ^ ^ R q o o 1                                                                                                                                                                                                                                                                                                                                                                                                                                                                                                                                                                                                                           ",
"h.                                                                                                                                                                                                                                                                                                                                                                                                                                                                        o o 0 Y ^ ^ ^ ~ ^ ^ ^ E ^ ^ ^ ^ ^ ^ ^ ^ l = o &                                                                                                                                                                                                                                                                                                                                                                                                                                                                                                                                                                                                                             ",
"h.                                                                                                                                                                                                                                                                                                                                                                                                                                                                        o o g E ^ ^ ^ ^ ^ ^ ^ ~ ^ ^ ^ ^ ^ ^ ^ R q o o ,                                                                                                                                                                                                                                                                                                                                                                                                                                                                                                                                                                                                                             ",
"h.                                                                                                                                                                                                                                                                                                                                                                                                                                                                      1 o < A ^ ^ ^ ^ ^ ^ ^ ^ ^ ^ ^ ^ ^ ^ ^ ^ A < o o                                                                                                                                                                                                                                                                                                                                                                                                                                                                                                                                                                                                                               ",
"h.                                                                                                                                                                                                                                                                                                                                                                                                                                                                      & o 9 Y ^ ^ ^ ^ ^ ^ ^ ^ ^ ^ ^ ^ ^ ^ ^ E f o o ,                                                                                                                                                                                                                                                                                                                                                                                                                                                                                                                                                                                                                               ",
"h.                                                                                                                                                                                                                                                                                                                                                                                                                                                                      o o f E ^ ^ ^ ^ ^ ^ ^ ^ ^ ^ ^ ^ ^ ^ / I 1 o o                                                                                                                                                                                                                                                                                                                                                                                                                                                                                                                                                                                                                                 ",
"h.                                                                                                                                                                                                                                                                                                                                                                                                                                                                      o = l ^ ^ ^ ^ ^ ~ E ^ ^ ^ ^ ^ ^ ^ ^ ^ k o o ,                                                                                                                                                                                                                                                                                                                                                                                                                                                                                                                                                                                                                                 ",
"h.                                                                                                                                                                                                                                                                                                                                                                                                                                                                    , o 1 I ^ ~ ^ ^ ^ ^ ^ ^ ^ E ~ ^ ^ ^ / Y 0 o o                                                                                                                                                                                                                                                                                                                                                                                                                                                                                                                                                                                                                                   ",
"h.                                                                                                                                                                                                                                                                                                                                                                                                                                                                    o o q R ^ ~ ^ ^ ^ ^ ^ ^ ^ ^ ^ ^ ^ ^ ( A = o &                                                                                                                                                                                                                                                                                                                                                                                                                                                                                                                                                                                                                                   ",
"h.                                                                                                                                                                                                                                                                                                                                                                                                                                                                    o o g ^ ^ ^ ^ ^ ^ ^ ^ ^ ^ ^ ^ ^ ^ / ^ f o o ,                                                                                                                                                                                                                                                                                                                                                                                                                                                                                                                                                                                                                                   ",
"h.                                                                                                                                                                                                                                                                                                                                                                                                                                                                    o = A ^ ^ ^ ^ ^ ^ ^ ^ ^ ^ ^ ^ ^ ^ ( Y 5 o o                                                                                                                                                                                                                                                                                                                                                                                                                                                                                                                                                                                                                                     ",
"h.                                                                                                                                                                                                                                                                                                                                                                                                                                                                  & o 1 I / ^ ^ ^ ^ ^ ^ ~ ^ ^ ~ ^ ^ ^ ( A = o &                                                                                                                                                                                                                                                                                                                                                                                                                                                                                                                                                                                                                                     ",
"h.                                                                                                                                                                                                                                                                                                                                                                                                                                                                  & o 0 R ^ ^ ~ E ^ ^ ^ ~ ^ ^ ~ ^ ^ ^ ^ f o o ,                                                                                                                                                                                                                                                                                                                                                                                                                                                                                                                                                                                                                                     ",
"h.                                                                                                                                                                                                                                                                                                                                                                                                                                                                  o o f E ^ ^ ^ ^ ^ ^ ^ ^ ^ ^ ^ ^ ^ ( R 0 o o                                                                                                                                                                                                                                                                                                                                                                                                                                                                                                                                                                                                                                       ",
"h.                                                                                                                                                                                                                                                                                                                                                                                                                                                                  o o k ^ ^ ^ ^ ^ ^ ^ ^ ^ ^ ^ ^ ^ ^ ( I < o &                                                                                                                                                                                                                                                                                                                                                                                                                                                                                                                                                                                                                                       ",
"h.                                                                                                                                                                                                                                                                                                                                                                                                                                                                  o % l / ^ ^ ^ ^ ^ ^ ^ ^ ^ ^ ^ ^ ^ / l % o &                                                                                                                                                                                                                                                                                                                                                                                                                                                                                                                                                                                                                                       ",
"h.                                                                                                                                                                                                                                                                                                                                                                                                                                                                  o = P / ^ ^ ^ ^ ^ ^ E ^ ^ ^ ^ ^ / ^ g o o ,                                                                                                                                                                                                                                                                                                                                                                                                                                                                                                                                                                                                                                       ",
"h.                                                                                                                                                                                                                                                                                                                                                                                                                                                                , o 1 I ( ^ ^ ^ ^ E ^ ~ ~ ^ ^ ^ ^ / ^ f o o                                                                                                                                                                                                                                                                                                                                                                                                                                                                                                                                                                                                                                         ",
"h.                                                                                                                                                                                                                                                                                                                                                                                                                                                                & o 9 Y ( ^ ^ ^ ^ ^ ^ ^ ^ ^ ^ ^ ^ / E q o o                                                                                                                                                                                                                                                                                                                                                                                                                                                                                                                                                                                                                                         ",
"h.                                                                                                                                                                                                                                                                                                                                                                                                                                                                & o 0 R / ^ ^ ^ ^ ^ ^ ^ ^ ^ ^ ^ ^ ^ R 0 o o                                                                                                                                                                                                                                                                                                                                                                                                                                                                                                                                                                                                                                         ",
"h.                                                                                                                                                                                                                                                                                                                                                                                                                                                                o o q E / ^ ^ ^ ^ ^ ^ ^ ^ ^ ^ ^ ^ ^ R 0 o o                                                                                                                                                                                                                                                                                                                                                                                                                                                                                                                                                                                                                                         ",
"h.                                                                                                                                                                                                                                                                                                                                                                                                                                                                o o f E / ^ ^ ^ ^ ^ ^ ^ ^ ^ ^ ^ ^ ^ E q o o                                                                                                                                                                                                                                                                                                                                                                                                                                                                                                                                                                                                                                         ",
"h.                                                                                                                                                                                                                                                                                                                                                                                                                                                                o o f E / ^ ^ ^ ^ ^ ~ ^ ^ ^ ^ E ^ ^ ^ g o o 1                                                                                                                                                                                                                                                                                                                                                                                                                                                                                                                                                                                                                                       ",
"h.                                                                                                                                                                                                                                                                                                                                                                                                                                                                o o f E / ^ ^ ^ ^ ~ ~ ^ ^ ^ ^ ~ ^ ^ ^ l % o ,                                                                                                                                                                                                                                                                                                                                                                                                                                                                                                                                                                                                                                       ",
"h.                                                                                                                                                                                                                                                                                                                                                                                                                                                                o o f E / ^ ^ ^ ^ ^ ^ ^ ^ ^ ^ ^ ^ ^ ( I 1 o o                                                                                                                                                                                                                                                                                                                                                                                                                                                                                                                                                                                                                                       ",
"h.                                                                                                                                                                                                                                                                                                                                                                                                                                                                o o f E / ^ ^ ^ ^ ^ ^ ^ ^ ^ ^ ^ ^ ^ ^ ^ g o o &                                                                                                                                                                                                                                                                                                                                                                                                                                                                                                                                                                                                                                     ",
"h.                                                                                                                                                                                                                                                                                                                                                                                                                                                                o o q E / ^ ^ ^ E ~ ^ ~ ~ ^ ^ ^ ^ ^ ^ ( Y 9 o o &                                               , & & ,                                                                                                                                                                                                                                                                                                                                                                                                                                                                                                                                                                             ",
"h.                                                                                                                                                                                                                                                                                                                                                                                                                                                                & o 0 R ( ^ ^ ^ ^ ^ ^ ^ ^ ^ ^ ^ ^ ^ ^ ^ ^ P 1 o o o                                   , & o o o o o o o o &                                                                                                                                                                                                                                                                                                                                                                                                                                                                                                                                                                         ",
"h.                                                                                                                                                                                                                                                                                                                                                                                                                                                                & o 9 Y ( ^ ^ ^ ^ ^ ^ ^ ^ ^ ^ ^ ^ ^ ^ ^ ^ ^ P 0 $ o o o &                   & & o o o o o o % 6 i a a 8 % o o                                                                                                                                                                                                                                                                                                                                                                                                                                                                                                                                                                       ",
"h.                                                                                                                                                                                                                                                                                                                                                                                                                                                                & o 1 I / ^ ^ ^ ^ ^ ^ ^ ^ ^ ^ ^ ^ ^ ^ ^ ^ ^ ^ I f = o # # o o o o o o o o o o o o % 6 i d D K j.x.b.b.l.D : o ,                                                                                                                                                                                                                                                                                                                                                                                                                                                                                                                                                                     ",
"h.                                                                                                                                                                                                                                                                                                                                                                                                                                                                1 o = A / ^ ^ ^ ^ ^ ^ ^ ^ ^ ^ ^ ^ ^ ^ ^ ^ ^ ^ / A = 5 j h 9 < = # o o ; 6 8 a C D J g.x.n.B.Z.G.J.J.I.Y.z.u o o                                                                                                                                                                                                                                                                                                                                                                                                                                                                                                                                                                     ",
"h.                                                                                                                                                                                                                                                                                                                                                                                                                                                                  o o k ^ ^ ^ ^ ^ ^ ^ ^ ~ ^ ^ ^ ^ ^ ^ ^ ^ ^ ^ ^ k o h (. Xy.>.:.U - : F j.l.c.m.B.Z.D.G.G.G.G.G.J.K.G.n.G ; o o o                                                                                                                                                                                                                                                                                                                                                                                                                                                                                                                                                                   ",
"h.                                                                                                                                                                                                                                                                                                                                                                                                                                                                  o o q E / ^ ^ ^ ^ ^ ^ E ^ ^ ^ ^ ^ ^ ^ ^ ^ ^ R q o N +X-X&X&X&X Xh % H G.K.G.G.D.D.D.D.D.J.I.I.D.m.d.C % ; i 6 o &                                                                                                                                                                                                                                                                                                                                                                                                                                                                                                                                                                 ",
"h.                                                                                                                                                                                                                                                                                                                                                                                                                                                                  o o 1 I / ^ ^ ^ ^ ^ ^ ^ ^ ^ ^ ^ ^ ^ ^ ^ ^ ^ I 1 % :.&X$X$X$X$X@XQ # d m.I.A.A.A.A.A.J.I.D.N.z.J d ; o 6 G x.G o o                                                                                                                                                                                                                                                                                                                                                                                                                                                                                                                                                                 ",
"h.                                                                                                                                                                                                                                                                                                                                                                                                                                                                  , o $ k ^ ^ ^ ^ ^ ^ ^ ^ ^ ^ ^ ^ E ^ ^ ^ ^ / l o 0 ^.-X$X$X$X$X&Xy.4 6 l.Y.D.A.A.A.D.B.z.J C 7 o o : Z g.V.E.g.; o                                                                                                                                                                                                                                                                                                                                                                                                                                                                                                                                                                 ",
"h.                                                                                                                                                                                                                                                                                                                                                                                                                                                                    o o q R / ^ ^ ^ ^ ^ ^ ^ ^ ^ ^ ^ ^ ^ ^ ^ R q o M OX*X$X$X$X$X&X Xj o J G.G.A.A.D.A.j.8 o o o i D j.N.K.R.J.H o o                                                                                                                                                                                                                                                                                                                                                                                                                                                                                                                                                                 ",
"h.                                                                                                                                                                                                                                                                                                                                                                                                                                                                    & o = l ^ ^ ^ ^ ^ ^ ^ ^ ^ ^ ^ ^ ^ ^ ^ / P < = :.$X$X$X$X$X$X&X@XU o S B.I.A.A.D.Z.j.a p D s.v.V.I.I.I.Y.k.8 o &                                                                                                                                                                                                                                                                                                                                                                                                                                                                                                                                                                 ",
"h.                                                                                                                                                                                                                                                                                                                                                                                                                                                                    , o o 0 Y ^ ^ ^ ^ ^ E ^ ^ ^ ^ ^ ^ ^ ^ E g o h (.*X$X$X$X$X$X$X$X:.# s m.Y.A.A.A.A.B.b.b.V.J.Y.I.G.J.G.l.p o o ,                                                                                                                                                                                                                                                                                                                                                                                                                                                                                                                                                                 ",
"h.                                                                                                                                                                                                                                                                                                                                                                                                                                                                      & o % g R ^ ^ ^ ^ ^ ^ ^ ^ ^ ^ E ^ / P 1 # ! @X$X$X$X$X$X$X$X$Xt.- u v.Y.D.A.A.A.G.K.I.I.G.G.G.G.m.i.i o o o &                                                                                                                                                                                                                                                                                                                                                                                                                                                                                                                                                                 ",
"h.                                                                                                                                                                                                                                                                                                                                                                                                                                                                        o o < k E ^ ^ ^ ^ ^ ^ ^ ^ ^ ~ / R f o h (.&X$X$X$X$X$X$X$X&X^.3 7 z.Y.D.A.A.A.A.D.D.G.G.D.M.g.S : o s d ; o                                                                                                                                                                                                                                                                                                                                                                                                                                                                                                                                                                 ",
"h.                                                                                                                                                                                                                                                                                                                                                                                                                                                                        , o o 1 l ^ ^ ^ ^ ^ ^ ^ ^ ^ ^ / l % = ! @X$X$X$X$X$X$X$X$X&X^.4 : l.Y.D.A.A.A.A.A.G.V.c.s.Z 6 o : S c.d.: o                                                                                                                                                                                                                                                                                                                                                                                                                                                                                                                                                                 ",
"h.                                                                                                                                                                                                                                                                                                                                                                                                                                                                          , o o 1 k E ( ^ ^ ^ ^ ^ ^ ( I 1 o M .X&X$X$X$X$X$X$X$X$X*X(.w : k.Y.D.A.A.A.A.J.B.K i o o : C d.N.Y.K % o                                                                                                                                                                                                                                                                                                                                                                                                                                                                                                                                                                 ",
"h.                                                                                                                                                                                                                                                                                                                                                                                                                                                                            & o o = g R ( / ^ ^ ^ ( Y 0 o t ^.*X$X$X$X$X$X$X$X$X$X*X(.w : k.Y.D.A.A.A.D.K.b.d o 8 S f.n.J.E.v.a o o                                                                                                                                                                                                                                                                                                                                                                                                                                                                                                                                                                 ",
"h.                                                                                                                                                                                                                                                                                                                                                                                                                                                                              , o o o 0 P ^ ( ^ ( R q o < >.$X&X$X$X$X$X$X$X$X$X$X&X^.4 6 l.Y.D.A.A.A.D.G.B.k.i.z.B.I.R.Y.b.Z o o                                                                                                                                                                                                                                                                                                                                                                                                                                                                                                                                                                   ",
"h.                                                                                                                                                                                                                                                                                                                                                                                                                                                                                , o o o < f I ^ R f o $ ! #X=X$X$X$X$X$X$X$X$X$X$X&Xy.3 7 x.Y.D.A.A.A.A.A.D.G.K.Y.Y.Y.Z.l.C o o &                                                                                                                                                                                                                                                                                                                                                                                                                                                                                                                                                                   ",
"h.                                                                                                                                                                                                                                                                                                                                                                                                                                                                                    o o o o 1 f q o < ! @X3X$X$X$X$X$X$X$X$X$X$X$X$Xt.- u v.Y.A.A.A.A.A.A.D.J.I.I.V.x.G 8 o o o                                                                                                                                                                                                                                                                                                                                                                                                                                                                                                                                                                     ",
"h.                                                                                                                                                                                                                                                                                                                                                                                                                                                                                      , o o o o o o h y.@X$X=X*X&X$X$X$X$X$X$X$X&X$X:.o s m.Y.A.D.D.D.G.J.J.C.n.g.F u o o o &                                                                                                                                                                                                                                                                                                                                                                                                                                                                                                                                                                       ",
"h.                                                                                                                                                                                                                                                                                                                                                                                                                                                                                          & o o o o 1 h N ! y.(..X+X#X$X&X&X&X&X=X@XW o S V.Y.G.D.C.N.n.z.d.F d 6 o o o o &                                                                                                                                                                                                                                                                                                                                                                                                                                                                                                                                                                         ",
"h.                                                                                                                                                                                                                                                                                                                                                                                                                                                                                              , & o o o o = 5 h M U Q >.t.y.^.(.(.^.M % D z.l.f.L G S d u : o o o o o &                                                                                                                                                                                                                                                                                                                                                                                                                                                                                                                                                                             ",
"h.                                                                                                                                                                                                                                                                                                                                                                                                                                                                                                    & o o o o o o # $ < 5 0 t h h h 9 ; 8 u 7 6 ; % o o o o o o & ,                                                                                                                                                                                                                                                                                                                                                                                                                                                                                                                                                                                 ",
"h.                                                                                                                                                                                                                                                                                                                                                                                                                                                                                                          , , & o o o o o o o $ $ o # o % o o o o o o o & & 1                                                                                                                                                                                                                                                                                                                                                                                                                                                                                                                                                                                       ",
"h.                                                                                                                                                                                                                                                                                                                                                                                                                                                                                                                    1 , & , & & & & & & & & , & , 1                                                                                                                                                                                                                                                                                                                                                                                                                                                                                                                                                                                                 ",
"h.                                                                                                                                                                                                                                                                                                                                                                                                                                                                                                                                                                                                                                                                                                                                                                                                                                                                                                                                                                                                                                                                                                                                                    ",
"h.                                                                                                                                                                                                                                                                                                                                                                                                                                                                                                                                                                                                                                                                                                                                                                                                                                                                                                                                                                                                                                                                                                                                                    ",
"h.                                                                                                                                                                                                                                                                                                                                                                                                                                                                                                                                                                                                                                                                                                                                                                                                                                                                                                                                                                                                                                                                                                                                                    ",
"h.                                                                                                                                                                                                                                                                                                                                                                                                                                                                                                                                                                                                                                                                                                                                                                                                                                                                                                                                                                                                                                                                                                                                                    ",
"h.                                                                                                                                                                                                                                                                                                                                                                                                                                                                                                                                                                                                                                                                                                                                                                                                                                                                                                                                                                                                                                                                                                                                                    ",
"h.                                                                                                                                                                                                                                                                                                                                                                                                                                                                                                                                                                                                                                                                                                                                                                                                                                                                                                                                                                                                                                                                                                                                                    ",
"h.                                                                                                                                                                                                                                                                                                                                                                                                                                                                                                                                                                                                                                                                                                                                                                                                                                                                                                                                                                                                                                                                                                                                                    ",
"h.                                                                                                                                                                                                                                                                                                                                                                                                                                                                                                                                                                                                                                                                                                                                                                                                                                                                                                                                                                                                                                                                                                                                                    ",
"h.                                                                                                                                                                                                                                                                                                                                                                                                                                                                                                                                                                                                                                                                                                                                                                                                                                                                                                                                                                                                                                                                                                                                                    ",
"h.                                                                                                                                                                                                                                                                                                                                                                                                                                                                                                                                                                                                                                                                                                                                                                                                                                                                                                                                                                                                                                                                                                                                                    ",
"h.                                                                                                                                                                                                                                                                                                                                                                                                                                                                                                                                                                                                                                                                                                                                                                                                                                                                                                                                                                                                                                                                                                                                                    ",
"h.                                                                                                                                                                                                                                                                                                                                                                                                                                                                                                                                                                                                                                                                                                                                                                                                                                                                                                                                                                                                                                                                                                                                                    ",
"h.                                                                                                                                                                                                                                                                                                                                                                                                                                                                                                                                                                                                                                                                                                                                                                                                                                                                                                                                                                                                                                                                                                                                                    ",
"h.                                                                                                                                                                                                                                                                                                                                                                                                                                                                                                                                                                                                                                                                                                                                                                                                                                                                                                                                                                                                                                                                                                                                                    ",
"h.                                                                                                                                                                                                                                                                                                                                                                                                                                                                                                                                                                                                                                                                                                                                                                                                                                                                                                                                                                                                                                                                                                                                                    ",
"h.                                                                                                                                                                                                                                                                                                                                                                                                                                                                                                                                                                                                                                                                                                                                                                                                                                                                                                                                                                                                                                                                                                                                                    ",
"h.                                                                                                                                                                                                                                                                                                                                                                                                                                                                                                                                                                                                                                                                                                                                                                                                                                                                                                                                                                                                                                                                                                                                                    ",
"h.                                                                                                                                                                                                                                                                                                                                                                                                                                                                                                                                                                                                                                                                                                                                                                                                                                                                                                                                                                                                                                                                                                                                                    ",
"h.                                                                                                                                                                                                                                                                                                                                                                                                                                                                                                                                                                                                                                                                                                                                                                                                                                                                                                                                                                                                                                                                                                                                                    ",
"h.                                                                                                                                                                                                                                                                                                                                                                                                                                                                                                                                                                                                                                                                                                                                                                                                                                                                                                                                                                                                                                                                                                                                                    ",
"h.                                                                                                                                                                                                                                                                                                                                                                                                                                                                                                                                                                                                                                                                                                                                                                                                                                                                                                                                                                                                                                                                                                                                                    ",
"h.                                                                                                                                                                                                                                                                                                                                                                                                                                                                                                                                                                                                                                                                                                                                                                                                                                                                                                                                                                                                                                                                                                                                                    ",
"h.                                                                                                                                                                                                                                                                                                                                                                                                                                                                                                                                                                                                                                                                                                                                                                                                                                                                                                                                                                                                                                                                                                                                                    ",
"h.                                                                                                                                                                                                                                                                                                                                                                                                                                                                                                                                                                                                                                                                                                                                                                                                                                                                                                                                                                                                                                                                                                                                                    ",
"h.                                                                                                                                                                                                                                                                                                                                                                                                                                                                                                                                                                                                                                                                                                                                                                                                                                                                                                                                                                                                                                                                                                                                                    ",
"h.                                                                                                                                                                                                                                                                                                                                                                                                                                                                                                                                                                                                                                                                                                                                                                                                                                                                                                                                                                                                                                                                                                                                                    ",
"h.                                                                                                                                                                                                                                                                                                                                                                                                                                                                                                                                                                                                                                                                                                                                                                                                                                                                                                                                                                                                                                                                                                                                                    ",
"h.                                                                                                                                                                                                                                                                                                                                                                                                                                                                                                                                                                                                                                                                                                                                                                                                                                                                                                                                                                                                                                                                                                                                                    ",
"h.                                                                                                                                                                                                                                                                                                                                                                                                                                                                                                                                                                                                                                                                                                                                                                                                                                                                                                                                                                                                                                                                                                                                                    ",
"h.                                                                                                                                                                                                                                                                                                                                                                                                                                                                                                                                                                                                                                                                                                                                                                                                                                                                                                                                                                                                                                                                                                                                                    ",
"h.                                                                                                                                                                                                                                                                                                                                                                                                                                                                                                                                                                                                                                                                                                                                                                                                                                                                                                                                                                                                                                                                                                                                                    ",
"h.                                                                                                                                                                                                                                                                                                                                                                                                                                                                                                                                                                                                                                                                                                                                                                                                                                                                                                                                                                                                                                                                                                                                                    ",
"h.                                                                                                                                                                                                                                                                                                                                                                                                                                                                                                                                                                                                                                                                                                                                                                                                                                                                                                                                                                                                                                                                                                                                                    ",
"h.                                                                                                                                                                                                                                                                                                                                                                                                                                                                                                                                                                                                                                                                                                                                                                                                                                                                                                                                                                                                                                                                                                                                                    "
};
