/* XPM */
static char *fb96ab42c114460f9270a5a49998380f2SpielR9N0wghVEz[] = {
/* columns rows colors chars-per-pixel */
"64 64 256 2 ",
"   c #171B00",
".  c #211D00",
"X  c #1A2900",
"o  c #1E3400",
"O  c #2A2703",
"+  c #242A01",
"@  c #243300",
"#  c #2B3503",
"$  c #253B01",
"%  c #2B3C01",
"&  c #323C01",
"*  c #363805",
"=  c #31300D",
"-  c #473E06",
";  c #483811",
":  c #2C4301",
">  c #2E4902",
",  c #334402",
"<  c #394302",
"1  c #344C01",
"2  c #3B4C02",
"3  c #38470B",
"4  c #355201",
"5  c #3B5303",
"6  c #3C5B02",
"7  c #39540A",
"8  c #3C540B",
"9  c #3B4815",
"0  c #3E5715",
"q  c #3D6108",
"w  c #424C04",
"e  c #454909",
"r  c #514709",
"t  c #435403",
"y  c #445C04",
"u  c #4B5C04",
"i  c #44550B",
"p  c #4B5409",
"a  c #445B0B",
"s  c #4C5C0B",
"d  c #535B0A",
"f  c #484B16",
"g  c #554D19",
"h  c #455B13",
"j  c #495816",
"k  c #565916",
"l  c #535C1B",
"z  c #635C14",
"x  c #446302",
"c  c #4B6402",
"v  c #446A03",
"b  c #4C6B02",
"n  c #45630B",
"m  c #4B640B",
"M  c #4C6B0B",
"N  c #576907",
"B  c #53640C",
"V  c #536B0C",
"C  c #4D7206",
"Z  c #577608",
"A  c #55730C",
"S  c #5B7B0B",
"D  c #4D6413",
"F  c #4D6B12",
"G  c #4A6618",
"H  c #536413",
"J  c #536C13",
"K  c #5B6B13",
"L  c #58641A",
"P  c #546C1B",
"I  c #5B6B1B",
"U  c #4D7318",
"Y  c #547313",
"T  c #5B7414",
"R  c #557A13",
"E  c #5C7B14",
"W  c #54721B",
"Q  c #5C741B",
"!  c #557A1C",
"~  c #5C7B1B",
"^  c #637908",
"/  c #627B0D",
"(  c #656A19",
")  c #637C14",
"_  c #657719",
"`  c #627C1C",
"'  c #717717",
"]  c #535324",
"[  c #565C26",
"{  c #65592B",
"}  c #4C6222",
"|  c #576727",
" . c #5A6B23",
".. c #5C7322",
"X. c #5A7726",
"o. c #586830",
"O. c #5C7736",
"+. c #656A27",
"@. c #637523",
"#. c #637B24",
"$. c #6C7B23",
"%. c #66742A",
"&. c #647B2A",
"*. c #6C7D2A",
"=. c #757C2A",
"-. c #6A6A36",
";. c #687835",
":. c #787A38",
">. c #6C7B44",
",. c #5B820B",
"<. c #5C8316",
"1. c #66870B",
"2. c #70930B",
"3. c #638315",
"4. c #698914",
"5. c #64841C",
"6. c #6B841C",
"7. c #658B1B",
"8. c #6C8C1D",
"9. c #72881A",
"0. c #728B1C",
"q. c #6E9516",
"w. c #6E921D",
"e. c #76971A",
"r. c #76A30C",
"t. c #7BA31D",
"y. c #5E8123",
"u. c #5C8036",
"i. c #648224",
"p. c #6B8424",
"a. c #6C8B23",
"s. c #64822B",
"d. c #6B842B",
"f. c #668A28",
"g. c #6D8B2C",
"h. c #728424",
"j. c #738B23",
"k. c #73842C",
"l. c #738B2B",
"z. c #7A8A29",
"x. c #6C9324",
"c. c #6D912B",
"v. c #6F9928",
"b. c #739324",
"n. c #7A9424",
"m. c #739A24",
"M. c #7A9A24",
"N. c #74932C",
"B. c #7C932C",
"V. c #759B2B",
"C. c #7C9B2C",
"Z. c #6B8433",
"A. c #6C8B33",
"S. c #698438",
"D. c #738532",
"F. c #738C34",
"G. c #748C3B",
"H. c #7A8938",
"J. c #6E9334",
"K. c #749332",
"L. c #7C9433",
"P. c #759B33",
"I. c #7B9C33",
"U. c #75973D",
"Y. c #7C943B",
"T. c #7C9B3B",
"R. c #7CA323",
"E. c #7BA926",
"W. c #7CA32C",
"Q. c #7BA633",
"!. c #7DA334",
"~. c #7EA33B",
"^. c #6D8842",
"/. c #788944",
"(. c #7C9444",
"). c #799845",
"_. c #7B9455",
"`. c #7EA346",
"'. c #87A81E",
"]. c #91BE1B",
"[. c #898E2E",
"{. c #849828",
"}. c #829C2C",
"|. c #848636",
" X c #839D35",
".X c #869538",
"XX c #839B3C",
"oX c #8A9B3B",
"OX c #86A925",
"+X c #83A42B",
"@X c #83AA2C",
"#X c #8BAC2D",
"$X c #90AA2D",
"%X c #8AB42A",
"&X c #94B62A",
"*X c #83A334",
"=X c #8AA434",
"-X c #85AB33",
";X c #8BAB34",
":X c #83A43C",
">X c #8AA43D",
",X c #84AA3B",
"<X c #8BAC3C",
"1X c #95A73B",
"2X c #92AC3D",
"3X c #8AB236",
"4X c #96B73A",
"5X c #A0BC3F",
"6X c #98C23D",
"7X c #A7C636",
"8X c #878A49",
"9X c #899747",
"0X c #839C43",
"qX c #859B4B",
"wX c #929949",
"eX c #8E9054",
"rX c #889A55",
"tX c #A6964C",
"yX c #83A444",
"uX c #8BA445",
"iX c #85AB42",
"pX c #8CAB43",
"aX c #8BA34B",
"sX c #87A84B",
"dX c #93AB43",
"fX c #97A848",
"gX c #93AC4C",
"hX c #8CB246",
"jX c #94B343",
"kX c #9AB847",
"lX c #93B34C",
"zX c #88A555",
"xX c #96AA56",
"cX c #8EB252",
"vX c #93B454",
"bX c #9BB756",
"nX c #A2B749",
"mX c #A4A859",
"MX c #A5BA59",
"NX c #A09B61",
"BX c #97AB65",
"VX c #97B362",
"CX c #A6B965",
"ZX c #A7B26E",
"AX c #CFBE6E",
"SX c #9DC149",
"DX c #9EC15B",
"FX c #A7C64A",
"GX c #A7C658",
"HX c #B3CF55",
"JX c #9FC363",
"KX c #A8C467",
"LX c #B5C867",
"PX c #B4CE6F",
"IX c #C4D664",
"UX c #BBD184",
/* pixels */
"MXJ.FXf N.mX-.y.:X$.` `.sXN.i XXN.lXxXa.3.c.1 xXE.m X.4 X 6.i.*.:X6.&.` 3.M ;X9.X.V.(.$ K Y.aXK.a qX>Xg.$ : C.M m.S n.OXN.P n :X",
"*X;.>Xs.K.eX.XdX@XrXG.8 9 A.Q Y.Z -.2X6.#.=X).bX$ g.a.h gXv | y 8.iXj o.w XXQ b t 3.OX= fXH.8..X( 5 q l.X ;.~ .X;.) zX4XS.*X>XG.",
"x.'.uXu :.$.-X) K.& ^.x `.H.m ^.a.>.`.^.F.A.S aX5 ,XZ + d.g ;XP jX{.=.l | P.2Xj.tX_ : CX XS i Q l.E O e.n &XqX..H.zXiXX c.4X8 E ",
"l .XMX%.E 1.i.a D.< L wX@XkXd. X}.<XB l.C.L.^.l.% a.=XS.yXM.g.&Xb.x.#.f q.jX&.F 0.| J < #Xb ;X$ XXb : c X ! S xXN.*.2 wXe.V o iX",
"3.8 F.b.OX:.+ m H &.2 >.5 e.X.JX>XeXY.Q w %.9X' *.K.@.X.1 K.bX+.6..Xq.T &XD.h.J.+XH F. Xe.4 R.0XBXJX*.8 -.rXy FX% !.4.R T.5 pX, ",
"% D.6.0.~ gXN G p.5.Y.f 9 n.T.W.t aXm mX%.W _ L P e.k.m S  XwX/.` >XK HXlX_ q.L.sXvXk 9 @.2 zXX.s.m u |.R z.a.H.kXZ.` 4.R /.0 C.",
"J.rX*Xj.$.e.yX% rXx 0Xj L 4.M.m.h..X[ wX*.G ;.+.h h.h.g.sX0Xz.b i.&XpXxXkXD.y ^.8 : J.oXm *XaX: 4.a ,XD.).0XbXGXy c 1.6 #.p.i J.",
"T.@.M h Z.T.D `.`.1XaXT.w r.[ { ( xXG.D.} H hXa. .~.pXV.<X.X%.fX4 =Xh.k.c I.Y.yXd.h ,.Z <X5 # R OXO sXN.9XzX .~.6.D M.L m 8 a.n ",
"Q <.h.l [ 0XA.M.a j q.LXx G.{.(.}.:X0.;.t.5.BXx.8 6.lX[.H.).m N.M.K A n./.l.5.I.hXbX* *XT t N.& <X@.a.2XqX,XZ.qX}.FX$ 9.OXi.1 Z.",
"uX2 k | j a  X%.vXd.Y.W.C [ =.w c qXZ.n H 3.b.>.a.Y.~.c ) GXt y H 9 9 u.8.xX8 e.a.y Y.+X%.fXFXF.OX=X@.kXqX^.*.5 OXC.GXa kX, 0X6 ",
"Q G.fXb B e.2 d.6.k.fXP 1.h.iX4.1X>Xe E &.i.bXL.8 h.~.1 I g !.}.s D W / sXs i.g.e.<X5 1X.XMX8 P.E eX< X.wX .F.h G &X  oXJ I o.C.",
"3.+.9X#XgX-Xc &X~ 4XG {.k | K T F.Z 0X,XX.mXP , a.+.D.Q _ A.4.|.=XeXK.8.}.% x.J 4.R.P &Xj 9X1X;XiXC oXi.6.D 5 1 2.j bX1X..m m.+X",
"a I @Xf.L.!.=X3 R Y.d.i.I.l f.VX-X%.o.J : U g.(.i <Xt q.u :.H #.3.F.U.H.G 8 p c.@Xb *X8.+XK.5.uXi.W.P.I.pXs.o s.^./ 5 5 W.` 0X&X",
"P.KXV BX,.~ U.d.fXX.3XQ i.p ; F.x.e.+XC yXE H bXm.d.Z S # *Xh a.6./ hXb.,XI.<.A v 5.Y jX} B.h pXO.O.sXD 2 XX/.G.X.4X= i.L.LXM.i.",
"y T.Q 1 V.q.7.b.SX8 hXlXN.k.N.}.V z m +.g.~ y.jX7.3.=X2.pX; H.OXXXj g.J.6 J m.6.a.a.pX~ b.m 6 +X. 2.-XR a.i.X.).2XL m ) &X_ *.Y.",
"bXSX/ =XkXN f l.~ G B.-.2 >XUXCXL.2  .pXq.& F.# b a 2X<X{.Q L m ' GXV.#.x.CXL./.5 1 *Xx.7 '.6.S @ | >.W.6 v.W.J.K.Z K.*X6.A.1 %.",
"CXZ.%.Y...aX:XV a.aX&.A.w !.:XI.I.' S @.3.c x dXi.MXI.E < t 3.j.#Xh.z.F.J E 5.i j P.!.} P.P.A V.b.4Xa.G M x..XC.kXa.` * M.d F.fX",
".X* 4Xd.3XS.uXzXF 0 3 ,XV.kX7X9.x.| e.L W.Z.M i.g xXIXV b.t.*XC.2Xf.j L CXkX` dXGXF.P ;.kXm zXzX1 :XS.!.N.b.N ) L.3XL 4Xu G ` M ",
"^ wXG.N.F X X i I J d x.n.d e.E.B.z.{.I.+.XX .ZX=X3.bXFX6.3.C.; e.s D.MX;.;. .g.A.R jX3.lX+XpX> 1 n.Y Q c I.z.e $.C xX5 f.B pX$.",
"=.K +.lX| O.P.c.V.m Y pX( dXN.*XC R.N d.i.xXp.dXjXV.L.jXp.1.F.4X) D i.Q _ < kXD.E.aXxXKXvX` O nXx H.Y.=X1 N >Xb.' 1X{.T *XT.( i ",
"Q.MX~.,XV.M a.m @ F.[ n 0XW.K s 1 h ) <XW.Z C.R : # gXV S 7. .> a.p ;Xu  XwXqXx m X % ;.I i.t $ PXT.e :.L pX2 gXI.B u y :.N.H K ",
"' R.CX@.&.%.J | V.+ a % m t.3Xi x.qXY.xXi uX& s.tX>X% @.t q.5.B 0.K..Xt wX|.w vXf ^.I.yXv.6 o ;.a.jX2 m uX Xw q.6.<Xp.P.N.*Xg.B.",
";XNXk.6.~ p...s 0X_ fX&.bX_.w.i.*XgXjXi.K.| Q.Q.o.7.W.I.: ` <X/ +.F.s L P.MX>XQ.jXA f.T 8 (.3 Z.S.iXd.Y N.c b.V.K., 2 w.h L v K ",
"!.L I l.FX6.Y Z G.t +.-.Z.GXC.H.GX1 GXw >XgX7 A.xX:XD sXn.bXL.P.l.!.yX}.' M.xX*.L xXm e P.$ 6 f G 1.kXV *.:XrXb.xXe oX:.y 5XMXA ",
" X4XvXa.=.qX7 <.%XJ.# O pX~.oXq.M.I.j f uXd.W V.3.p.=X8.I B | -X: Z.6 $.-X:.p.6.f.T M t d.m fXs.CXl P.m xXC /.X.[ pXp 1XV.V.N ( ",
"u N.,Xs qX-X0.} 8 G n.1 ) T KX` }.KXS.jXD V.V.3 PX<XpX= 0X& L.H.6 5XGXD Q.0XT ` HXa.M / 9Xs I k CXkX7.xXGXaX%.@.4XB.) g k.9X8 W.",
"=X` 3.T P & pXu 5.8 ^ `.6.qXbXPX2 L.H.0X<.c } $ F.qXyX|.| <Xp .X*XC.B =..XdXGXa.D.F.8 <.6XZ ;.O <X,X[.q.#XV.i.p. .E r -X,XQ 6 2X",
"< /.l kX9 OX3 CXxXU./ ~ s.).gXf.%.dX9Xt P.# F T.hX~ F ;.;X$.l.g T u l R.& pX-X2 xXkXq.^.: % =X8 6.B KXQ M.UX, 2 3 L.gXj.C.i.).3 ",
"CXaX@X .1.S BX$.3XW L.6 k E 3.lXt hXxXb.Q.4XP.6 I > ..f vXX.g -X<XJ : #XN.g.4.c S.} jXK R 1 A g.S H.MXPXm ~.J @ 2X>XuX>Xx.j.j <.",
"..gX$ M kXm.T.,X(.a G N.l &.H I b.3.n.=.T +.bXCXl ! BXlXsXL.CXb.Y ` yXh k ^.& lX&.4XX.KXxXyXE U.G ^.MXd.#.1Xh OXgXD + 8.4 P 5 K.",
"!.X.n 2XA.gX> Z @X5 ;.N.D y j.5 5 -X-.L.w.jXm ,Xk yXY.;.*XfX).jXM.B.I C qXk.@Xd.S ~ bX@.<Xy bXM f 6 3.aXT ,XaXg.-XfX..h.| H  .^.",
"i d.8 P.=XN.hXU.).O.` 1.7.M.G.l.j A pXC V.4XX.<.N aXy & K.,XO #Xt /.t `.*.gX% d.<XW.N.w.(.G W M i 1 Q i W.8.uX:XeXY.E ( a bX8XD.",
"XX;.4 . vXA.i.| N.o.bX: ;.t.a.) |.MXH LX3.bXa aX5.Q.0.j < :XL.P.w.J | ).~.s.6 pX#.qX1 b 3Xa G I.K F.0.c 8 8X; | BXl.:Xr.0XF K Q ",
"8 1 h I.T aXP ~.a.i.i H.l B.x Q b & 2Xq.$.+.kX2.>X$ % }.x uXH.lXj ( ;.d.j ..h a.XXI.sXsXzX;..X~ V.3.d.B y G.N.R 1.Y J i i./.' F.",
"c.6.9X#.- 8...GX~ ..).;.%X3X% n / % I.3.F p.K.B.CXc.X #.& %.H.lXi.3XH &.l.eX6 X T.Y a.a T.;.nXX k.t.= fX=X}.5 mXb.@XL.s 3 1.J.N ",
").f.l.nXw w.A Y ~ aX:Xp N.5 l.6.D.f < j l.aX#XT.VXxXbX4Xq.7.%.|.r *.O T.} t : K.6.gXT I.N.J.j =.2 G qXH GXt < i %.oX^ dXuXY.-XW.",
"x.a.v 9XKXR.e.) dXW.oXo ;X#X% fX7.G..X5.5 S pXdXI *X4 gX, S @.G.[.#X*.l.y.C.S.s [ i H SXR G ).MX, m k..XE OX.XeX1.5 @ i.: +XE ! ",
" .j S d.i.z =.- I :XlX9 oX3 &.k.> %.L.} S.;XM.<.x Q G q s d %.I rXe k.2 +XzX .;.jXA Z X.6 (.G jXG /.3 n.J %Xj 3 a.R.xX* vXP ^.~ ",
"d 0X=.$.kX8X X2XPX*Xs.*X:XOX` f yXq a.yX6..., > C 4XY.P W.p A i.$.8XF.T 0 g.oXd y e.E =XGXW.l.gXT l O B.x.c T.L < <XH @ <.*.;.E ",
"1 T pX+.C.+XMX) >X:XyX*.N.B K e I qXd.).S l.V.A.U.).Y *X6 Q iX_ y FXW.0XGX;XP 2XKXG p.{.q.5 @ 1 a M 2 : >.n.j c 3.n.L 2 L s.) 2 ",
"F.XXN.C.gXjX0.g  XF.H.l ) XX4Xu m ).eXn : x.V 4.8 s <.jXkX+ B , A.e.{.A FXN.k.gXa D E $.h F >Xy MXOXS N.0.w.{.` k A z *.e R m a ",
"/. .m a.a.5Xi.3X(.m.*XL =.g +.] @./.CX: g.GXj.M 7.R.<XMX$ + v.@.| L.=X XT.<.9.+ kX<X4XnXXX1.b.0XyX= ) 0.yXe.c.g zXOXqX+ s.^.vXP ",
"!.GXM o pX6XhXa.W.} M [ &.B  X$.T M lX0 H [ #.L.@Xx , T.!.;. .:XVXl |.^ D VXA.# 9.F N.L.1 S.sX4XaXl.D.XXC 3.f pX8 V.B.E lX> sXV.",
"XXW.*X*X@X| M @ I.< j i #.).p oX_ w.zX%.Y.(.Z.-X:XGXfXE hXM 3XxX;.i.K # i.4X$ Q , oXT fXm $.P {. X;.).-X6.q.' w , bXB.i.<X'.E 7.",
"% c.a.a.KX,Xa.=X, E.i kX5 $.) :X$ G x.w 4 < bXX i x.4X5.kXY.B < r wX* nXqXuXe.t GXa.*Xd.;Xx ].,Xf ' t %.y H D.X.y +.<XIX1XFXc 8 ",
"V.<XfX@.jXd.nX#.,X! ` P.( J %X<XqXFXlXyX{.4 M Y.CX` h.& LX< Q.3.' ( | J d..XT.X.+XD x p.3 S MXy f.M.h.oXF.Q F.* V.H.= p.aXbX0.lX",
"J yXe.P.yX6.j.uX3.cX%.) l #.t.0.l.FXv.qXbX| S #.:Xt ) j 1 ~ =XB a.t 8XK !. Xx ~ XX9.sXA 9 kX3.A.P.K.#.wXiX( 4.9X .,X@./ + m  XP.",
"L.J L.) XX4.g.2Xi 5.* V.@.k ) C.G.MX@ L.%X$ uXI.# &. .H.0 {.>X@.3  X+.) n vX<XX :X8.q.P.1.X X.@Xc W.d.D.yX.XE T.= p.Y.GX.X5.0.B.",
"l >Xj XXSXa a 1.R.9 * , 0XS.( d Q C.g.J p.iXL 3 R xX|  .+.D x HXdXBX-X3XO.n A 9Xx +X: S 0 T.,X$ pXG Y.D ~.C.+.x.5.DXhXzX*XW.9X4X",
"F.| #.L.A c.> ,X-XeXx < xXl A *.Z ,XW 5 sXkXd.).aXa R.-XPXk V g.k d n S.l.l.b.= H.5 % C vX~.S F sXn l.GX6.4X+ CX] bXL.P c.k.sXZ.",
"jXL. XH.T.qXiX3XQ b.,XH L ; p f x S 2.R.0 K.xXjX%.4Xm _ +./.2 N.#.8 ;XOX@ k.x.yXh.W >X8 zXZ.l.K.xXiXi T.4 a.7.@.).aXQ V ] C.! G.",
"&.% BX4Xe.g F K.pXJ FXxXn.LX1X7.H `.0Xm P.W : ! b F.`.S.i m.1 i.l.* H.= gXoX: e W % Q 2Xe.5...J n MXP W.u :XOX(.v 1 d.6 4 b i S.",
"8 2X| p.: H g..X& PXZX+X~ ` K S y.X o.Y HXM GXuXdXk.Z fX| =.PX;XP 3.!.'.A o.N.1 N.cX5.Z.3.b C r.&.X.OXB.CXB.SXd.IXoXzXbX$.n /.sX",
"8.L kXZ bXsX,X[.H gXhXK }.#XZ : T x.w.%X4Xg.e ) P l 5 T H.iXn.uX1 L ~ p.( :.p gXZ.:XR uXa.A.c.| :XC.S.T.mX1X: 2 S.F qXD < wXy.XX",
"(.GXc A 6.CXp.=XgX=.fX'.GXkX!.tXo.+Xb + ^.IXw F.0Xi =Xq.fXAX>XQ h xXj.LX2Xk xX0X|.g.4 4.Z.c.@ , 5.PXi V.|.oXl.,X..: 4.1 lXxXU.Z.",
"h cX>XM #X&.X.K l S.nX!.g.Z T 3.).G.c.8 G.=XHX3 # x 1.v X N.I.6 F. .k - p f XXS.xXL.J GX6.<XN.dX1.4XpXa.p |.uXQ * R e.# vX5.wXBX",
"(.F.N GX3 I.x., t {.B =.n.N.n.M.4X9.e.HX` %.sX_.fX6.I.Z *XrXm <X~ < 4.L T h.2 p.<Xo.*.;.( F.dX5 3 O.nXB.{.[ l.t gX+ ,Xs V.lX8X+X",
"i a %Xb.GXL z.U a.u a.e.|.k.C.#., #XV #.i O.j.S ..rX$.aX2.p.6 u }. XK.6.L u ) ` J.1 9 +X,.C.N.4 0 sX4X>XZX&X, z.FXG.R.$X2 kXBXU.",
"D s.o $X  1XN , .Xm %X0.d.fXl.W., OXV #.i O.h.,...rX$.aXw.P ;X#X;X_ j 4X=X+X(.D x.j.+ kX,XkXbXc 1.w.K.I ).z.mXaX> !.P.mX# ..9X| ",
", 4 e.| kXoXm +.D./ @.{.[.+.N.a.4X9.e.HX` &.sX_.kX6.~.Z w.aX, 7.j.7.Z FX@ H.i.I.,.T gXp M y N i.0 9Xa.m.h &X| K oXC.sXZ B...j. .",
"$ n A./ 1 t e.y n.|.4Xi.*XwXB oXP.K.c.7 G.=XHX3 # x 1.: y.OXdX2X1 -X* & f.9.GXE g.I iXH &.W ^ I.J I.v F <X+X#X}.C.}.G C.,XP.MXX.",
">.Z.n 6X# T.eXL D.T *X$.PXD.9Xg.4X+Xb + ^.IX2 F.uXe W.6Xh 3.). XHXy Z p G 7.C.3XW B a C.4.kXGX9.f.(.hXv T =X% uXj sXO.| vX;.t T.",
"W `.nXj s e.d.kXvXgXn.< d.=.H.e *Xx.w.%XkXg.p T I x J &XOX<Xa 7X$X..GXl.kX-XwXV.6.PX7 >X, <XdXJ c aXkX8 lXY Q A > %X  2.jXR *XR ",
"*XW J.d.s.3 GXj.` z k.:...0XCX#XI.I.o.T HXV GXd.: o pX9.3.m.(.GXd ` G C S @X| D.,X.XP pXU.2 mX{ V >Xx ,XF.i.%.'.E ,.% : _.!.M N."
};
