/* XPM */
static char *f684972131144698a897e90abda64c8az4rrCV8fSfoWkvhz[] = {
/* columns rows colors chars-per-pixel */
"219 250 118 2 ",
"   c #47704C",
".  c #FF55FF",
"X  c #1B1B1B",
"o  c gray11",
"O  c #121010",
"+  c #080809",
"@  c None",
"#  c #131212",
"$  c #1B4A57",
"%  c gray5",
"&  c gray4",
"*  c #121111",
"=  c gray7",
"-  c #111010",
";  c #090F11",
":  c gray3",
">  c gray7",
",  c gray7",
"<  c #121211",
"1  c #1B434E",
"2  c #122429",
"3  c #080B0C",
"4  c #0F0E0D",
"5  c gray6",
"6  c #141515",
"7  c #5D5448",
"8  c #111111",
"9  c gray10",
"0  c #0E1213",
"q  c #0D1314",
"w  c #151515",
"e  c #112E36",
"r  c #0C0B0B",
"t  c #153943",
"y  c #6A6052",
"u  c #51483C",
"i  c #102A31",
"p  c #13191B",
"a  c #342F27",
"s  c #8C4F4D",
"d  c #090807",
"f  c #842F84",
"g  c #A436A6",
"h  c #48C1E3",
"j  c #F5D9B4",
"k  c #000001",
"l  c #48C2E5",
"z  c #49C4E7",
"x  c #585960",
"c  c #49C3E6",
"v  c white",
"b  c #49C5E8",
"n  c #F8DCB6",
"m  c #46BEE0",
"M  c #E4F5EE",
"N  c #44B8D8",
"B  c #45BBDD",
"V  c #40AECD",
"C  c #42B3D3",
"Z  c #313234",
"A  c #3A9DB9",
"S  c #3EA9C7",
"D  c #2A7387",
"F  c #F7DBB5",
"G  c #45484B",
"H  c #266576",
"J  c #3CA4C1",
"K  c #3E3E3E",
"L  c #070B0D",
"P  c #30839A",
"I  c #2D7C92",
"U  c #286B7D",
"Y  c #4F5156",
"T  c #252223",
"R  c #245E6E",
"E  c #3288A0",
"W  c #0B1619",
"Q  c #F0D4B0",
"!  c #1C2C32",
"~  c #225867",
"^  c #3897B2",
"/  c #153841",
"(  c #E8CEAA",
")  c #30515A",
"_  c #412921",
"`  c #FBDEB8",
"'  c #348FA9",
"]  c #0D2329",
"[  c #A59279",
"{  c #338CA5",
"}  c #583328",
"|  c #3693AE",
" . c #988770",
".. c #F6F6F6",
"X. c #80715E",
"o. c #E6EBE9",
"O. c #6A6A65",
"+. c #DFC6A4",
"@. c #713E2F",
"#. c #B9A189",
"$. c #9B9D9B",
"%. c #C6CAC9",
"&. c #C9B293",
"*. c #717675",
"=. c #AFB3B1",
"-. c #D5BD9D",
";. c #8D7D67",
":. c #D3D7D6",
">. c #B9C1BD",
",. c #F7ACCB",
"<. c #8E9090",
"1. c #DEE2E0",
"2. c #A3A6A4",
"3. c #7E8181",
"4. c #A74C2A",
"5. c #838786",
"6. c #DF6738",
"7. c #F3703D",
/* pixels */
".                                                                                                                                                                                                                                                                                                                                                                                                                                                   . ",
".                                                                                                                                                                                                                                                                                                                                                                                                                                                   . ",
".                                                                                                                                                                                                                                                                                                                                                                                                                                                   . ",
".                                                                                                                                                                                                                                                                                                                                                                                                                                                   . ",
".                                                                                                                                                                                                                                                                                                                                                                                                                                                   . ",
".                                                                                                                                                                                                                                                                                                                                                                                                                                                   . ",
".                                                                                                                                                                                                                                                                                                                                                                                                                                                   . ",
".                                                                                                                                                                                                                                                                                                                                                                                                                                                   . ",
".                                                                                                                                                                                                                                                                                                                                                                                                                                                   . ",
".                                                                                                                                                                                                                                                                                                                                                                                                                                                   . ",
".                                                                                                                                                                                                                                                                                                                                                                                                                                                   . ",
".                                                                                                                                                                                                                                                                                                                                                                                                                                                   . ",
".                                                                                                                                                                                                                                                                                                                                                                                                                                                   . ",
".                                                                                                                                                                                                                                                                                                                                                                                                                                                   . ",
".                                                                                                                                                                                                                                                                                                                                                                                                                                                   . ",
".                                                                                                                                                                                                                                                                                                                                                                                                                                                   . ",
".                                                                                                                                                                                                                                                                                                                                                                                                                                                   . ",
".                                                                                                                                                                                                                                                                                                                                                                                                                                                   . ",
".                                                                                                                                                                                                                                                                                                                                                                                                                                                   . ",
".                                                                                                                                                                                                                                                                                                                                                                                                                                                   . ",
".                                                                                                                                                                                                                                                                                                                                                                                                                                                   . ",
".                                                                                                                                                                                                                                                                                                                                                                                                                                                   . ",
".                                                                                                                                                                                                                                                                                                                                                                                                                                                   . ",
".                                                                                                                                                                                                                                                                                                                                                                                                                                                   . ",
".                                                                                                                                                                                                                                                                                                                                                                                                                                                   . ",
".                                                                                                                                                                                                                                                                                                                                                                                                                                                   . ",
".                                                                                                                                                                                                                                                                                                                                                                                                                                                   . ",
".                                                                                                                                                                                                                                                                                                                                                                                                                                                   . ",
".                                                                                                                                                                                                                                                                                                                                                                                                                                                   . ",
".                                                                                                                                                                                                                                                                                                                                                                                                                                                   . ",
".                                                                                                                                                                                                                                                                                                                                                                                                                                                   . ",
".                                                                                                                                                                                                                                                                                                                                                                                                                                                   . ",
".                                                                                                                                                                                                                                                                                                                                                                                                                                                   . ",
".                                                                                                                                                                                                                                                                                                                                                                                                                                                   . ",
".                                                                                                                                                                                                                                                                                                                                                                                                                                                   . ",
".                                                                                                                                                                                                                                                                                                                                                                                                                                                   . ",
".                                                                                                                                                                                                                                                                                                                                                                                                                                                   . ",
".                                                                                                                                                                                                                                                                                                                                                                                                                                                   . ",
".                                                                                                                                                                                                                                                                                                                                                                                                                                                   . ",
".                                                                                                                                                                                                                                                                                                                                                                                                                                                   . ",
".                                                                                                                                                                                                                                                                                                                                                                                                                                                   . ",
".                                                                                                                                                                                                                                                                                                                                                                                                                                                   . ",
".                                                                                                                                                                                                                                                                                                                                                                                                                                                   . ",
".                                                                                                                                                                                                                                                                                                                                                                                                                                                   . ",
".                                                                                                                                                                                                                                                                                                                                                                                                                                                   . ",
".                                                                                                                                                                                                                                                                                                                                                                                                                                                   . ",
".                                                                                                                                                                                                                                                                                                                                                                                                                                                   . ",
".                                                                                                                                                                                                                                                                                                                                                                                                                                                   . ",
".                                                                                                                                                                                                                                                                                                                                                                                                                                                   . ",
".                                                                                                                                                                                                                                                                                                                                                                                                                                                   . ",
".                                                                                                                                                                                                                                                                                                                                                                                                                                                   . ",
".                                                                                                                                                                                                                                                                                                                                                                                                                                                   . ",
".                                                                                                                                                                                                                                                                                                                                                                                                                                                   . ",
".                                                                                                                                                                                                                                                                                                                                                                                                                                                   . ",
".                                                                                                                                                                                                                                                                                                                                                                                                                                                   . ",
".                                                                                                                                                                                                                                                                                                                                                                                                                                                   . ",
".                                                                                                                                                                                                                                                                                                                                                                                                                                                   . ",
".                                                                                                                                                                                                                                                                                                                                                                                                                                                   . ",
".                                                                                                                                                                                                                                                                                                                                                                                                                                                   . ",
".                                                                                                                                                                                                                                                                                                                                                                                                                                                   . ",
".                                                                                                                                                                                                                                                                                                                                                                                                                                                   . ",
".                                                                                                                                                                                                                                                                                                                                                                                                                                                   . ",
".                                                                                                                                                                                                                                                                                                                                                                                                                                                   . ",
".                                                                                                                                                                                                                                                                                                                                                                                                                                                   . ",
".                                                                                                                                                                                                                                                                                                                                                                                                                                                   . ",
".                                                                                                                                                                                                                                                                                                                                                                                                                                                   . ",
".                                                                                                                                                                                                                                                                                                                                                                                                                                                   . ",
".                                                                                                                                                                                                                                                                                                                                                                                                                                                   . ",
".                                                                                                                                                                                                                                                                                                                                                                                                                                                   . ",
".                                                                                                                                                                                                                                                                                                                                                                                                                                                   . ",
".                                                                                                                                                                                                                                                                                                                                                                                                                                                   . ",
".                                                                                                                                                                                                                                                                                                                                                                                                                                                   . ",
".                                                                                                                                                                                                                                                                                                                                                                                                                                                   . ",
".                                                                                                                                                                                                                                                                                                                                                                                                                                                   . ",
".                                                                                                                                                                                                                                                                                                                                                                                                                                                   . ",
".                                                                                                                                                                                                                                                                                                                                                                                                                                                   . ",
".                                                                                                                                                                                                                                                                                                                                                                                                                                                   . ",
".                                                                                                                                                                                                                                                                                                                                                                                                                                                   . ",
".                                                                                                                                                                                                                                                                                                                                                                                                                                                   . ",
".                                                                                                                                                                                                                                                                                                                                                                                                                                                   . ",
".                                                                                                                                                                                                                                                                                                                                                                                                                                                   . ",
".                                                                                                                                                                                                                                                                                                                                                                                                                                                   . ",
".                                                                                                                                                                                                                                                                                                                                                                                                                                                   . ",
".                                                                                                                                                                                                                                                                                                                                                                                                                                                   . ",
".                                                                                                                                                                                                                                                                                                                                                                                                                                                   . ",
".                                                                                                                                                                                                                                                                                                                                                                                                                                                   . ",
".                                                                                                                                                                                                                                                                                                                                                                                                                                                   . ",
".                                                                                                                                                                                                                                                                                                                                                                                                                                                   . ",
".                                                                                                                                                                                                                                                                                                                                                                                                                                                   . ",
".                                                                                                                                                                                                                                                                                                                                                                                                                                                   . ",
".                                                                                                                                                                                                                                                                                                                                                                                                                                                   . ",
".                                                                                                                                                                                                                                                                                                                                                                                                                                                   . ",
".                                                                                                                                                                                                                                                                                                                                                                                                                                                   . ",
".                                                                                                                                                                                                                                                                                                                                                                                                                                                   . ",
".                                                                                                                                                                                                                                                                                                                                                                                                                                                   . ",
".                                                                                                                                                                                                                                                                                                                                                                                                                                                   . ",
".                                                                                                                                                                                                                                                                                                                                                                                                                                                   . ",
".                                                                                                                                                                                                                                                                                                                                                                                                                                                   . ",
".                                                                                                                             O 6 > % 5 w , * # # * , w 5 % < =                                                                                                                                                                                                                                                                                     . ",
".                                                                                                                   = > w # r + 3 2 i t t $ $ @ @ $ $ t t 2 0 3 : - w > O                                                                                                                                                                                                                                                                           . ",
".                                                                                                           = % , r 3 2 t @ U P ^ J V N B m h h h h m B N V A ' D ~ t 2 + X 8 =                                                                                                                                                                                                                                                                     . ",
".                                                                                                     6 5 4 + 2 $ U { S N h z z z c l l l h h h h h h l l c c z z l N J P @ i + * <                                                                                                                                                                                                                                                                 . ",
".                                                                                               = 5 4 3 i R E S m b b c l h h h h h h h h h h h h h h h h h h h h h l c b h S I 1 ; - <                                                                                                                                                                                                                                                             . ",
".                                                                                           > # 3 i R ' C c b c h h h h h h h h h h h h h h h h h h h h h h h h h h h h h h c b B ' $ ; * =                                                                                                                                                                                                                                                         . ",
".                                                                                     = 5 & 2 @ E C l z l h h h h h h h h h h h h h h h h h h h h h h h h h h h h h h h h h h h l z B { t : %                                                                                                                                                                                                                                                       . ",
".                                                                                 = , + i H A m b l h h h h h h h h h h h h h h h h h h h h h h h h h h h h h h h h h h h h h h h h l b C H 0 ,                                                                                                                                                                                                                                                     . ",
".                                                                             = , + t D V c c h h h h h h h h h h h h h h h h h h h h h h h h h h h h h h h h h h h h h h h h h h h h h c l E i # O                                                                                                                                                                                                                                                 . ",
".                                                                         O , + t I C z c h h h h h h h h h h h h h h h h h h h h h h h h h h h h h h h h h h h h h h h h h h h h h h h h h z A e - O                                                                                                                                                                                                                                               . ",
".                                                                       5 : e I C b l h h h h h h h h h h h h h h h h h h h h h h h h h h h h h h h h h h h h h h h h h h h h h h h h h h h h b A e #                                                                                                                                                                                                                                               . ",
".                                                                   < r 2 U V z l h h h h h h h h h h h h h h h h h h h h h h h h h h h h h h h h h h h h h h h h h h h h h h h h h h h h h h h b ^ i ,                                                                                                                                                                                                                                             . ",
".                                                                 , ; @ J c c h h h h h h h h h h h h h h h h h h h h h h h h h h h h h h h h h h h h h h h h h h h h h h h h h h h h h h h h h h z E 0 %                                                                                                                                                                                                                                           . ",
".                                                             6 4 i P m z h h h h h h h h h h h h h h h h h h h h h h h h h h h h h h h h h h h h h h h h h h h h h h h h h h h h h h h h h h h h h h U + 6                                                                                                                                                                                                                                         . ",
".                                                           > + $ J z l h h h h h h h h h h h h h h h h h h h h h h h h h h h h h h h h h h h h h h h h h h h h h h h h h h h h h h h h h h h h h h l N 1 -                                                                                                                                                                                                                                         . ",
".                                                         8 ; R N z h h h h h h h h h h h h h h h h h h h h h h h h h h h h h h h h h h h h h h h h h h h h h h h h h h h h h h h h h h h h h h h h h z | 2 %                                                                                                                                                                                                                                       . ",
".                                                       8 ; D m l h h h h h h h h h h h h h h h h h h h h h h h h h h h h h h h h h h h h h h h h h h h h h h h h h h h h h h h h h h h h h h h h h h h l R & O                                                                                                                                                                                                                                     . ",
".                                                     % ; D h l h h h h h h h h h h h h h h h h h h h h h h h h h h h h h h h h h h h h h h h h h h h h h h h h h h h h h h h h h h h h h h h h h h h h c S i 5                                                                                                                                                                                                                                     . ",
".                                                   < + H m l h h h h h h h h h h h h h h h h h h h h h h h h h h h h h h h h h h h h h h h h h h h h h h h h h h h h h h h h h h h h h h h h h h h h h h c U : O                                                                                                                                                                                                                                   . ",
".                                                 O r $ B l h h h h h h h h h h h h h h h h h h h h h h h h h h h h h h h h h h h h h h h h h h h h h h h h h h h h h h h h h h h h h h h h h h h h h h h c V i 5                                                                                                                                                                                                                                   . ",
".                                                 , i S c h h h h h h h h h h h h h h h h h h h h h h h h h h h h h h h h h h h h h h h h h h h h h h h h h h h h h h h h h h h h h h h h h h h h h h h h h z H &                                                                                                                                                                                                                                   . ",
".                                               < ; P b h h h h h h h h h h h h h h h h h h h h h h h h h h h h h h h h h h h h h h h h h h h h h h h h h h h h h h h h h h h h h h h h h h h h h h h h h h c J 2 %                                                                                                                                                                                                                                 . ",
".                                               - $ B l h h h h h h h h h h h h h h h h h h h h h h h h h h h h h h h h h h h h h h h h h h h h h h h h h h h h h h h h h h h h h h h h h h h h h h h h h h h h @ -                                                                                                                                                                                                                                 . ",
".                                             > 0 ^ z h h h h h h h h h h h h h h h h h h h h h h h h h h h h h h h h h h h h h h h h h h h h h h h h h h h h h h h h h h h h h h h h h h h h h h h h h h h h b { 3 6                                                                                                                                                                                                                               . ",
".                                             4 @ h h h h h h h h h h h h h h h h h h h h h h h h h h h h h h h h h h h h h h h h h h h h h h h h h h h h h h h h h h h h h h h h h h h h h h h h h h h h h h l C i 5                                                                                                                                                                                                                               . ",
".                                           < ; ^ z h h h h h h h h h h h h h h h h h h h h h h h h h h h h h h h h h h h h h h h h h h h h h h h h h h h h h h h h h h h h h h h h h h h h h h h h h h h h h h l R 4                                                                                                                                                                                                                               . ",
".                                           * 1 m l h h h h h h h h h h h h h h h h h h h h h h h h h h h h h h h h h h h h h h h h h h h h h h h h h h h h h h h h h h h h h h h h h h h h h h h h h h h h h h z ' 3 =                                                                                                                                                                                                                             . ",
".                                         O + I b h h h h h h h h h h h h h h h h h h h h h h h h h h h h h h h h h h h h h h h l h h h h h l c h h h h h h h h h h h h h h h h h h h h h h h h h h h h h h h h l C i 8                                                                                                                                                                                                                             . ",
".                                         % 2 S c h h h h h h h h h h h h h h h h h h h h h h h h h h h h h h h h h h h h h h B N c h h h l V A h h h h h h h h h h h h h h h h h h h h h h h h h h h h h h h h h l @ #                                                                                                                                                                                                                             . ",
".                                         # $ m h h h h h h h h h h h h h h h h h h h h h h h h h h h h h h h h h h h h h h l N D A c h h l N H P l h h h h h h h h h h h h h h h h h h h h h h h h h h h h h h h b I :                                                                                                                                                                                                                             . ",
".                                         : D b h h h h h h h h h h h h h h h h h h h h h h h h h h h h h h h h h h h h h h h c J @ V c h h z S $ V l h h h h h h h h h h h h h h h h h h h h h h h h h h h h h h z A ; 6                                                                                                                                                                                                                           . ",
".                                       < ; A z h h h h h h h h h h h h h h h h h h h h h h h h h h h h h h h h h h h h h h h h z H I z h h l B $ J c h h h h h h h h h h h h h h h h h h h h h h h l c b b z c c l C i 8                                                                                                                                                                                                                           . ",
".                                       8 i C l h h h h h h h h h h h h h h h h h h h h h h h h h h h h h h h h h h h h h h h h b U P z h h z A H B h h h h h h h h h h h h h h h h h h l c z z c m N S | I R R ^ l m $ & 6                                                                                                                                                                                                                         . ",
".                                       * $ h h h h h h h h h h h h h h h h h h h h h h h h h h h h h h h h h h h h h h h h h l N R V c h h c D D m l h h h h h h h h h h h l c z b b h N S | I R 1 ! W L k k k ! C z P t 3 - %                                                                                                                                                                                                                     . ",
".                                       r H z h h h h h h h h h h h h h h h h h h h h h h h h h h h h h h h h h h h h h h h h l N H ' l h h l C U H m h h h h h l c z b z h N S ^ I H $ ! W L k k k k k k k k k W S c h C { @ 2 & 8                                                                                                                                                                                                                 . ",
".                                       : I z h h h h h h h h h h h h h h h h h h h h h h h h h h h h h h h h h h h h h h h h h c S $ S c h h c N $ A b z z z h B V A P H $ / ] L k k k k k k k k k k k k k k k R m h h l b h J R 2 4 <                                                                                                                                                                                                             . ",
".                                     = 3 ' z h h h h h h h h h h h h h h h h h h h h h h h h h h h h h h h h h h h h h h h h h l l ~ { b h h h z R E C A P U $ / ] L k k k k k k k k k k k k k k L k k k k k k H h h h h h h c l J @ ; w                                                                                                                                                                                                           . ",
".                                     6 ; A c h h h h h h h h h h h h h h h h h h h h h h h h h h h h h h h h h h l c z b b z h B N @ | b h h l V $ ! ] W k k k k k k k k k k k k k L W ! K y 5.$.Z k k k k k k W A z h h h h h h c m P i # O                                                                                                                                                                                                       . ",
".                                     > 2 S c h h h h h h h h h h h h h h h h h h h h h h h h h h h l c z z b z h B C J ' I H @ / / / V l h h h ~ k k k k k k k k k k k L 9 Z Y O.<.=.%.1...v v %.W k k k k k k k E b h h h h h h h l z A e - O                                                                                                                                                                                                     . ",
".                                     > 2 V l h h h h h h h h h h h h h h h h h h h h l c z b b z h N V A { D R $ / ] W L k k k k k / B l h h h 1 k k k k k W T K x *.$.=.:.o...v v v v v v v v 2.k k k k k k k W J c h h h h h h h h h z J e #                                                                                                                                                                                                     . ",
".                                     % 2 C l h h h h h h h h h h h h h l c z b z l m C S A E D R 1 ! ] W L k k k k k k k k k k k k @ h l h h c | W T x 3.2.>.:.o...v v v v v v v v v v v v v v =.L k k k k L ! E h h h h h h h h h h h h z ^ 2 5                                                                                                                                                                                                   . ",
".                                     > i C l h h h h h h h h h z b c m C S | P U ~ 1 ! W L k k k k k k k k k k k k k k L L k k k k ] D m h h c A G %.v v v v v v v v v v v v v v v v v v v ..o.$.L k W / R ' N c h h h h h h h h h h h h h z D 3 6                                                                                                                                                                                                 . ",
".                                     % i C l h h h h h h h h B ' H @ / ] W L k k k k k k k k k k k k k k L W T Z Y O.5.<.Z k k k k k W ^ z h l H $.v v v v v v v v v v v v v v ....1.%.2.5.O.Y ) R P J N l z l h h h h h h h h h h h h h h l B $ #                                                                                                                                                                                                 . ",
".                                     > i C l h h h h h h h z I L k k k k k k k k k k k k k L W T K x *.<.=.>.:.o...v v <.k k k k k k L | z l z H $.v v v v v ......o.1.%.=.$.3.O.x ) ) H I ' S B z b z l h h h h h h h h h h h h h h h h h h z ' ; <                                                                                                                                                                                               . ",
".                                     > 2 V l h h h h h h h z ~ k k k k k k k L 9 Z K x 3.<.=.%.1.o...v v v v v v v v o.Z k k k k k k / N m C S D Z *.3.*.O.O.x Y G Z T 9 ] $ D | J C m c z z c l h h h h h h h h h h h h h h h h h h h h h h h B 1 *                                                                                                                                                                                               . ",
".                                     > 2 J c h h h h h h h z ' W L Z G O.3.$.=.%.1.....v v v v v v v v v v v v v v v :.9 k k k k k L ~ H ~ ) Y x G 9 } @.@.4.4.4.4.4.} K *.x ) D S z l h h h h h h h h h h h h h h h h h h h h h h h h h h h h b I + O                                                                                                                                                                                             . ",
".                                     < 0 A c h h h h h h h c S 1 $.o...v v v v v v v v v v v v v v v v v v v v v v ..%.9 k k W W T x 3.$.>.:.1.o.1.O.@.4.6.6.7.7.6.4.} >.M o.>.3.) I h h h h h h h h h h h h h h h h h h h h h h h h h h h h h c S 2 %                                                                                                                                                                                             . ",
".                                     < ; { z h h h h h h h z U <.v v v v v v v v v v v v v v v v v v v ..1.:.=.<.*.x ) / ~ I A @ 2.M M M M M M M M o.=.*.Y } } } } x >.M M M M M %.Y P c h h h h h h h h h h h h h h h h h h h h h h h h h h h h m $ *                                                                                                                                                                                             . ",
".                                     6 3 I z h h h h h h h c R 2.v v v v v v v v v ....o.1.:.>.=.$.3.O.x ) ) R U P ^ V B l b C ) :.M M M M M M M M M M M 1.:.%.3.*.M M M M M M M M >.) C l h h h h h h h h h h h h h h h h h h h h h h h h h h h z U r                                                                                                                                                                                             . ",
".                                     = + H z h h h h h h h z ' G 3.$.$.$.$.<.<.3.*.O.x Y ) ) ) R U I ' A V B l b b z l l h z { O.M M %.%.o.M M M M M M M M M M =.*.M M M M M M M M :.K S c h h h h h h h h h h h h h h h h h h h h h h h h h h h z E + =                                                                                                                                                                                           . ",
".                                     = & $ h h h h h h h h h h J I U U U U D I P { | A S C N m l z z z c l l h h h h h h h c H $.o.<.H U x *.$.>.:.o.M M M M M %.*.M M M M M M 1.=.x ! { b h h h h h h h h h h h h h h h h h h h h h h h h h h h c A ; 6                                                                                                                                                                                           . ",
".                                     = - e C l h h h h h h h h c b b z z b b b b b b z c l l h h h h h h h h h h h h h h l N ) $.O.D N m S E H ) ) x *.5.$.=.>.=.O.>.>.=.2.<.*.Y ) E { @ B l h h h h h h h h h h h h h h h h h h h h h h h h h h c S 2 >                                                                                                                                                                                           . ",
".                                     O # q A z h h h h h h h h h h h h h h h h h h h h h h h h h h h h h h h h h h h h h z A ] 1 ' l l h c b z m V A E D H ~ ~ ) $ ) ) ~ R U P J B b m ~ ' z h h h h h h h h h h h h h h h h h h h h h h h h h h l V 2 %                                                                                                                                                                                           . ",
".                                     O , 0 I b h h h h h h h h h h h h h h h h h h h h h h h h h h h h h h h h h h h h h b D $ S z h h h h h h h c z z z c h m B B B B m h c b c l h z ' ~ m h h h h h h h h h h h h h h h h h h h c c h h h h h l V 2 %                                                                                                                                                                                           . ",
".                                       5 + ~ h h h h h h h h h h h h h h h h h h h h h h h h h h h h h h h h h h h h h h m ~ ^ b h h h h h h h h h h h h h h h h h h h h h h h h h h l B ~ ^ z h h h h h h h h h h h h h h h h h h J V z l h h h c V 2 %                                                                                                                                                                                           . ",
".                                       8 & e C l h h h h h h h h h h h h h h h h h h h h h h h h h h h h h h h h h h h c S @ N l h h h h h h h h h h h h h h h h h h h h h h h h h h h z ' R m h h h h h h h h h h h h h h h h c S ] ] E m c h h c S 2 >                                                                                                                                                                                           . ",
".                                       > - q | z h h h h h h h h h h h h h h h h h h h h h h h h h h h h h h h h h h h z P U z h h h h h h h h h h h h h h h h h h h h h h h h h h h h l B ~ ^ z h h h h h h h h h h h h h h h l B U W L ~ S z l c A ; <                                                                                                                                                                                           . ",
".                                       6 # 3 H z h h h h h h l z h h h h h h h h h h h h h h h h h h h h h h h h h h h l H ' z h h h h h h h h h h h h h h h h h h h h h h h h h h h h h z ' H h h h h h h h h h h h h h h h h h l c A 1 k ] P m b E ; 6                                                                                                                                                                                           . ",
".                                       = , & e C l h h h h c V | m h h h h h h h h h h h h h h h h h h h h h h h h h l C ~ V l h h h h h h h h h h h h h h h h h h h h h h h h h h h h h l B R A c h h h h h h h h h h h h h h h h h c B D ] L @ V U + 6                                                                                                                                                                                           . ",
".                                         w - q E z h h h c V 1 W J c h h h h h h h h h h h h h h h h h h h h h h h h z ^ H h h h h h h h h h h h h h l l h l l h l h h h h h h h h h h h h z ' U h h h h h h h h h h h h h h h h h h h l z J $ L ! ! & 6                                                                                                                                                                                           . ",
".                                         % o + $ m h h z V / k @ N l h h h h h h h h h h h h h h h h h h h h h h h h z D E b h h h h h h h h h h h l V C c B N h C h h h h h h h h h h h h l B R J c h h h h h h h h h h h h h h h h h h h c m P ] d - =                                                                                                                                                                                           . ",
".                                         6 # 4 p A z z V / k @ N l h h h h h h h h h h h h h h h h h h h h h h h h h B R V c h h h h h h h h h h h c J D h V D h E J c h h h h h h h h h h h z ' D l h h h h h h h h h h h h h h h h h h h h l b D 0 * =                                                                                                                                                                                           . ",
".                                         O , X 3 ~ c S / k @ N c h h h h h h h h h h h h h h h h h h h h h h h h h c J H m h h h h h h h h h h h h l B ~ V m R S E D z h h h h h h h h h h h l B H S c h h h h h h h l z l h h h h h h h h h l N 1 : , O                                                                                                                                                                                           . ",
".                                           8 o r p E / k @ N c h h h h h h h h h h h h h h h h h h h h h h h h h h z { P z h h h h h h h h h h h h h m R S c R A E D z h h h h h h h h h h h h z | I c h h h h h h c J I N c h h h h h h h h b E q 4 w                                                                                                                                                                                             . ",
".                                           < # X 3 W k @ N c h h h h h h h h m m l h h h h h h h h h h h h h h h h l D J c h h h h h h h h h h h h l C D m N R V I ^ c h h h h h h h h h h h h l B D V c m m h h h b P L $ V z h h h h h h l N t : o 8                                                                                                                                                                                             . ",
".                                             , X 4 d 1 N c h h h h h h h h h U @ C l h h h h h h h h h h h h h h l C D m h h h h h h h h h h h h h l C C z S E h S m h h h h h h h h h h h h h h z ^ P z V A c h h h m D W / J z h h h h h l U 0 - o >                                                                                                                                                                                             . ",
".                                             % o o + 1 N l h h h h h h h z { L ] V c h h h h h h h h h h h h h h c A E z h h h h h h h h h h h h h h l l h m m h l h h h h h h h h h h h h h h h c B A c | D c h h h l c P W ] | z h h h z { p r X * =                                                                                                                                                                                             . ",
".                                             = * X - 0 D c h h h h h h c S ! L P z h h h h h h h h h h h l V C l l P J c h h h h h h h h h h h h h h h h h h h h h h h h h h h h h h h h h h l V S l b b H I z h h h h h c | ] W P h l z A e : o X w                                                                                                                                                                                               . ",
".                                               8 o o : 9 | z h h h h l m @ k ~ m h h h h h h h l z l h h c J P l m | N l h m h h h h h h h h h h h h h h h h h h h h h h h h h h h h h h h h l B P U E U $ V c h h h h h h z J / L D m A e + X X # >                                                                                                                                                                                               . ",
".                                               = * o & 9 1 S c h h h z P L ! V c h h h h h h l C ^ N l h l N @ A b l b N | N l h h h h h h h h h h h h h h h h h h h h h h h h h h h h h h h h l m ' H U S c h h h h h h h h c V 1 L $ e + X X X , O                                                                                                                                                                                               . ",
".                                                 8 o & t U @ C z h z J ] L ' z h h h h h h h c H W E b h h c E 1 P J ' ~ ' l h h h h h h h h h h h h h h h h h h h h h h h h h h h h h h h h h h h z c c c h h h h h h h h h h b V ! d : X X X # >                                                                                                                                                                                                 . ",
".                                                 = , & t C U ~ C z B $ k H l h h h h h h h c J W W J c h h h c ' ~ $ @ { h h h h h h h h h h h h h h h h h h h h h h h h h h h h h h h h h h h h h h h h h h h h h h h h h l z J @ q & o X X X w O                                                                                                                                                                                                 . ",
".                                                   > r e C m U $ S D L / C l h h h h h h h h @ k H c h h h h h c h N m c h h h h h h h h h h h h h h h h h h h h h h h h h h h h h h h h h h h h h h h h h h h h h h h l b N D e 3 4 o X X X * 6                                                                                                                                                                                                   . ",
".                                                     * i S z m I / W W ^ z h h h h h h h z | L ] V c h h h h h h h l h h h h h h h h h h h h h h h h h h h h h h h h h h h h h h h h h h h h h h h h h h h h h h h c z N P t 0 & X o X X X * <                                                                                                                                                                                                     . ",
".                                                     % q A c l c | ! / C z l h h h h h l B 1 k D z h h h h h h h h h h h h h h h h h h h h h h h h h h h h h h h h h h h h h h h h h h h h h h h h h h h h h l z z C I t q : - o X X X X # >                                                                                                                                                                                                       . ",
".                                                     > ; E z h h z V H 1 P B b l h h h b P L ! C l h h h h h h h h h h h h h h h h h h h h h h h h h h h h h h h h h h h h h h h h h h h h h h h h h h l z b B ^ H e 0 : - o X X X X X * >                                                                                                                                                                                                         . ",
".                                                     < 3 D b h h h c h | @ @ { B z c l C / k I z h h h h h h h h h h h h h h h h h h h h h h h h h h h h h h h h h h h h h h h h h h h h h h h l c z l N A D t q 3 & - o o X X X X X * <                                                                                                                                                                                                           . ",
".                                                     6 : @ l h h h h h z B { @ $ I V b D k / N l h h h h h h h h h l z b c h h h h h h h h h h h h h h h h h h h h h h h h h h h h h l c z b z B S E R t q ; : 4 o o X X X X X X o w 6                                                                                                                                                                                                             . ",
".                                                     6 4 e C l h h h h h l z B | R 1 R ] L E b c h h h h h h h h c C { I A m l h h h h h h h h h h h h h h h h h h h l l c z b b z h N S ^ I R t i 0 3 & 4 X o o X X X X X X X * 8 O                                                                                                                                                                                                               . ",
".                                                     = # q | z h h h h h h h l z l S I 1 ] ~ E S B c z z c l h c V ) 7 O.G R C l h h h h h h h h h h h c z z c l h m B C V A ' I U @ t i q ; + & 4 - o o o X X X X X X X X # 5 6                                                                                                                                                                                                                   . ",
".                                                     O , 3 H c h h h h h h h h h h c z m S I ~ 1 $ H P ^ V B h m ~ ;.j n ( X.U b b z c l h h h h h h c ^ U U H R ~ 1 t e i q 0 ; 3 + & r - X o o o X X X X X X X X X X # w <                                                                                                                                                                                                                       . ",
".                                                     O w & e C c h h h h h h h h h h h h c b h C A U 9 p i t $ $ 7 Q F j n &.Z R I ' J C m c b b z c l ) X.[ [ [ #.y d & 4 4 - X o o o o X X X X X X X X X X X X o * 5 < O                                                                                                                                                                                                                         . ",
".                                                       5 - 0 I b h h h h h h h h h h h h h h h b V 1 ; 4 r & + d #.n j j n -._ } } _ Z Z $ R D ' J C A / [ Q ` ` ` ( y ; - o X X X X X X X X X X X X X X X o # , % 6                                                                                                                                                                                                                               . ",
".                                                       % o : e C c h h h h h h h h h h h h l z ^ e 3 - o o o + 7 Q j j n ( ;.9 _ _ } @.@.@.@.} _ ] ! 1 @ ) G ;.( F F ( 7 ; - o X X X X X X X X X X X o # , 8 < O                                                                                                                                                                                                                                   . ",
".                                                       6 # - ; H l h h h h h h h h h h h z B I p + X o X o - q #.` j F #.Y ~ P ' E D @ Z _ @.@._ 9 I C h B J R 7 +.F n +.u + X X X X X X X X o # , 5 % 6 O                                                                                                                                                                                                                                         . ",
".                                                       O , X r p P z h h h h h h h h c z J @ q & o X X X o : u ( F F [ 1 ' h b z b b h C P ] 9 } T / A c h c h D y Q j n &.Z : o o o # * w 5 % < O                                                                                                                                                                                                                                                 . ",
".                                                         8 X o & p P l c h h h l z z V U e 3 4 o X X X X X ;  .n n #.1 J b h h h h h z A 1 } s } _ } Z ^ z l b C 1 [ ` n n #.q * % > 6 =                                                                                                                                                                                                                                                           . ",
".                                                         < # X o & p H S m h m N A U e ; & X o X X X o , - a -.n +.G | A { c B B l m I ! @.s _ _ s s _ / C m P 1 K K ;.&.Q F ;.+ 6                                                                                                                                                                                                                                                                 . ",
".                                                         O w X X o r ; i 1 @ $ e q 3 & - o X X X X o 5 O # 7 j n  .R V 1 | h H | c H T s @.T } s s _ _ _ ~ ~ 9 7 ( &.;.y -.n ( u -                                                                                                                                                                                                                                                                 . ",
".                                                           < # X X o X r : + : & 4 X o X X X X X # %   O + [ ` Q 7 A D H b ' $ N | Z _ _ T @.s @.T } s } 9 } _ [ ` n n Q Q j n &.0 >                                                                                                                                                                                                                                                               . ",
".                                                             5 X X X X o o o o o o X X X X X X * >     % 2 -.n +.G J $ J m @ E B ) [ -.y _ s } _ @.s _ L _ @.} -.F j j F j j j j 7 #                                                                                                                                                                                                                                                               . ",
".                                                             6 , X X X X X X X X X X X X X o w 6       * 7 Q F Q y 1 1 h A $ m I y j n j y 9 } s @.T } @._ W X.F j j j j j j j n X.4                                                                                                                                                                                                                                                               . ",
".                                                               < * X X X X X X X X X X X * % O         & ;.` j F +.[ K P @ 1 | K &.n j n #._ s } _ _ _ @.@.K +.` F F j j j j n Q u *                                                                                                                                                                                                                                                               . ",
".                                                                 < , o X X X X X X X * 5 6           6 ; &.n j j n -.K u X.y Y [ F j j n +._ _ y +.+.[ 7 T Z  .&.+.Q j F F j +.X.+ 6                                                                                                                                                                                                                                                               . ",
".                                                                   = 8 * # o # * , 8 6               8 a +.F j F #.u [ Q n j Q F j j n Q ;.K [ j F F n j [ d ; q a u 7 y O.7 a ; ,                                                                                                                                                                                                                                                                 . ",
".                                                                   O   = < > < 6 O                   * 7 j j j F &.&.n F j j F j F n &.y y -.n j j j j n &.q - - r & + + + + & - * 6                                                                                                                                                                                                                                                               . ",
".                                                                                                     r X.n j j j F F j j j j j n Q  .u  .Q n j j j j j F &.2 4 o o o o o o o o X o %                                                                                                                                                                                                                                                               . ",
".                                                                                                   O : [ n j j j j j j j j F n &.y y &.n F j j j j j j F &.2 4 o X X X X X X X X X 8                                                                                                                                                                                                                                                               . ",
".                                                                                                     + [ ` j j j j j j j n (  .u  .Q n j j j j j j j j F -.a 4 o X X X X X X X X # >                                                                                                                                                                                                                                                               . ",
".                                                                                                     - 7 Q F j j j j n j #.K u -.n F j j j j j j j j j F -.a 4 X X X X X X X X X w O                                                                                                                                                                                                                                                               . ",
".                                                                                                     % 0 X.( ` n ` j &.y q d  .` j j j j j j j j j j j F -.a , w * # # o o o * 5 =                                                                                                                                                                                                                                                                 . ",
".                                                                                                     % r 0 u  .#.[ y p 3 r ;  .n j j j j j j j j j j j n -.a 8   = 6 > > > > 6                                                                                                                                                                                                                                                                     . ",
".                                                                                                     5 X - : ; 0 0 + r X X ;  .F j j j j j j j j j j j F +.a 8                                                                                                                                                                                                                                                                                     . ",
".                                                                                                     w X o o X - X o o X X ;  .F j j j j j j j j j j j F +.a 5                                                                                                                                                                                                                                                                                     . ",
".                                                                                                     w X X X X X X X X X X ;  .F j j j j j j j j j j j F +.a 5                                                                                                                                                                                                                                                                                     . ",
".                                                                                                     % o X X X X X X X X X ; ;.F j j j j j j j j j j j F ( a w                                                                                                                                                                                                                                                                                     . ",
".                                                                                                     = w X X X X X X X o , + ;.F j j j j j j j j j j j F ( u ,                                                                                                                                                                                                                                                                                     . ",
".                                                                                                       = w # X X X o * % = : ;.F j j j j j j j j j j j j ( u ,                                                                                                                                                                                                                                                                                     . ",
".                                                                                                         O < 8 w 5 % =     : X.F j j j j j j j j j j j j ( u *                                                                                                                                                                                                                                                                                     . ",
".                                                                                                                           & X.F j j j j j j j j j j j j Q u #                                                                                                                                                                                                                                                                                     . ",
".                                                                                                                           & X.F j j j j j j j j j j j j Q u #                                                                                                                                                                                                                                                                                     . ",
".                                                                                                                           & X.F j j j j j j j j j j j j Q u -                                                                                                                                                                                                                                                                                     . ",
".                                                                                                                           & X.F j j j j j j j j j j j j Q u 4                                                                                                                                                                                                                                                                                     . ",
".                                                                                                                           & X.F j j j j j j j j j j j j Q 7 4                                                                                                                                                                                                                                                                                     . ",
".                                                                                                                           & X.F j j j j j j j j j j j j j 7 r                                                                                                                                                                                                                                                                                     . ",
".                                                                                                                           & X.F j j j j j j j j j j j j j 7 : =                                                                                                                                                                                                                                                                                   . ",
".                                                                                                                       8 4 q ;.F j j j j j j j j j j j j F [ a + w                                                                                                                                                                                                                                                                                 . ",
".                                                                                                                     , 2 y [ +.F j j j j j j j j j j j j j j +. .a *                                                                                                                                                                                                                                                                               . ",
".                                                                                                                   8 2 #.F ` F j j j j j j j F F F F F F F F F ` #.0 %                                                                                                                                                                                                                                                                             . ",
".                                                                                                                   4 O.j j Q Q Q Q Q Q Q ( ( ( ( ( ( ( ( ( ( ( ( +.7 #                                                                                                                                                                                                                                                                             . ",
".                                                                                                                 = + K 7 7 7 7 7 7 u u u 7 7 7 7 7 7 7 7 K K K K K T &                                                                                                                                                                                                                                                                             . ",
".                                                                                                                 = ; Z G G G K G G G G Z G >.:.:.:.:.1.>.Z K Y Y Y Z &                                                                                                                                                                                                                                                                             . ",
".                                                                                                                 O + K x x x x x x x x x Z O.%.o...o.=.Y Z x x x x ! -                                                                                                                                                                                                                                                                             . ",
".                                                                                                                   - T x x x x x x x x x Y 9 Z G G K 9 K x x x x G p 8                                                                                                                                                                                                                                                                             . ",
".                                                                                                                   5 d Z Y x x x x x x x K ! x Y G G T x x x x G 9 : 6                                                                                                                                                                                                                                                                             . ",
".                                                                                                                 6 : $ ~ T Z G Y Y x x Y T G x x x G T G G K T d + X 8                                                                                                                                                                                                                                                                             . ",
".                                                                                                               < : $ N N e 0 L 9 9 T T 9 L 9 T T T 9 L W d 3 : 4 o X 5                                                                                                                                                                                                                                                                             . ",
".                                                                                                             % + @ C b { 0 + 9 Z Z Z Z Z 9 9 Z Z Z Z Z 9 3 o o o X X 5                                                                                                                                                                                                                                                                             . ",
".                                                                                                         O * 0 U B c m $ + 3 T K K K K K 9 T K K K K K 9 + o X X X o %                                                                                                                                                                                                                                                                             . ",
".                                                                                                       % & e { h l z | q 4 ; Z x x Y Y Y T K Y Y Y Y Y 9 : o X X X * 6                                                                                                                                                                                                                                                                             . ",
".                                                                                                   = * 0 R V z h l m $ + - q G x x x x Y T Y x x x x Y p & X X X # %                                                                                                                                                                                                                                                                               . ",
".                                                                                                 % : t ' h c h h z P q 4 r p Y x x x x G T Y x x x x Y p r o # , >                                                                                                                                                                                                                                                                                 . ",
".                                                                                               5 ; R C z h h h c V e : o & p Y x x x x K T x x x x x G q # 8 < O                                                                                                                                                                                                                                                                                   . ",
".                                                                                             5 0 I h c h h h l B @ 3 X o : T x x x x x Z Z x x x x x K 0 5                                                                                                                                                                                                                                                                                         . ",
".                                                                                           6 3 D z l h h h l h U q 4 o o : Z x x x x x Z Z x x x x x Z 3 %                                                                                                                                                                                                                                                                                         . ",
".                                                                                           , t N l h h h c m D q r o X * + K x x x x x T K x x x x x Z + >                                                                                                                                                                                                                                                                                         . ",
".                                                                                           - R c h h l z C R q r o X o 8 3 G x x x x Y T G x x x x x T & <                                                                                                                                                                                                                                                                                         . ",
".                                                                                           * $ B z c C E t ; 4 o X X , % 0 Y x x x x Y T Y x x x x Y p 4 6                                                                                                                                                                                                                                                                                         . ",
".                                                                                           > 3 1 R @ e q : - o X X # < 5 p Y x x x x G T Y x x x x Y p # O                                                                                                                                                                                                                                                                                         . ",
".                                                                                             8 : + + & - o X X X o 8   * ! x x x x x K ! x x x x x G q , O                                                                                                                                                                                                                                                                                         . ",
".                                                                                           = , o o o o X X X X X w O   r Z x x x x x Z Z x x x x x K 0 5                                                                                                                                                                                                                                                                                           . ",
".                                                                                           > o X X X X X X X X , =   O : K x x x x x ! K x x x x x Z 3 8                                                                                                                                                                                                                                                                                           . ",
".                                                                                           8 o X X X X X X o w 6     6 3 G x x x x Y T G x x x x x Z + >                                                                                                                                                                                                                                                                                           . ",
".                                                                                           > o X X X X X # 5 =       > q T Z Z Z Z Z W T Z Z Z Z Z 9 & <                                                                                                                                                                                                                                                                                           . ",
".                                                                                           = w # o o * w <           5 a ;. .[  .[ X.Z ;. . . . .;.p 4 6                                                                                                                                                                                                                                                                                           . ",
".                                                                                             O < > > 6               * y Q n n n ` #.y Q n F F n +.a # =                                                                                                                                                                                                                                                                                           . ",
".                                                                                                                     - X.j j j j F  .X.j j j j F &.2 * O                                                                                                                                                                                                                                                                                           . ",
".                                                                                                                   O : [ F j j j j X. .F j j j F #.0 w                                                                                                                                                                                                                                                                                             . ",
".                                                                                                                   6 3 #.F j j j Q y [ F j j j F  .3 8                                                                                                                                                                                                                                                                                             . ",
".                                                                                                                   > 0 -.F j j F ( 7 &.F j j j j X.+ >                                                                                                                                                                                                                                                                                             . ",
".                                                                                                                   8 a ( F F F n -.7 -.n F F F Q 7 & <                                                                                                                                                                                                                                                                                             . ",
". . . . . . . . . . . . . . . . . . . . . . . . . . . . . . . . . . . . . . . . . . . . . . . . . . . . . . . . . . g s ,.,.,.,.,.,.s ,.,.,.,.,.,.s f . . . . . . . . . . . . . . . . . . . . . . . . . . . . . . . . . . . . . . . . . . . . . . . . . . . . . . . . . . . . . . . . . . . . . . . . . . . . . . . . . . . . . . . . . . . . . . . . . . . . . . . . . . . . . . . . . . . . . . . . . . . . . . . . . . . . . . . . . . . . . . . . "
};
