/* XPM */
static char *_cca87015b2b4e74b2f42b19e651181a4uAsXZZ3zXUaPkj7[] = {
/* columns rows colors chars-per-pixel */
"64 64 246 2 ",
"   c #151F31",
".  c #252B35",
"X  c #2D333A",
"o  c #34373C",
"O  c #3B413F",
"+  c #2E3544",
"@  c #373B46",
"#  c #413E45",
"$  c #3C4147",
"%  c #3C424C",
"&  c #3E4751",
"*  c #42444B",
"=  c #454648",
"-  c #4C4C4C",
";  c #53504E",
":  c #454B54",
">  c #4A4D52",
",  c #4D5158",
"<  c #565757",
"1  c #53555B",
"2  c #5B5C5C",
"3  c #655B5C",
"4  c #615D5C",
"5  c #5C605D",
"6  c #66635C",
"7  c #766C5A",
"8  c #4E5666",
"9  c #585C65",
"0  c #625D63",
"q  c #5E6163",
"w  c #5D636B",
"e  c #5E6675",
"r  c #646564",
"t  c #6B6A65",
"y  c #63666B",
"u  c #686669",
"i  c #6B6A6D",
"p  c #726D65",
"a  c #776668",
"s  c #746B6D",
"d  c #7C6B6D",
"f  c #78726C",
"g  c #676875",
"h  c #646A74",
"j  c #6B6B74",
"k  c #6C6D79",
"l  c #746C74",
"z  c #7A6D74",
"x  c #776F7A",
"c  c #627071",
"v  c #6D7274",
"b  c #6D727C",
"n  c #737374",
"m  c #7C7275",
"M  c #787A74",
"N  c #74737B",
"B  c #7C737B",
"V  c #747A7D",
"C  c #7B7B7D",
"Z  c #966554",
"A  c #876B66",
"S  c #836D6D",
"D  c #8A6D6C",
"F  c #966D66",
"G  c #84746B",
"H  c #8D716E",
"J  c #94736D",
"K  c #9D7669",
"L  c #9A746C",
"P  c #836E71",
"I  c #896F72",
"U  c #847274",
"Y  c #8B7474",
"T  c #8A7A75",
"R  c #83757B",
"E  c #8B757A",
"W  c #847A7D",
"Q  c #8C7A7C",
"!  c #937573",
"~  c #9A7673",
"^  c #947A75",
"/  c #9C7A73",
"(  c #927678",
")  c #937C7B",
"_  c #9B7D7B",
"`  c #A57668",
"'  c #A2756C",
"]  c #A47A6D",
"[  c #AB7C6D",
"{  c #B17D6C",
"}  c #A37C73",
"|  c #AB7D73",
" . c #A37D78",
".. c #7D817D",
"X. c #92836E",
"o. c #86847B",
"O. c #96877B",
"+. c #9C817D",
"@. c #A98477",
"#. c #A3827B",
"$. c #AB847B",
"%. c #B48579",
"&. c #A69A7E",
"*. c #6D7382",
"=. c #6E768A",
"-. c #747583",
";. c #7C7582",
":. c #757A84",
">. c #7B7B84",
",. c #747689",
"<. c #757C8B",
"1. c #74798C",
"2. c #7C7D8A",
"3. c #837C83",
"4. c #867985",
"5. c #8B7D83",
"6. c #827D8A",
"7. c #937D82",
"8. c #997F82",
"9. c #7B8285",
"0. c #7C828C",
"q. c #7C8493",
"w. c #7C8597",
"e. c #7E8AA0",
"r. c #838384",
"t. c #8B8A85",
"y. c #83838B",
"u. c #8B838B",
"i. c #888688",
"p. c #8C8B8C",
"a. c #938384",
"s. c #9A8483",
"d. c #988984",
"f. c #92858B",
"g. c #938A8C",
"h. c #9A8B8C",
"j. c #8E918D",
"k. c #93938C",
"l. c #9A9489",
"z. c #838592",
"x. c #848B94",
"c. c #8B8C94",
"v. c #878998",
"b. c #8B8C99",
"n. c #938C93",
"m. c #988C94",
"M. c #8C9294",
"N. c #87919D",
"B. c #8C939C",
"V. c #949393",
"C. c #9C9494",
"Z. c #9A9897",
"A. c #93949A",
"S. c #959A9E",
"D. c #9C9C9B",
"F. c #A48583",
"G. c #A78A85",
"H. c #B48C84",
"J. c #A7948A",
"K. c #B49689",
"L. c #AD9496",
"P. c #A49A97",
"I. c #9DA19B",
"U. c #A8A498",
"Y. c #B4AD95",
"T. c #B4A79A",
"R. c #8D97A5",
"E. c #9395A2",
"W. c #959CA4",
"Q. c #9B9CA3",
"!. c #969AA8",
"~. c #919BAE",
"^. c #9B9DAA",
"/. c #A59CA3",
"(. c #9DA2A3",
"). c #98A1A9",
"_. c #9CA4AB",
"`. c #9DA6B4",
"'. c #A2A3A4",
"]. c #A9A5A5",
"[. c #ACACA4",
"{. c #A3A5AA",
"}. c #A4AAAE",
"|. c #AAABAB",
" X c #B6A9A5",
".X c #ACB2AE",
"XX c #B6B5A8",
"oX c #A4ABB3",
"OX c #A7ABB7",
"+X c #B4AEB4",
"@X c #ADB2B4",
"#X c #A8B2B8",
"$X c #ACB4BB",
"%X c #B4B4B2",
"&X c #B7B9B7",
"*X c #B4BABC",
"=X c #BBBDBB",
"-X c #C3AF9C",
";X c #C4BCA9",
":X c #C1B2B2",
">X c #BEC1BA",
",X c #CBC5B3",
"<X c #CEC9B2",
"1X c #C3C3BC",
"2X c #CAC8BB",
"3X c #D2CDBA",
"4X c #ACB5C4",
"5X c #A9B4C9",
"6X c #ABB7C8",
"7X c #B4BCC3",
"8X c #B7B9C4",
"9X c #B4BDCA",
"0X c #C0BFC4",
"qX c #BBC2C4",
"wX c #B8C2C9",
"eX c #BBC3CC",
"rX c #BCC7D2",
"tX c #C6C8C6",
"yX c #C5CBCC",
"uX c #CACDCB",
"iX c #CFD1CA",
"pX c #DAD5C4",
"aX c #D7D5CA",
"sX c #C4CCD4",
"dX c #C7CDD5",
"fX c #CBD2D4",
"gX c #CBD5DC",
"hX c #CCD4DC",
"jX c #D3D6D4",
"kX c #D6D9D8",
"lX c #D3DADC",
"zX c #E2DBCB",
"xX c #E3DFD2",
"cX c #E5E0CD",
"vX c #E7E2D4",
"bX c #CDD8E2",
"nX c #D4DCE2",
"mX c #D8DEE6",
"MX c #D6E0E7",
"NX c #DEE1E2",
"BX c #DCE2E4",
"VX c #DCE4EB",
"CX c #EAEBE6",
"ZX c #E3EAEC",
"AX c #E9EFEE",
"SX c #EBF2F5",
/* pixels */
"2 9 v n V r.c.i tX= o * + * > , q &.&.#.] { L } } $.) _ J Y A.j.eXk.oX;.k B P 5.Y ;X|.pXW.;.T U ) 5.!.3.. j d 0 r.0.*X%XxXC : B.",
"Q Y ) 7.n.E._.i lX).E.B.z.c.oXOX6.;.R +.} L Y a ; t M.y * XXp f r - < @ # , < f f.aX%XU..Xn.s B n.c.b.B u 0 u u B a D ( R |.$.! ",
"[ _ / $.$._ p.q  X8XR ^ @./ Y _ P ( S Y J s.8.{.$XeX9X4XbX5XR.~.4X9XOXOX5X4X9X;Xp.t.k.iXP.C.<X3XzXpXXXXXR 1 3 j a a L F _ @.] [ ",
"| ] ! / A G.Q.t hXhXQ T Y ^ U T d ~ } ! 3 4 s 7X9XdX,.2.r.N j I Y g B 0.:.2.c.i.'.@XC.kXU.A.N.2.v.2.q.x d a a t D I K ] [ ` ' | ",
"` | f _ T U y M dX%X-.g g l U R k U ( _ V.P.g.>.fXwX@X=X5.C.s l l a.S 5.B m g :.|.[.k.j.p.i.}.G.) ) ! L ].+XA I ! H  .[ ` K L [ ",
"j - [.9 * y t f u uX9 e c.b 9 0., 2 : 5.m f.E 0.S.fXv.:.N %Xo.P.! a d s !.j ,.6.2XxXuXzXzXpXD.aXs.Y R d 1 +X~ E S ! Y i r - q 1 ",
", VXnXhXoXlXrXdXnXeXdXdXVXMXmXgXBXo lXY.o.d.2 N < q :.c.C : % g S.W.x.0.2.b y.Q /.N 5.$.4.P.J.F.J.E S , . A.U i.p.3.Q mXnXBX*XoX",
"% ,.*.z.y.N k z 3.<.-.<.,.:.2.z.@X5 v.v.,.q.#Xv lX&Xw V :..Xc.k = t &Xn n n o.;.B U L $.A ^ K.} [.D.O.XXgXAXZXSXZXE.|.u.z.4.2.N.",
"M.b.&X+XN s z i R z 7.u.5.R ,.*.XXV.k B U W '.fXtXy.A.XX0.z.x.rXU.BXkXmX_.#XoXV.W I B K | ^ } ^ R ;.c.6.Q.4X$XOXb.Q 4.x 4.5.z >.",
"D.<.v.l l 3.#.U.+.Y Y C *.k <.=._.9.q.y.z k.%X1X'.t.1XCX1X%X'.x.o.}.B l z W Q ) f.3.Z / H.K.F./ Y H F  X) E m.I ' D U z B m B ;.",
"@ .XA.-.j ^.:.>.m B ;.6.*.g b e rX@Xb w.z N E R A.D.c.iX%Xt.i.S.XX0.z u s u.f.U.,X;X;X;X-X;XJ.^ ( Y ^ h.( F.8.[ { [ j g N '.g {.",
".Xt.qX;XeX&XqX5 r 6 6 6 < 2 6 r @ p 7 f O.o.O.7 o.Q.{.XXy k y. X[.B.B s C 3.!.:.}.^.^.Q.E.^._.{.{.b R 5.7.s.OXs.! U C.l.XXU.y i ",
"}.|.).jXq.!.!.>.i *XyXnXW.W.}.VX:.qXW.oX_.{._.1X|.3XpXpXzXXX9 j.U.oXn.P.t.o.g.) ^ S D S Y D S ~ $.G.4 p < ; - - n ) N 3.B E.v ).",
"y.XX[.U.pXr.b M 9.oX2.N W u.c.eX9X`.w :.`.k -.N N D.E.'.S.{.E -XT.].&X*XtX&XtXd.T Y F F F L ~ F F.O._.^.yXrX).r.f.7.R U z 5.Q.&X",
"c.V.D.jX=Xa.|.[.V oXR s s B A.*X5Xx.y 2.N y.m -.p.s U ) K.) K.#.H.H.c.5.R E d S m m @.H L } / / H Y U B E.9Xg :.Q R R Y s.Y u.w ",
"`.B.|.U.p.6.^.l.V.<.z d U g.E.B v.k g g N y y R.v.; S K K D @.H.} #./ L L F F F a.r.Y ' H ^ ^  .~ S U U +.f.[.,.g.z l 5.r._ s.-.",
"Z.XXaX,XXX.Xq k.M ^.s l >.3.n.z G p B.>.4 b g g c.- 2.p O.;Xd./ F F F F K F F F U g.B S J ! F / L } ~ z ) P.tX&X2.B E W y.W / f.",
"N 8XjXuXuXaX[.aX,XP.cXzXvXvXvXo.;X,XpXpX,X,XcXxX;X= =XpXpX3X,X<X;XY.J.&.&.O.X.G O.U.T 3 r t.^ I W C.C.s.a.wXv [.V.jXV.w j.M.x.;.",
"S.W s.K.s.A.K.K.K.> N.n.4.R l B B -.T.G.5.k ,.-.N z R ].,X[.P.f.N N.iXQ.Z.{.|.A.z.7Xp.%XhXW.. SXAXnXZXdX$Xb #XM.y.x.C g c.W.n tX",
"Q.Y _ L A Y L K ^ J Q E Y ) H _ S U _ Y ) U Y ( _ L / S u.j ;.z S m T.U S.N 3.U R B o.f.5.gXW.8XQ.6. XL.+X| ! Y E a.Q g.E.).i tX",
"^.W E Y E Y ( #.D ! 7.a.R P A L S _ _ s.C.P.+.#.~ #.K _ ) F.O.D H z g.g yXj s u.E g.n s.G.0XoXV.+./ %.[ %.} [ ] +. .$.$.F.n.r  X",
"hXQ T U H H ~ } R 5.W h.E z D Y E 2...L.l.J.#.#.#._ / ' ' ` +.d.P P jX2.:.W.N C B ).9 Y U c.n.F.[ } } ] ] ` %.%.K / / J F.OXp NX",
"1X,.g k g 2 q n 1 > = (.c.3.3.z @XeXjX* k , y.% $X=XtXQ.A.b.n O.P.Y z o.: 9 Q.r.4 @ , R T.dXc.#./ L [ [ K ] [ [ } m _ H m i o.hX",
"V.: & j 1 j /.u.$X*XfX|.y k.iX=X#XW.rX_.S.q.7XS.*XV }.|.oXnXhX1X2X,XuXeXnXX - * $ - 4 2 1 j : + X & > m ; 2 2 4 - =Xy @ i t f - ",
"hXrXeXnXlX) _ U s n.8.+.D.8.T #./ /.a.P _ :Xy `.*.N.*.0.u.) T 7.R E 5.5.c.. @XV.>.M.p.%X|.#XdXdXlXrXVXbXZX#XoX+ VXnXVX`.rXrXdXgX",
"q.;.2.-.R = #.T z c.m !  .} ' } _ d.Y / +.#.2X0.*.e :.) h.K./ S ( S D ! U , Q.u.u.Q U S R u.g.u.6.6.z.v.;.:.x., :.*.6.2.-.g U 4.",
"z s.r.5.8._ } _ g 0.N n Y ! J J L L ) W E a.[._.;.5.j U +.u.a P d ) ~ ^ U.$ oXu.C.E 5.s 2.+.) ) #._ j 4.5.z 6.V.z.|.|.M s u.j R ",
"! ^ ! Q U U 2 kXuXD.A.b.k u Y ^ #.} F / ^ +.(.I.lXD.7.m -.$X! Y L E ~ _ Q @ k '.3.Z./.Z.j Y Y ^ 7.B 3.B z d 4.f.u.4.z s ) #.G.) ",
"Y ! _ S Y U > lXZXVX#XlXlX*XN 2 T o.l.o.t r , t.o.o.t.[.Z.n r.t = , $ * @ % 2X;XXX,XE.I.N -.N P l p ;.l ;.W B E l m /.) U P S U ",
"! K / U ;.4.Q f.Y U / ) W R B 0.gXBXZXfX9XwXnXdXfXgXhXnXnXhX:.7XoXtXyXA.{.7X$Xz.u.0.lX8X_.oXQ.y.x D.Z.A.U.;XW.j ) d :.c } D / Y ",
"g g 9 *.0.1 Y A ! S Y J ! H Y u.6.s.7.F.) ) K J J Y ~ J Y  X8 t nX;.+.6.`.9X^.g.Y E s = - 1 > 1 1 d Y @Xy t.k.[.V.< t.5 y y y g ",
"=XqXyXtX>XtXr.) S ! _ } ) d I d ~ L } ` @.L K [ L L / ] $.F.g hXBX5.Y E a.a.8.a.S 7.D , t.p.O.m R E S _.VXBXlXlXwX).*X_.C I.uXA.",
"B 4.b.2.oX4.W ~ L Y / J ^ a.l z ! ` / ` | ` ` ] ] _ /  .Y x.2 eXtXy.B z E a.5.g.P Y a.u =XkX1X>X%X@Xg.F.} _ D T _ s.4.V., {.rX<.",
"U / ! Y ( U ) < - % o + + + : r T Y +.F.^ #. .s.O.z ) Y a.9 M wX[.gXl ;.B s r 2 R ~  .G.Q $.F.H. . .[ / [ ` ^ / } } F.) b sXlX5.",
"R s H d P.E m 7X}.yXtXfXtXqXCXtX*XV M.&XV.p.= - t V 1 V @XC t t n 6 * &XvXvXM jXU.J.Y a.w 8XdX5.E ] ] ] ] } } /  .F F.A.4 9XAX5.",
"V y g W N k N t.bX;.Y 7.>.R 7.^ C.~.OX4X9XdXQ.W.$X`.`.R.w.=.1.e.w.N.~.~.x.l m Y _ /  .Q.t yXSX5.R ! L ] [ %.%.) _ ^ H M.k.eXU.R.",
"+ * , @ o 2 N lXmX5.U Y d ! ' L _ R l y.B B c.dXwXz.>.V.2.m Y E k B y.y.m D } ) _ Y Y N t.dX[.2.k 9 , > t p < r C : t.p p < = > ",
"5XeXdXrXrXbXV $X2X5.m l a } ] | %.Y z W 5.R B qX7Xz.].m 3.U U s O.Y R B y.:.9 t j % C p f - r > o N (.@X{.7XfXdXeXMXrX5X4XhXdXrX",
"<.2.2.6.2.%X9.q.].OX;.-.g Y U 5.h.^ U g j N B.S.@XN.z.N g.V.V.+.s P A |.qX8X|.yXrXbXhXeX9XgXdXsX`.n.Y 3.$X*.9X*.6.k -.g U E g 4.",
"u.B z k ,.3Xr.=.l 4 * @ 1 T n < $ 2 - u l.r.(.t.q y.B.Z.u N % :.y.#.$.H.| G.G.c.6.N -.g U Q *.6.<.6.u.m l tX$XtX%Xm W s l R U s.",
"z v.k <.=.x.1X9Xn y.~.4Xc.q.N.8 R.<.k z.bXeXy.ZX*XV V oXqX9.fXv Q J.#.G.Y ) ) ^ L / H +.W 5.p.s.u.x m l :.p.@Xv.N N p.O.h.! Y G ",
":.,.k <.g eXD.y.MXN y.;.E Y U + 2.g C Y g.dXtXqX:.U.CXV.y.b `.g.U.,X#.}  .$.#.$./ #.#.#.U N ^.S ^ z C g 9.- y x.2.j g w N Q.C ;.",
"4 t 6 f - @ - G G U.V.i 9 f m u N %.} U a.E.XX'.k.XXCX2X[.].i.P.J.J.J.$./ _ } [ | | L G.R.q.A.n.Y n.jX(.V uX%X_.&X_.@XqXg 4 6 U.",
"lXoXW.$XmXbXV.`.w.<.:.N.:.|.R ) B E ! U i.wXXXS.[.y.[.k.XXi.@Xc.kXjXkXuX=XAX&X|.jXSX=X&XZXjX0.(.8 U y.S.fXqX0.B.=Xb.q.q.bXk.lXlX",
"l l 3.6.eX5Xw 9 g eXk N N b.B j m m W T qXq.'.{.}.'.[.g w i W.AXSXAXZX$ 4X(.@X@XBXwXeX7XlXZXeX8XQ.h.4.~.>X(.[.1XxX3X|.C q.t !.i.",
"u m j A.b.`.b >.Q l J.! U B z y k B R r.y > ; G xXpXpXaX3XV Q +.^ ! }.qXg k x.q._  .7.F.! 5.L H ) U U z M.OX(.9.1XtXg.p.'.P.b l ",
"z m 3.E.6.y.x.y.t.Q J.j z l -.k k q.9XQ.uXn c.x.6.<.h.Q.6.K.s.#. .$.fX#X2.2.-.R U _ ] O.^ T a.$.D J Y 5.:._.W.|.U.y g B.XXo.v.z ",
"p.m C p.m U.J.; *X0.x.0.B.0.>.b oX!.e < gX(.}.N.Q P H z F.H.^ Q ) ) tX@Xv.4.u d ) 0.D %.^ ( Y ^ J ! H q.Q.G 3XpXvXpX].b r.o.$XB ",
"2XaXaXjXj.2X1X}.n 9 r 2 = = 2 2 O o o W p t.#Xn.U S S %.! H L ! S W B 5 iXjXn.r.-.o.3.W U m P m U 2.-.W.> >.b.+X'.{.|./.J.L.&X1X",
"D.Q 5.oX*XY _ ( ,.XXqXdXdXdXQ.9X5X#X9 4Xg b w.m E U _ S d D L ! ! H Y Q W p.t.Z.Z.n V o.r i > @ : @ : * 1 p.l E #.K.T K.G.K.F.v.",
"( P.g.z.C l ! / E 3XgXA.B B d m W.rX  R.Z.i.5X3.m Q Y ~ I F ) +.D d 9 |.c.f.{.7XdX8XeXeXOXW.OX#X$X4XVXgXE.u.W } K %.[ ` K.H.H.g.",
"J.+Xg.y.v ;.l E ) }.u.j d Y Q u.b.3.  *.g g u Y ~ m Y _ ! #.J L I s o V.) s.$.+.$.G.qXN d.c.#.I Y Q +.( U ( R Y A } H./ #.%.} s.",
"2 , * o % $ j t < 2 > > - z ;.}.B l 2 r i y N l Y Y Y z Q a.F.P ~ x.w 7.} } / / #.G.0.V.jX4.Y ( U H S I T D / ~ T.Y.;X,X3XT.2 r ",
"yXtXZXfXfXkXgXyXfXuXBXkXNXY.XXT.XX,X<X;XxX3XpX3X, > f C - - - - n 9 A.U ` | s._ U 9.r $XCX^.6.l z U T E j K %.E W u.5.4.,.y.*XyX",
"%.' ! _ _ ^ ( %.H.| 8.u.R V.oX`.oXoXoX+X;X=X;XiXyX7XE.v.=.W.*.k 5.9 A.i.B , u.m b.W.r p.W '.b.:.:.x.B.B.:.0.>.N z U U Y T +.} $.",
"( / ! +.} _ J +.) Y #.+.T 5.E a.! A Y U H 7.J Y Q Q m Y @ b.N B P N S.(.X SXAXVXSX7Xc.V v C >.Q.A.B.v - 1 1 i g u C.; 5.+.P.U H ",
"#._ ! #.#.$.} | ) 2.8.) ( R T Y ! / Y D A U f / H ! ! m 9 >.%. .T C.V.}., x.w.w.<.b -.*.*.w.w.N.1.z.N.B.bXqX`.`.8X3.u.5.P. XJ./ ",
"#._ 7.~ } _ Y P Q.R.{.a.T Y U Y Y A Y Q R ) /  .A A Y ( @ h.5.Y S P R #X$ ,.n.%XB z P 3.n B y.N r.N *.-.7XVXN 4.T U U C.C.C.a.T.",
"1XtX=XiXaX=XiXtXBXfXW.2.Y o.d S S L.S a.R U / H J l.N @ M.-.& / H } R x.M b./.z x a.F.Y -XJ z l ;.g *.c.g VXk s / U.;X,X,XkXkXiX",
"4Xc.$X).oX*XQ.^.@XR.wX$X3XXX,XaXW j u o.* > : @ @ $ % q r.o.u {.2 < N j * W.A.:.2.c.'.E m R i -.k g <.q., %Xc.m l E ;.3XaXuXZX% ",
"e x.).x.Q O.J _ J ( U D U 5.4.5.! R l o.2 A.qXfXyXqXCXgXOXOXgXv eXqXD.V...M (.&Xj.p.*Xo > t y > r * 1 , @ p t V.U E h.6.,X8.Z.n ",
"N n.j n W r.#.p Y Y Y H L J D H U D a s R s.+.( B B 7.Y P.W h.@ V.mX-.p.}.S.'.&X#X}.lX%X9.W.eX@XV fXdXA.< Q.%XP.T A Y E Y _ 7.XX",
"oX2.6.U f.y.;.} ! D ) H } A Y B n S Y Y ) ~ @.#.} | ' / K $.s.:.mXlX5.) 5.[.].P.V.>.<. XgX4X4X:.y.y.^.eX  e.k u.u.m P S P ^ P.2X",
"=XD.BXV.w k.v Q.0.>.b N N *.x.R.n a S Y O.! F / ] }  .$.' ) B.2 9XiX3.m s p.%X@X%Xp.{.XXdXQ.s s m B OX#X  g i a s d ) ^ Y a.7XM."
};
