/* XPM */
static char *d3d8e8309dbc4ae9f7dfecee17dff754nNVpepaMfDSX60Ai[] = {
/* columns rows colors chars-per-pixel */
"300 300 256 2 ",
"   c #010103",
".  c #04040B",
"X  c #05080F",
"o  c #050612",
"O  c #060815",
"+  c #080915",
"@  c #050719",
"#  c #06091B",
"$  c #090B1C",
"%  c #080715",
"&  c #0E101F",
"*  c #3A2602",
"=  c #3A2A13",
"-  c #070B23",
";  c #0A0D22",
":  c #0A0E25",
">  c #0C0E25",
",  c #0A0D23",
"<  c #070C2A",
"1  c #0A0E2A",
"2  c #0D1126",
"3  c #0D1025",
"4  c #0D112A",
"5  c #0E122D",
"6  c #0D112C",
"7  c #11142C",
"8  c #131529",
"9  c #0A0F32",
"0  c #070C32",
"q  c #0E1233",
"w  c #0E1439",
"e  c #0B193D",
"r  c #111534",
"t  c #141835",
"y  c #1B1B33",
"u  c #12163B",
"i  c #1A153E",
"p  c #14193D",
"a  c #1A1D3D",
"s  c #1A1536",
"d  c #1A0A35",
"f  c #280839",
"g  c #241939",
"h  c #310D39",
"j  c #1E213B",
"k  c #00223F",
"l  c #28252C",
"z  c #362D2C",
"x  c #242334",
"c  c #23233C",
"v  c #2D2A3B",
"b  c #2A2837",
"n  c #352D38",
"m  c #3C3334",
"M  c #39323A",
"N  c #3B322A",
"B  c #2F1B0A",
"V  c #422C04",
"C  c #4A3606",
"Z  c #493717",
"A  c #533C18",
"S  c #4D360D",
"D  c #48382A",
"F  c #543D27",
"G  c #473837",
"H  c #533C37",
"J  c #432D36",
"K  c #603E25",
"L  c #5B4518",
"P  c #58440A",
"I  c #675216",
"U  c #5B452C",
"Y  c #5D492C",
"T  c #584427",
"R  c #5B4533",
"E  c #5D4A33",
"W  c #584538",
"Q  c #514537",
"!  c #634B2C",
"~  c #634927",
"^  c #634C33",
"/  c #644A38",
"(  c #685236",
")  c #6C5629",
"_  c #79662A",
"`  c #766515",
"'  c #0D1B43",
"]  c #131741",
"[  c #151A42",
"{  c #1A1D43",
"}  c #1B1D4A",
"|  c #181945",
" . c #1D1E51",
".. c #370D45",
"X. c #231543",
"o. c #221A46",
"O. c #241B4B",
"+. c #2B1C4C",
"@. c #2A1647",
"#. c #331C4C",
"$. c #371749",
"%. c #2A1D51",
"&. c #341D53",
"*. c #3B1C54",
"=. c #3B1A57",
"-. c #2D0D43",
";. c #08244B",
":. c #1C2145",
">. c #14224C",
",. c #1C224B",
"<. c #152449",
"1. c #0B2C56",
"2. c #142552",
"3. c #132A55",
"4. c #142D5B",
"5. c #1B2856",
"6. c #09335B",
"7. c #13325D",
"8. c #18325B",
"9. c #1E394B",
"0. c #232443",
"q. c #23224B",
"w. c #2B2747",
"e. c #342749",
"r. c #3A3647",
"t. c #2D2253",
"y. c #272658",
"u. c #332354",
"i. c #3B235B",
"p. c #3A2C5B",
"a. c #372857",
"s. c #3A3559",
"d. c #283451",
"f. c #083965",
"g. c #143463",
"h. c #183867",
"j. c #183063",
"k. c #282C63",
"l. c #372C63",
"z. c #253469",
"x. c #3A3564",
"c. c #2B3B71",
"v. c #3D1F61",
"b. c #43174C",
"n. c #441C5C",
"m. c #461A56",
"M. c #410C46",
"N. c #44294A",
"B. c #473747",
"V. c #553C48",
"C. c #462759",
"Z. c #463658",
"A. c #563959",
"S. c #53285B",
"D. c #461D61",
"F. c #492562",
"G. c #483A65",
"H. c #583867",
"J. c #562C67",
"K. c #65396F",
"L. c #613E50",
"P. c #3B4257",
"I. c #0F4870",
"U. c #2B4D6E",
"Y. c #594546",
"T. c #494658",
"R. c #564959",
"E. c #4F4C52",
"W. c #644847",
"Q. c #664C53",
"!. c #4A4566",
"~. c #554969",
"^. c #5A5769",
"/. c #564A72",
"(. c #5C5773",
"). c #4C4F6A",
"_. c #645769",
"`. c #635B75",
"'. c #6C4974",
"]. c #5B6071",
"[. c #65646C",
"{. c #676677",
"}. c #74747C",
"|. c #706E7A",
" X c #736542",
".X c #887432",
"XX c #8B7A48",
"oX c #825779",
"OX c #968537",
"+X c #A99938",
"@X c #9A8949",
"#X c #A99650",
"$X c #B8A759",
"%X c #B7A768",
"&X c #C9B76D",
"*X c #C6B55A",
"=X c #D7C675",
"-X c #E6D67A",
";X c #E9DC70",
":X c #2A6F8F",
">X c #1D698B",
",X c #795085",
"<X c #797785",
"1X c #6E6A83",
"2X c #4E7590",
"3X c #865A8E",
"4X c #8F6A96",
"5X c #9A70A6",
"6X c #A678AD",
"7X c #3988A7",
"8X c #5293AC",
"9X c #60B1CE",
"0X c #73CBE7",
"qX c #84848C",
"wX c #8A8995",
"eX c #94949A",
"rX c #908E99",
"tX c #9B99A5",
"yX c #B488BB",
"uX c #AC89B3",
"iX c #ABAAB3",
"pX c #9EA1A8",
"aX c #EBD989",
"sX c #F8E88A",
"dX c #FAEA96",
"fX c #FFF59C",
"gX c #FFFB9C",
"hX c #FFF794",
"jX c #FAF08C",
"kX c #FFFAA3",
"lX c #FFF6A5",
"zX c #FEF0AE",
"xX c #D9C884",
"cX c #BB91C5",
"vX c #B9B8C4",
"bX c #83B7D8",
"nX c #C698CA",
"mX c #CA9BD2",
"MX c #D6A8DA",
"NX c #CEA7D5",
"BX c #DDB3E7",
"VX c #D9ADE3",
"CX c #E4B6EA",
"ZX c #E7B9F0",
"AX c #E1B5DF",
"SX c #9AF6FF",
"DX c #8FE8FE",
"FX c #A5F5FF",
"GX c #89D4EF",
"HX c #CECED5",
"JX c #DBDAE4",
"KX c #FDFDFF",
"LX c #F5F5FC",
"PX c #EAE9F2",
"IX c #E3D8ED",
"UX c #C296BD",
/* pixels */
"                                                                                                                                                                                                                                                                                                                                                                                                                                                                                                                                                                                                                        ",
"                                                                                                                                                                                                                                                                                                                                                                                                                                                                                                                                                                                                                        ",
"                                                                                                                                                                                                                                                                                                                                                                                                                                                                                                                                                                                                                        ",
"                                                                                                                                                                                                                                                                                                                                                                                                                                                                                                                                                                                                                        ",
"                                                                                                                                                                                                                                .                                                                                                                                                                                                                                                                                                                                                                                       ",
"                                                                                                                                                                    . .         . .                         . .                 . .                         . .                                             . .                           . . .           . . .       .                                     . .                                             . .     . .         . .           .                                                                                                                         ",
"                                                                                                                                . .                     . . . .     . . . .     . . . .         . . . . . . . . . . . . . . . . . . . .         . . . . . . . . . . . . . . . . . . . . . . . . . . . . . . . . . . . . . . . . . . . . . . . .   . . . . . . .     . . .       . . . . . . . . . . . . . . . . . . . . . . . . . . . . . . . . . . . . . . . .     . . . .     . .         . .         . . .                                                                                                           ",
"                                                                                                                                . . .       . . . . . . . . . . .   . . .   .   . . .   .   . . . . . . . . . . . . . . . . . . . . . . .   .   .   .   .   . . . . . . . . . . . . . . . .     . . . . . . . . . . . . . . . . .   .   .   .   .   .   .   . . . . . . . . . . . . .   .   . . . . . . . . . . . . . . . . . . . . . . . . . . . . . . . . . . .   . . .   .   . . .   .   . .         . . . .                                                                                                         ",
"                                                                                                    . .                                     . .         . . . . . . . . .   . . . . . . . . . . . . . . . . . . . . . . . . . . .   . . . . . . .   . . . . . . . . . . . . . . . . . . . . . . . . . . . . . . . . . . . . . . . . . . . . . . . . . . . . . . . . . . . . . . . . . . . . . . . . . . . . . . . . . . . . . . . . . . . . . . . . . . . . . . . . . . . . . . . . . . . . . . .       . . . .                                                                                                         ",
"                                                                                . .   .             . .                 . . . . . . . . . . . . . . . . . . . . . . . . . . . . . . . . . . . . . . . . . . . . . . . . . . . . . . . . . . . . . X . X . . . . . . . . X X . . . . . . X X . . . . . . . . . . . . . . . . . . . . . . . . . . . . . . . . . . . . . . . . . . . . . . . . . . . . . . . . . X . . . . . . . . X X . . . . . . . . . . . . . . . . . . . . . . . . . . . . . . . . . . . . . . . . . . . . . .             . .                                                                         ",
"                                                                                    . .     . .   . . . . . . . . . . . . . . . . . . . . . . . . . . . o o o o . . . . . . . . . . . . X X X X o o . o o o % % o o o . . o o . X X X X X X X X X X X X X X X X + o o o o . X . o o . o o o o o . . . . o o o o o o o o o o o o . . . . . . . . . . . . . . . . . . . . . . . . . . . . . . . . . . o o o o o o o o o o o o o o o o o o o o . o . . o o o o o o . . . . . . . . . . . . . . . . . . . . . . . . . . . . . . . . . . . . . . . . .   . .                                                                 ",
"                                                                                            . . . . . . . . . . . . . . . . . . . . . . . . . . . . . . . . . . . . . + + + . . . . . . X X X X o o . o o o o o + + + o o o o o O X X X X X X X X X X X X X X X + o o o o o . X o o o o o . o o o o o o o o o o o o o o o o o o o . . . . . . . . . . . . . . . . . . . . . . . + + + . . . . . . . o o o o o o o o o o o o o o o o o o o o o o . + + + + + + + o . o o . . . . . . . . . . . . . . . . . . . . . . . . . . . . . . . . . . . . . . . . .                                                               ",
"                                                                          .     . . . . . . . . . . . . . . . . . . . . . . . . . . . . . . . . o o o o . . . . . . o + % + + o o o o o o o . o o o o o o o o o % % % o o o o o o o o o o o X X X X X o . o X X o o o o o o o o o o o o o o o o o o o o o o o o o o o o o o o o + o o o o o o o o o o o . . . o o o o o o o . . o o o o o o % o o o o o o o o o o o o o o o o o o o o o o o o o o + + + o + + O o o o o o . o o o o o o o o . . . . . . . . . . . . . . . . . . . . . . . . . . . . . .                                                                 ",
"                                                                        . .   . . . . . . . . . . . . . . . . . . . . . . . . . . . . . . . . . o o o o . o o o . . o o + + o o o o % + o o o o o o o o o o o o % % o o o o o o O O O O O O O O o o O o O O O O o o o o o o o o o o o o o o o o o o o o o o o o o o o o o o o o + o o o o o o o o o o o o o o o o o o % o o o o o o % o o o o + o o o o o o o o o o o o o o o o o o o o o o o o o o + o o o o o + o % % o o % o o o % % o o o o . . . . . . . . . . . . . . . . . . . . . . . . . . . .             . .                                                 ",
"                                                                  . . .     . . . . . . . . . . . . . . . . . . . . . . . . . . o o o o o o . . o o o % o o o o o o o % % % o o o % % % o o o o o o o o o % % % % % o o o o % o o o o o o o o o + + % + + + + + o o o o + o o o % + + O + + + + + + + + o o o o + + + + + + O O + o o % o o o o % % % % + + % % % % % % % % % + o % % o o o o + + + + + o o o o + + + + + + O O o + + + + + o o o o + o o o + o % % % % o o o o o % % % o o o o + . . . . . . . . . . . . . . . . . . . . . . . . . . .       . . . . .                                                 ",
"                                                                    . . . . . . . . . . . . . . . . . . . . . . . . . . . . . . o o o o o o o o o o o o o o o o o o o o % % % % o % % % o o o o % % % o o o o o % % % o o % % % o o o o o o o o + + + + + + + + + + O O + + o o + + O O + + + + + + + + + + + + + + + + + O O O o o o % % o o % % % % % + + % % % % % % % % % + % % % % o o o + + + + + + + o o + + + + + O O O + + + + + + o o o + + + + + + + % % % % o o o o o % % % o o o o + . . . . . . . . . . . . . . . . . . . . . . . . . . . . . . . . . . .                                                 ",
"                                                                        . . . .   .   . . . . . . . . . . . . . . . . . . . . . X X o O O o X X O O O O O O + + o O O O O O O O O O o o o o o o o o o o o o o o + + + + + + + + O O O O O O O O O O O O O O O O o + + + + + + % + + + + + + + + o o + + O O O + + + + + + + + + O o o X X o . O O O O O O O O o o o o o o + + + o o o o o o o o o o o o o o o o o + o o + + o o o O O O O O O O O O O O O O O O + + o o + o X o . . O O O O O O O O . . . . . . . . . . . . . . . . X X . . . . . . . . . . . . . . . . .                                               ",
"                                                                        . . . .     . . . . . . . . . . . . . . . . . . . . . . X X X X X X X X o X o X o o o o o X o . o o o o o o o o o o o o o o o o o o + + o o o o o o o o o O o O o O o O o o o o o O o o o o o o o o o o o o o o o o % o o o o o o o o o o o o o o o o o o O o O o O o O o O o O O O o o o o o o % o + + % o o o o o o o + + + + + o o o o + o o o o o o o X o o o o o . o o o O o O o o o o o o o o o O o X o X o . o . o X X X X X . . . . . . . . . . . . . . . . .   . . . . . . .                                                           ",
"                                                                        . . . . . . . . . . . . . . . . . . . . o . . . X . o o O o o o o o o o o o % o % % % % o o o o % o % o % % % % + % % o o o o o o o o o + + + + + + + + o o o o o o o o % o o o o o o o % % % + + % % % % % % % % % % % % % + % + o + + o o % % % % % % % o % o o o o o o o % o + o o o % % % + + + @ + + + + + + + % % o o o o o o o o % + % % % o o + % + + + + O o o % o % o % o o o % + % o + o o % % o % o % O % o o . o o o O o o o . . o . . . . . . . . X . . . . . . . . . .   . . . .                                                 ",
"                                                . .   . . . . . . .   . . . . . . . . . . . . . o o o o o o o o % + % + + O + % % % + o % + + + + + + + @ + # % + + + % % % # % # % # # # # @ @ # # # # # # # # # # # # # # # # $ $ $ $ $ $ $ $ # % @ + + % # # # # $ # $ # $ # $ # $ # $ # $ # @ # # + + % % % + + % % + # # # # # $ $ $ $ # % + + + + % % + + # # # # # # # # # # # # # # # # # # # # # # # # $ $ @ + # $ # $ # # # % # + @ + @ + @ + + + + + # # @ # # + % + # # # $ % % % % % % + + % % + + % % % + % o o o o . . X . . . . . . . . . . . . . . . . . . .                                           ",
"                                                . . . . . . . . . . . . . . . . . . . . . . . o % % % % % % % % % + + + + + + + % # # + + # $ $ @ @ @ # # # # # # # # # # # $ # $ # $ $ $ $ $ # $ $ $ $ $ $ $ $ $ # $ # $ # $ $ $ $ $ $ $ $ $ $ $ $ # # $ $ $ $ $ $ $ $ ; $ ; $ $ $ $ $ $ $ $ $ $ $ $ $ # # $ $ # # # # # # # # $ $ $ ; ; $ $ $ # # # # # # # # $ $ $ $ $ $ $ $ $ $ $ $ $ $ $ $ $ $ $ $ $ $ $ $ ; $ @ @ $ & $ $ $ # $ # # # # # $ # $ # $ # $ $ $ $ $ $ $ # @ @ $ # $ # # # # # # % @ + @ + + + % % % % % % % % O O O O X X . . . . X . X . . . . . . . . .     .                                       ",
"                                                        . . . . . . . . . . . . . . . . . . . o o % % % % % % % % % % % % + + + + # @ % + # $ # @ @ # # # # # # @ # # # # # # # $ $ $ $ $ $ # @ @ @ @ @ @ # # # $ $ $ $ $ $ $ $ # # # # # # # # $ $ # # $ $ $ $ $ $ $ $ $ $ $ $ $ $ $ $ $ $ $ $ $ # $ # # # # # # # # # @ # # # $ $ $ $ # $ $ $ # # # # # # # # $ $ $ $ $ $ $ $ $ $ $ $ $ $ $ $ $ $ $ # # # # # $ $ @ @ ; 3 $ $ $ $ $ $ # # $ $ $ $ $ $ $ $ $ $ @ $ $ $ $ $ @ # $ $ $ # # # % # @ @ @ + + + + + % % % % % % % o o o X X X X . . . . . . . . . . . . . . . .                                             ",
"                                                        . . . . . . . . . . . . . . . . . . X O o o o % % % % % + + + + + + + + % @ @ % + # $ @ @ @ # # $ $ $ $ @ # # # $ # # # $ # # # $ $ $ @ $ $ $ $ $ $ $ $ $ $ $ $ $ $ $ $ $ $ $ $ $ $ $ $ $ @ @ @ $ $ $ @ $ $ # $ $ $ $ ; $ $ # $ $ $ $ $ @ # # # @ @ # # # # $ $ $ # # # $ $ $ $ $ $ $ $ # $ # $ # # @ # $ $ $ $ $ $ $ $ @ @ @ @ $ $ $ $ ; ; $ $ $ $ $ $ $ $ @ # $ ; $ $ $ $ $ $ $ $ $ $ $ $ $ $ $ $ $ $ $ $ # $ $ # @ $ $ $ $ $ # # # # # # @ @ @ @ @ @ + + % % % % % o o o o o . o X X . . . . . . . . . . . . . . . . . .                                     ",
"                                                    . . . . . . . . . . . . . . . . . . . . O O o o o % % % % % + + + + + + + + + # # % % # $ @ @ @ # # # # # # # # $ $ $ $ $ $ $ $ # $ $ $ $ # $ $ $ $ $ $ $ $ $ $ $ $ $ $ $ $ $ $ $ $ $ # # # $ $ $ $ $ $ $ $ $ $ $ # # $ $ $ $ $ $ $ $ $ $ $ $ # $ # @ @ # $ # # $ $ $ # # # $ $ $ # # $ $ $ $ $ $ $ # # @ @ $ $ $ $ $ $ $ $ $ $ $ $ $ $ $ $ $ $ $ $ $ $ $ $ $ $ $ $ $ $ # $ $ $ @ @ @ $ $ $ $ $ $ $ $ $ $ $ $ $ # @ $ @ @ # $ $ $ # # # # # # # @ @ @ @ @ @ + + % % % % % % o O O O O O o o . . . . . . . . . . . . . . . . . .                                     ",
"                                      .       . . . . . . . . . . . . . o o o o X . o o o o O X + o o % % % % % + + + + + + + + + + + + + + @ @ # # # # # # # # # # # # # # $ $ $ $ $ $ $ $ # @ $ $ $ $ $ $ $ $ $ $ $ $ $ $ $ $ $ $ $ $ $ $ $ $ $ $ @ @ $ $ $ $ $ $ $ $ $ $ $ $ $ $ $ $ $ $ $ $ $ $ ; $ # @ $ $ $ $ $ $ $ $ $ $ $ $ $ $ $ $ $ $ $ $ $ $ $ $ # @ $ $ $ $ $ $ $ $ $ $ $ $ $ $ $ $ $ $ $ $ $ $ $ $ $ $ @ @ $ $ $ $ $ $ $ $ $ $ $ $ $ $ $ $ $ $ $ $ $ $ $ $ $ # @ @ # # # # # $ # # $ % + % % + % + + + + + + + o o O O o o o o O O o o o o . . . . . . . . . . . . . .                                     ",
"                                              . . . . . . . . . . . . . o o o o . . o o o o O O + o o + % % % % + + + + + + + + # % % + @ @ # # # # # # # # # # + + @ # # $ $ $ $ # $ $ $ $ @ @ @ # $ $ $ $ $ $ $ $ $ $ $ $ $ $ $ $ $ $ $ $ $ $ $ # @ @ $ $ $ $ ; ; $ $ $ $ $ $ $ $ $ $ $ $ $ $ ; ; ; ; $ $ $ ; $ $ $ $ $ ; ; ; $ $ $ $ $ $ $ $ $ $ $ $ $ $ # @ @ $ $ $ $ $ $ @ @ @ @ $ $ $ $ @ $ $ $ $ $ $ $ $ $ $ @ $ $ $ $ $ $ $ $ $ $ $ @ @ @ @ @ @ $ $ $ $ $ $ $ $ $ $ # # $ $ $ $ $ $ # # # + + % # % % % + + + + + + + + O O o o o o o O o o o o . . . . . . . . . . . . . .                                     ",
"                                                . . . . . . . . . . . . . . o . X X o o o o o o . . . o o o o o o o o o % % % % + + + + + + @ @ + + + + + + @ @ + + @ @ @ @ @ + $ $ @ $ $ $ # @ $ $ $ $ $ $ $ $ @ @ @ @ @ @ @ @ @ @ @ @ @ @ @ @ $ @ @ @ $ $ $ $ @ @ @ # @ @ # @ @ @ @ @ @ @ @ # # # # # # # # $ ; $ ; $ ; ; ; ; $ $ $ $ $ $ $ $ $ $ $ $ $ $ $ # @ $ $ $ $ $ $ @ @ @ @ $ $ $ $ @ $ $ $ $ $ $ $ $ $ @ @ @ @ $ @ @ $ @ @ @ @ @ @ @ $ @ $ $ $ @ # $ @ @ @ $ @ @ @ @ @ # @ @ @ + + + + O + + + + + + o o o % o o o o o o o o o o o o X X . . . . . . . . . . . . . . . .                                     ",
"                                      .           . . . . . . . . . . . . . . . X X o o o o o o o . . o o o o o o o o o o % % % % % % % @ % + + @ % @ + @ @ @ @ @ @ @ @ @ + @ @ @ @ @ @ @ @ @ @ # # # @ # @ @ @ @ @ # @ @ @ # @ # @ # @ # @ # $ # @ @ @ # @ # @ # @ # @ # # # @ # @ # @ # @ # # # # # # # # # # $ $ $ # # # # # $ @ @ @ @ @ @ @ # # # # # # # @ @ @ @ @ # @ @ @ # @ @ @ @ @ @ @ @ @ @ @ # @ # @ # @ @ @ # @ # @ # @ # @ # @ # @ # @ # @ # @ @ @ # @ # @ @ @ @ @ @ @ @ @ @ + @ + @ + @ O % % % o % % o o o o o % o o o o o o o o o o . . . . . . . . . . . . . .                                         ",
"                                . .     . . . . . . . . . . . . . . . . o o o o o o + + + + O + % % % % + % % + % % # # # # # $ $ $ $ $ $ $ $ $ $ $ ; $ ; ; ; ; # @ $ $ ; 3 3 3 ; ; ; ; ; ; ; ; ; ; ; ; ; ; ; ; ; ; ; $ $ ; ; ; ; ; ; ; ; ; ; ; ; ; ; ; ; ; ; ; 3 3 > ; ; ; $ # ; $ ; ; ; ; ; ; ; ; ; ; ; ; ; ; ; ; ; > > ; ; ; ; $ $ ; ; $ $ ; ; ; ; ; ; ; ; ; ; ; ; ; ; ; ; ; ; ; ; ; # # $ ; ; ; ; ; ; ; ; ; ; 3 ; ; ; ; ; ; ; ; ; ; > ; ; ; # # ; ; ; ; ; 3 ; ; ; ; ; ; ; 3 ; $ ; $ ; $ ; $ $ $ $ # $ # $ # $ # # # @ + @ @ @ @ @ @ + + + O o o O O o . . X X X X X . . . . . .     . .                             ",
"                                . .   . . . . . . . . . . . . . o o o + % % % % + + + + % % % % % % $ $ % + + # $ $ $ $ $ $ $ $ ; ; ; ; 3 3 3 3 3 3 3 3 3 3 3 3 # $ ; ; 3 3 3 3 3 3 3 3 3 3 3 3 > > 3 3 4 2 7 7 4 3 > ; : 3 7 2 7 2 4 3 3 > > ; 4 3 4 2 7 2 7 2 7 3 3 3 3 > ; $ : ; 3 2 7 7 7 7 3 3 3 > > > > > 3 3 2 7 7 2 3 3 2 3 ; 3 2 3 3 2 7 7 7 7 7 7 7 7 7 7 7 7 7 7 7 7 7 7 7 2 ; ; > 7 7 7 7 7 7 7 7 2 7 2 7 2 7 7 7 2 7 2 7 2 7 3 3 ; ; ; 4 3 4 2 7 2 3 > > 3 3 3 3 3 ; ; ; ; ; 3 3 3 ; $ ; $ ; 3 ; ; $ $ $ $ $ # $ # # # # # + + % % + + O O o o . . X o . . . . . . . . . . . .                             ",
"                                . . . . . . . . . . . . . . . . o o o % % % + + + + + + + + % % % % # # # + # $ $ $ $ $ ; ; $ $ ; ; ; ; ; ; > > 3 3 3 > > ; > ; $ ; ; ; ; ; ; ; ; ; ; ; ; ; : : ; ; : : : : 1 3 1 3 6 ; : 3 4 3 4 4 4 > 1 > : > : ; : : > : : ; > > : : 1 > : ; > > 4 4 7 7 7 7 > > > : > : : : ; ; : > > : ; ; > ; $ ; ; > : > > 1 1 1 1 > 1 1 > > > 3 3 > > 3 > > > > ; - ; 4 3 3 4 3 4 3 1 3 4 4 4 4 4 4 4 4 7 7 4 4 4 3 > ; ; : 1 > : > : ; > : : > > ; : ; ; ; ; ; ; ; ; ; ; ; ; $ ; ; ; ; ; ; $ $ $ # $ $ @ @ # @ + + + + o o O O o o X X X o o O . . . . . . . . . . . .                         ",
"                                  .     . . . . . . . . . . . . . o o o o o % % + + + + + + % % + + # # # + # $ # # $ $ $ $ # # $ ; ; ; ; ; ; ; : : : : : : : : # $ ; ; > > > : > > > > > > > > 3 : : : : : : : : 3 : - - : 4 : > > > > > > > > 1 1 4 4 1 > > > 1 > : > 1 1 : - > > > > > > > > > > > > > > > > > > > > > > > > 3 ; $ ; > > ; > > 1 1 1 1 > 1 1 > > > > > > > > > : : > : ; ; 4 3 1 1 1 1 : : : : : : 6 1 1 1 : 4 3 4 > 1 > > ; - : 4 3 > > 1 > > > : > > > > > : : : ; ; ; ; ; ; ; ; # $ ; ; $ $ $ $ $ $ $ $ $ @ @ @ @ + + + + O % + O o O o o X X X o X X . . . . . . . .         . .                 ",
"                            . .     . . . . . . . . . . X X X X o o o o o o o o + + + + + + + + + + + + + + @ # @ @ @ @ @ $ $ $ ; $ $ $ ; ; ; ; ; ; ; ; : : > > ; ; ; ; > > > > ; : : > ; ; ; > ; ; : ; : ; : ; ; 3 3 ; - ; 3 : 3 3 : : : : : : : : : : : : : : : : : : 3 3 ; - 3 : : : : : : : : : 3 : : : : 3 : : : : : : : : 3 ; - ; 3 ; ; 3 ; : : : : : 1 3 3 : : : 3 : ; ; ; ; ; ; ; ; ; 3 : : : 3 : : : : : 3 : : : : ; : : ; : ; 3 3 : ; - ; 3 ; : 3 3 ; ; ; ; ; ; ; ; ; ; ; ; ; ; ; $ $ ; ; ; $ $ $ ; $ $ $ $ $ $ # # # @ @ @ @ @ + + % + + % % o o o o o o X X . . . . . .   . . .                             ",
"                            . .       . . . . . . . . . . X X X o o o o o o o o + + + + + + + + + # # # % % # $ $ $ $ $ $ $ $ $ ; ; ; ; ; ; ; ; ; ; ; ; > > > > $ ; ; > > > > > > > > > > ; ; ; 3 3 3 3 3 3 3 3 ; 3 3 ; ; 3 3 3 4 3 3 3 3 3 3 3 3 3 3 3 3 3 3 3 3 3 3 3 4 3 : ; 3 3 3 3 3 3 3 3 3 3 3 3 : : : 3 3 3 3 3 3 3 3 4 3 ; ; 3 3 3 3 3 3 3 4 3 3 3 3 3 3 : : 3 3 3 3 3 3 3 3 3 ; ; ; 3 3 3 3 3 3 3 3 3 3 4 3 3 4 3 3 4 3 3 3 3 3 3 3 ; # ; 3 3 ; 3 3 ; > 3 3 3 3 3 > > > > > > 3 3 3 ; ; ; $ $ $ $ $ ; $ $ $ $ $ $ $ $ $ $ $ # # # % % + + % o o o o o o o o X . . . . . . . . . .                             ",
"                            . . . . . . . . . . . . . . X X X . o o o o o + O O + + + + + + + + + % @ @ @ + + @ $ $ $ $ $ $ $ $ $ $ $ $ $ $ ; ; ; ; : : : ; ; ; # ; > > > > > 1 > > : ; ; ; ; ; ; ; : : : 3 3 3 : : : - - : 3 3 3 3 3 3 3 3 3 3 3 3 3 3 : : : : 3 3 3 3 3 3 ; - : 3 3 3 3 3 3 3 3 3 3 3 3 3 3 3 : : : : : : 3 3 3 : ; : 3 : : 3 3 3 3 : : : : : 4 3 3 4 4 4 3 4 3 3 3 : : : : 3 3 3 3 3 3 : : : ; : : : 3 3 : 3 3 3 3 3 : : : ; - : 3 3 : 3 3 : > > > > > > : > ; ; ; ; ; ; ; ; ; ; ; $ # $ $ ; ; $ $ $ $ $ # # # # @ @ + + + + + + + + % o o o + o O o o . . . . . . . . . .     .                     ",
"                            . .     . . . . . . . . . X X X X . o o o o o o o o o o % % + + + + + + # @ @ @ # # $ $ $ $ $ $ $ $ # # $ $ $ ; ; ; ; ; : ; ; ; ; ; ; ; 3 4 3 > 1 4 : : - ; ; ; ; ; - - - ; ; : : : ; : : - - : 3 3 3 3 3 3 3 3 3 3 3 : : : : : : : 3 : : : : : ; - 3 3 3 3 3 3 3 3 ; - - - ; ; - - ; ; : : ; ; ; : 3 : ; : : : : 3 : : : : : : : : - - - ; ; - - - : : : : ; ; : : : 3 3 : : : ; : ; : ; ; : : : : 3 3 3 : : : : ; - : 3 3 3 3 3 : > : : : : ; ; ; ; ; ; ; ; ; ; ; ; ; ; ; $ ; ; ; ; ; ; $ $ $ $ $ # # @ + + + + + + + + o o o o . o o o X o . . . . . . . . .     .                       ",
"                              .         . . . . . . . . X X X X . . o o o o o o o o o o o o % % @ % @ @ @ @ @ @ @ @ @ @ # # # # @ # # # # $ $ # - - - - - - - # # ; : : - ; - - - ; - ; - ; ; ; - : : - - - - - - - - - - - : : - - - - - - - - : - - - - - - - - - - - - - - - - - - - - - - - : : : : : : : : - - - - - - - - - - - - - - - - - - - - - - - - - ; : : : : - - - - - - - - - - - - - - - - - - - : - - : - - - - - - - - - - - - - - - - - - - : ; - - - - - ; ; ; ; - - - - ; - - # # # # # # # # # # # # # # @ @ @ @ % % % % % o o o o o o o o o o o . . . . . . . . .                               ",
"                            . . . . . . . . . . . . . . X X X X o O O o o + + + % % + + + + + @ % + @ @ @ @ @ $ # # $ $ $ $ ; ; ; ; ; # # $ $ # ; ; ; ; ; ; ; ; ; ; : : : - - - 1 1 : : > > : ; 1 1 : : : : : : : : 1 1 : : : 1 : : : : : : : : : - - : : : : : : : : : : : : : : : : : : : : : : : : - - - - - : : : : : : : : : : : : : : : : 1 1 : : : : ; - # - - - - - - - : : : : : : 1 1 1 1 1 1 1 1 : : : : - - : : - : - : : : : : : : : : : : : : : : 1 : - : : ; - : : : : ; ; ; ; ; - - - - ; ; $ $ ; $ # # # # # # @ @ @ @ + + + + + + + + o o o o o o o o o o . . . . . . . . .                           ",
"                      .         . . . . . . . . o o o o O O O O + + % % % % # # + + + % $ $ $ $ ; ; 3 ; 3 3 3 3 > 3 3 3 3 3 7 2 4 4 3 ; ; 3 4 3 4 4 4 4 4 5 5 5 7 7 5 5 7 7 7 7 7 7 7 r r 7 5 4 r r 7 7 7 7 7 7 r r r r r r r r t r r 7 7 7 7 7 r 5 5 7 r r r r r r r r 7 7 7 7 5 7 r r r r r r t t r r 5 5 7 r r r r r r r r r r r r r r r r r r r r r r 7 7 4 4 7 7 7 7 r r r r r r r r r r r 7 7 r r r r r r 7 7 4 1 4 4 4 5 5 7 7 7 5 5 7 r r r r 7 r r r r r 7 7 r r 5 5 5 5 7 5 5 4 4 5 7 7 5 5 5 4 4 7 7 2 3 3 > ; ; ; 3 $ $ $ ; ; ; $ $ # # # + % + + + + + + + + + o o . . . . . . . . .   . .                 ",
"                    . .     . . . . . . . . . . o o + + O O O O + + + % % % % # % + + % $ $ $ $ $ $ ; ; $ $ $ ; ; ; ; ; ; ; > > : 3 : # - 3 4 3 3 3 1 4 4 4 4 1 4 4 1 1 5 5 5 5 5 5 5 5 r 7 4 1 5 4 4 4 4 4 4 5 7 7 5 5 5 5 5 7 r 7 5 4 1 1 4 4 5 1 1 5 5 5 5 7 5 5 5 5 5 4 4 4 1 1 5 5 5 7 7 r 5 7 5 4 1 : 1 5 5 5 5 7 r r r r r r r r 7 7 r r 5 5 7 7 7 7 4 4 - : 4 4 4 5 7 7 5 5 5 5 5 5 5 5 4 4 4 4 4 4 4 4 7 5 1 : 4 4 4 4 5 5 5 5 4 4 5 5 5 5 4 4 4 5 5 5 5 4 5 r 7 4 1 1 1 1 4 4 1 4 4 5 4 4 1 : : 3 4 7 3 > ; ; ; ; ; ; # @ $ $ $ $ $ # # # # + % + + + + O + + + + o o . . . . . . . . . . . .                 ",
"                      . . .   . . . . . . . . . . . o o O O o o + + + + + + + + + @ @ # $ $ $ @ @ $ $ $ ; ; ; ; ; ; ; ; ; : : : : : : ; : 3 3 3 4 4 4 4 5 5 5 5 5 5 5 5 5 5 5 5 5 5 5 5 5 5 4 1 5 5 5 5 5 5 5 5 5 5 5 5 5 5 5 5 5 5 5 5 5 5 5 5 5 1 : 5 7 5 5 5 5 5 5 5 5 5 5 5 5 5 5 5 5 5 4 4 5 5 5 r 5 1 5 5 5 5 5 5 5 q 5 5 5 5 q 5 5 5 5 5 5 5 5 5 5 5 4 4 1 5 5 5 5 5 4 5 5 5 5 5 5 5 5 5 5 5 5 5 5 5 5 5 5 5 1 1 5 5 5 5 5 5 5 5 5 5 5 5 5 4 4 5 5 5 5 5 5 5 5 5 5 4 1 4 5 5 5 5 5 4 4 4 1 1 1 1 : : : : > > > : ; ; ; ; # $ $ $ $ $ # # @ @ + + + + + + o o o o o o o . . . . . .       . .                     ",
"                        . . . . . . . . . . . . o o o + O O O O + + + + % % % % + @ @ # # $ $ @ $ $ ; ; ; ; ; ; ; ; : > : : : : : : : ; ; : 3 3 4 4 4 4 4 4 4 5 5 5 5 5 5 5 5 5 5 5 5 5 5 5 4 1 5 5 5 5 5 5 5 5 5 5 5 5 5 5 5 5 5 5 5 5 5 5 5 5 5 1 : 4 5 5 4 4 5 5 5 5 4 4 4 4 5 5 5 5 5 5 5 5 5 5 5 q 1 1 5 5 5 5 5 5 5 5 5 5 5 5 5 5 5 5 5 5 5 5 5 5 5 5 4 1 1 5 5 5 5 5 5 5 5 5 q 5 5 5 5 q 5 5 5 5 5 5 5 5 5 5 4 1 5 5 5 5 5 5 5 5 5 5 5 5 5 5 5 5 5 5 5 5 5 5 5 5 5 1 1 1 4 4 4 4 4 4 4 4 4 4 4 4 4 1 3 3 : : : ; ; ; $ $ # # # $ $ # @ + # # + + + + + + + + + + o o o o . . . . . . . . . .                     ",
"                      . .   . . . . . . . . . o o o o o o + + + + + + + + + @ @ @ @ $ $ $ $ $ $ $ ; ; ; ; ; ; ; ; ; : : : : : : 3 4 3 : : 1 4 4 4 4 5 5 5 5 5 5 5 5 5 5 q q q q q q q 5 5 5 5 4 q q 5 5 5 5 5 5 q q 5 5 5 5 5 5 5 5 5 5 5 5 5 5 5 4 1 5 7 5 5 5 5 5 5 5 5 5 5 5 5 5 5 5 5 5 5 5 q q 5 r 5 1 q q q q q q r r q q r q 5 5 q r r q r r 5 5 7 7 5 5 1 5 5 5 7 7 q r 5 5 q q 5 5 5 5 7 5 5 5 5 5 5 5 5 5 5 4 5 7 5 5 q q 5 5 q q q 5 5 5 q q 5 5 5 q q r 5 5 q 5 1 5 5 5 5 5 5 5 5 5 4 4 4 4 4 1 3 : 4 3 > > ; ; ; ; $ ; $ ; $ $ $ $ # # @ @ + + + + + + + o o o o o . . . . . . . . . .                     ",
"                        . . . . . . . . . . . o o o o o o o + + + + + + + % @ @ + + @ @ # # # $ ; ; ; ; ; ; ; ; ; ; : : 3 3 : : 3 3 3 : : : 4 4 4 4 5 5 5 5 5 5 4 4 5 5 5 5 5 5 5 5 5 5 4 5 4 1 q q q 5 5 5 5 q q q q 5 5 q q 5 7 7 5 5 5 5 5 5 1 : 1 6 5 5 5 5 1 1 1 1 1 1 6 5 5 5 5 5 5 5 5 5 q 5 5 q 1 1 5 5 5 5 5 5 5 5 5 5 5 5 5 5 5 q 5 q 5 5 5 5 5 5 5 5 1 5 5 5 5 5 5 q q q q q 5 5 5 5 5 5 5 5 5 5 5 5 5 5 4 1 4 5 5 5 q 5 5 5 5 5 5 5 5 5 5 q q q q r 5 5 1 5 5 5 1 5 5 5 5 5 5 4 4 4 4 4 4 4 4 4 3 : : : : ; ; ; ; ; # $ $ $ $ $ $ # # # @ @ + + + + + + + o o o o o . . . . . . . . . .                     ",
"                        . . . . . . . . . . o o . o o o o o o o + + + + + + @ @ @ @ @ $ $ $ $ $ ; $ $ ; ; ; ; ; ; ; : : : : 3 3 1 4 4 : : : 4 4 5 5 5 5 5 5 q q 4 4 5 5 5 5 5 5 5 5 5 1 1 4 1 1 5 5 5 6 5 5 5 5 6 5 q 5 5 q q 6 6 6 6 1 1 1 1 1 1 : 1 6 6 5 5 5 6 6 6 6 1 1 1 1 4 5 5 5 5 5 5 5 q 5 5 q 6 1 q 5 5 5 5 5 5 5 5 5 6 5 5 5 5 6 6 6 5 6 5 5 5 5 5 6 1 q q 5 q q 5 5 5 5 5 5 5 5 5 5 5 5 5 5 5 q q q q r 5 1 5 q q r q q q q q q q 5 5 6 6 5 q q 5 6 1 5 1 1 5 1 1 5 5 5 4 4 4 4 4 4 4 4 : : 3 3 3 3 - - - - $ $ $ $ # # $ $ $ $ @ @ @ @ @ + + + + + + + + + o o o o o o . . . . . . . . .                   ",
"                            . . . . . . . . . . . . o o o o o o o o o o % % @ @ @ @ @ $ $ $ $ $ $ # # $ # # # ; # # # # - - - - : : : : - - : : 1 1 1 1 1 1 1 1 1 1 1 1 1 1 1 1 1 1 1 1 1 1 1 : 1 1 < < 1 1 1 1 < 1 1 1 < 1 1 < 6 6 6 6 6 6 6 6 1 < < 1 1 6 1 1 1 1 1 1 6 6 6 1 1 1 1 1 1 1 1 1 1 1 1 5 1 < 6 1 1 1 1 1 1 1 1 1 1 6 6 6 6 6 6 6 1 1 1 1 1 1 1 1 1 5 6 1 6 6 1 6 6 6 1 1 1 6 1 1 1 1 1 1 6 6 5 5 5 5 1 < 1 6 6 5 5 6 6 6 6 6 1 1 1 1 1 1 1 1 1 - 1 1 1 1 1 : - 1 1 1 1 1 1 1 1 1 : : - - - - - - - - - - $ $ $ $ # # # # $ # @ @ + + + % + + % % o o o o o o . . . . . . . . . .                         ",
"                            . . . . . . . . . . X X o o o o o o % % % % + + + + @ + @ @ @ @ @ @ $ # # $ $ # # ; # $ - - - - - ; - - - - - - : - - - 1 1 1 < 1 1 - - : 1 1 1 1 1 1 1 1 1 1 1 1 : 6 6 6 1 1 1 1 6 1 6 6 : : 1 1 : : : : : : : : : 1 < 1 1 < 1 < : : : : 1 6 6 : : 1 1 1 1 1 1 1 1 < < < 1 < - 1 < 1 1 1 1 1 1 < < 1 : : : 1 6 1 1 1 1 1 1 1 1 1 1 < 1 1 1 1 1 < < 1 6 6 1 : : : 6 1 1 1 1 1 1 1 1 1 1 1 < < 1 < 1 1 : 1 1 1 1 : : : 1 6 6 6 6 6 1 1 1 1 : 1 : - 1 1 1 : : : : : : 1 : - - - - - - # # - - # # # # # # # # # @ @ @ @ @ @ + + + % o % % o o o o . . . . . . . . . . .                       ",
"                    . . . . . . . . . . . . o o O O o o o + + % # # # $ $ $ $ $ $ $ 3 3 3 3 3 3 3 ; ; ; ; ; ; 3 3 4 4 4 7 7 4 5 7 7 r 7 7 r r 7 t t t t t t t t 5 5 r r t t t t t t t t t t t t t t t t t t t t t t r 5 5 q q q t t t t t t t t t t t t t t t t t t r r t r 5 1 r r r r q q q q r r r t t q t t t t t t t t t r t 5 6 6 q t t r t t t t t t t t t p t t t t t t q r t r 5 5 5 t t t t t t t t t t p t t t t t t t t t t t t t t 1 q t t r t t t t t t t t t r t t t t r r r r r r 5 4 4 4 4 4 4 4 4 4 4 7 3 4 3 3 3 3 3 3 3 ; ; $ $ $ $ # # + % + + + + + + o o + o o . . . . . . . . .                 ",
"                    . . . . . . . . o o o O o O + + + + + + + # # # # $ $ $ $ $ $ $ ; ; ; ; ; > 3 7 7 7 > ; : 4 3 4 4 4 5 5 7 7 7 r r r r r r r r r t t r t t t q 1 r t t p p p p p p p p p p p p p p p p p a a a u t q q t t r q r t t t p p p t t q q r t t t p p p p p t q q q q q q q q t t q q t t u t q q t t t q q t u p t t q r t r t t t t t t r r r r t t t t t u p p p a t t q q t q t t u p p p p p p p u p t u t t t t u p p p p t 6 t p p p p p p p p p p p p p p p p p p p p p t t r 5 1 5 5 5 4 4 7 7 7 7 7 7 7 > > ; ; ; ; > 3 3 ; ; $ $ $ $ # + + + + + + + + % o o o o o o . . . .                   ",
"                    . . . . . . . . o o o O o o O + % % + + + + # # # # # # $ $ $ $ $ ; ; ; ; ; ; > 3 3 : ; : 3 1 4 4 4 4 4 5 5 5 5 5 5 5 5 5 q q q q q q q r r 5 1 q r t t t u w w w w w t t t u u u u u u t t u q w 1 q t q q q q q q q q t t t q q q q q t q q q t q t t w 1 w q w q w q w q q q q q q q q q q q q q q q q q r q 1 q r q t r r r r r r r r r t t w w w w w w u u t r 5 q t q q q w q t t t t t t w t t q w q w q w t u t t q 1 q u t u t w t w w w w w w w w t t t t t q w q r q 1 1 5 q 5 5 1 1 1 1 4 1 1 > > > ; ; ; ; ; ; ; $ $ $ # # @ @ + + + + + % o o o o o o o o o . . X . .                 ",
"                    . . . . . . . . . . o o o o + o % % % + + + # # # # # # $ $ $ $ $ $ ; ; ; ; : : : > : ; : : 1 1 4 4 5 5 5 5 5 5 5 5 5 5 5 5 5 5 q q 5 5 q q 5 1 5 r q r q q q q w q q q q q q q w q q q q q q q t 6 6 q q q q q q q q q q q q q q w q w q q q q q q q q q 5 t r t r q q q q q q q q q q q q q q q q q q q q q q 1 q r q r r r r r r r r r r q q q w q q q q q t t r q 5 r q q q q q q q q q q q q q q q q q q q q q q q q q 1 q t q t q q q q q w q q q q q q q q q q q q q 5 5 1 1 5 5 5 5 5 5 4 1 1 1 1 > > > ; ; ; ; ; ; $ $ $ $ $ # # @ + + + + + + + + o o o o . . . . . . . .                 ",
"                    . . . . . . . . . o o o o o + + + + + + + + # # # # # $ $ $ ; ; ; ; ; ; ; ; : : > > > : : 3 4 4 4 4 5 5 5 5 5 5 5 5 5 5 5 5 5 5 q q q q q r 5 6 q r q r q q r q t r t r r r q q q q t r r r r r t q 6 r q t t t t t t t t t q q t q t t t q r t r q r r q 6 r r r r r r r r q t t t t t t q q t t t t t t t t r 5 r r r t r r r t t r r t t q q q r t t t t q t r r 5 5 t q t t t t r r r r r r q r t r r r r r r r t t r q 1 r t r t r q r r r t r t r t r q q q q q q q q r q 1 1 5 5 5 5 5 5 4 4 7 7 7 7 > > > ; ; ; ; ; $ $ $ $ $ # # # + + + + + + + + o o o o o . . . . . . . . .             ",
"                    . . . . . . . . . o o o o o + + + + + + @ @ # # $ $ $ $ $ $ $ $ $ ; ; ; ; ; : > > > : ; : 1 4 4 4 4 5 5 5 5 4 4 4 4 5 5 5 5 5 5 5 5 r r r r 5 6 5 r 5 r q r r r r r q q q r r r r r r r r r q q r 5 6 q q t q q q r r r q q q r r t t t t t r r r r q r q 1 q q q r r r r r t t t t t t r r r r t t r q q q r q 6 q q q t r t r r r r r q q r q r r r q q q q t q q 5 5 t r r r r r r r r r r r r t t r r r q q r r t r q q 6 q r r r r r r r r r r q q r r q q q q q 5 q q r q 5 1 5 5 5 5 4 5 4 4 7 4 4 > 3 3 3 ; ; ; ; ; ; $ ; $ $ @ @ + @ @ @ @ + + + o o o % o o . . . . . . .                 ",
"                    . . . . . . . . . . o o o o o o % % % + + + # # # $ $ $ $ $ $ $ $ $ ; ; ; ; > > 3 > ; ; : 1 4 4 4 4 4 4 4 5 4 4 4 4 4 4 5 5 5 5 5 5 r r r r 5 : 5 5 5 r q r q q 5 5 q q q q q q q q q q r r q q r 1 1 q q r q q q q q q q q q q q q q r q q q q q q q r q 1 q q q r r t t r t r q q q q q r q r r q q 5 1 1 q q 1 6 5 6 q 5 r r r r r q q q q 5 q q q q q r t t q q 6 6 r q q q q q q q q q q q r r r q q q q q q r r r q 5 1 q q q r r q r 5 5 5 5 q q q q q q q 5 5 5 5 5 5 5 1 1 5 5 5 5 4 4 4 4 4 > > : : ; ; ; ; ; ; ; ; ; ; ; $ @ @ @ # @ # # + + + + o o o o . . . . . . . .                 ",
"                    . . . . . . X X X . X X o o o o o o % % % % % % # # # # # # # # # # # $ ; ; > : > > : ; - : : : 1 1 1 1 1 1 1 4 4 4 4 4 5 5 5 1 1 5 5 q q 5 5 1 5 5 5 q q q 5 5 5 6 6 6 5 5 5 5 5 5 q q q q 5 5 q 1 1 q 5 5 q q q q 5 5 5 5 6 6 5 5 q 5 5 5 q q q q q q q 1 q q q q q q q q q q 5 1 1 1 5 q q q q 5 1 1 1 1 5 6 < 1 5 1 5 1 q q q q q q 6 5 1 1 6 6 q q q t q q 5 q 1 1 q 5 q q q q q q q q q q q q q q q 5 5 5 q q q q q 5 1 q q 5 q q 5 q 5 5 5 5 5 5 5 5 5 5 5 5 5 6 6 6 6 1 1 1 1 4 1 1 1 1 1 : : : : - - ; ; ; - - ; ; $ $ $ $ # @ @ @ # # # @ + + + + o o o . . . . . . .   .                 ",
"                    . . . . . . X X X X X X o o o o o o % % % % + + @ @ @ @ # # # # # # # # $ $ ; ; - ; ; - - - - - - - - - : : : : 1 : 1 1 1 1 < 1 < < 1 1 1 1 1 - 1 1 1 1 1 1 1 1 1 1 1 1 1 1 1 1 1 1 1 1 1 1 1 1 9 < < 5 1 1 1 1 1 1 1 1 1 1 1 1 1 1 1 1 1 1 1 1 9 1 9 1 9 < 9 1 9 q 9 1 9 1 1 1 1 5 1 1 1 1 1 1 1 1 1 1 1 1 1 1 < 1 5 1 6 1 1 1 1 1 1 1 1 1 6 1 1 1 1 1 1 q 9 1 1 q 1 < 6 1 q q 9 1 9 1 9 1 9 1 9 1 9 1 9 1 1 1 1 1 1 6 1 1 1 6 1 1 1 1 1 1 1 1 1 1 1 1 1 1 1 1 1 1 1 < < < 1 1 < - 1 1 - : - - - - - - - - - - - - - - # # # # # # @ @ @ % + % % % o o o o o o . . X . . . . .                     ",
"                  . . . . . . . . o o % o o + + + + + % % # # # # @ @ @ @ $ $ $ # $ ; ; : 3 3 3 4 4 4 4 4 4 1 4 5 5 5 5 5 5 5 5 5 q r 1 < q q q t q q q q q w q 5 5 q q q q q q w q w q q q q 1 q q q t t t t t u t u t t t t u t t t t t u u u t q < q q q t t u u u t u u u u u u u u u u u u t t t r 1 < q q w r r r t t t t t t t t t t t t q q q q q q q 1 q t t u p p u u u u u u u t t u u u u u u u u u u u w 9 u w w u u t u t t q w q w q w q w q w q w q w q q q 1 q q q w q q q q q q q q q q q 5 5 5 5 5 5 4 4 4 4 ; @ - - ; 3 : : ; ; ; $ $ $ $ $ $ # # # @ @ + + O O O X X X . . . . . . . .             ",
"                  . . . . . . . . . o % % o + + % % # % $ $ $ $ $ $ $ $ $ $ ; ; ; > 3 3 4 4 4 4 7 7 7 7 7 7 r r r r r r t t t t t p p q r a a p a a a a p p p p a a a a a { { { { { { { { a p q a a a p a a a a p p p p p p p p p p p p p p p p a p q u u a a a { [ [ p p [ [ { { { { { { { { { p a a p t q u u u u u u p p p p a a a a a a p p t q t t t t t q t p p p p a [ { { { { { { { { { [ [ [ [ [ [ { { { { p u { { { { { { { { { { { { { { a a { { { { { { { a { p q u p p p p p p p p t t t t t t t r r r r r 7 7 7 7 4 : 4 4 4 7 4 4 3 3 3 3 3 3 3 3 ; 3 $ $ $ $ $ $ + + O X X X . . . . . . . .             ",
"                  . . . . . . . . . o o % o + + + % # # $ $ $ $ $ $ $ $ ; ; ; ; # ; : : : 3 3 3 7 7 4 7 7 7 5 5 5 5 5 5 q r r r t t t 6 q a p u u u u u u u u u u u u u u u u u u p p p a a u w u u u u u w u w u u u u u u u u u t t u u u u u u u 9 u t u u u u w w w w w w u p p p p p u u u u u u u w q t t t t t r q u u u u u p p p u u t u u u u u u t q q u u w u p p p u u u u u u u u u u u u u u u u p u w w { { [ p u u u u u u u u p p p p p p p p p p [ p { p q u u u u u t t t t r q q q q q q q q q 5 5 5 5 5 4 4 ; 1 4 1 4 : : : ; ; ; $ $ $ $ $ $ $ $ # # + + + + O . X o X X . . . . .               ",
"                  . . . . . . . . . o o % + + + + + + % % % # # $ $ $ $ $ $ ; ; # ; : : : : 3 3 1 4 4 4 1 1 5 5 5 5 5 5 5 q q q q q q 1 q p u t w w w w u u u u t t t q u u u u u u w u u p t q u u u u w w u u u u u u u u u u t t t t r t t t u t 9 t w u u t u u u u u u u u w w w w w w w w u u r u w q u t t t u u u u u u q w w w w t t u u t u u t u t q q u u w w u w u u u u u u u u u u u u u u u u u u w w w { [ u w u u u u u u u u u u u u u u u w w w u u p u 9 u w t q w w w w q q q q q q q 5 5 q q q 5 5 5 5 5 4 ; 1 1 : 4 : : : : ; ; $ $ $ $ $ $ $ $ # # % + + + O X X o X X . . . . .               ",
"                    . . . . . . o o o o o + + + + + @ @ # # # # $ $ $ ; ; ; ; ; # ; 3 3 3 3 4 4 7 7 7 7 7 7 5 5 5 5 q r r q q 5 q q r 5 5 t t q t t t t u u u u u u u u u u u u u u u u u u w q u u u u u u p p u u u u u u u u u u u u u u u u u u q u u u u u p p u u u u p p u u u u u u u u u u t u w q u t u u u u u u u u u u u u u u u u u u u u u u u w q u u u u u u u p p p p p p u u u u u u u u u u u u u w { p u u u u u u u u u u u u u u u u u u u u u u u t 9 u u u u u t t t t t t t t q q q q r r r q q 5 5 5 4 : 4 4 1 4 : 1 3 3 ; ; ; ; ; ; # $ $ $ $ @ % % O + O X X o . X . . . . .               ",
"                    . . . . . . o o o + + + + + + + @ # # # # # $ $ $ ; ; ; ; ; # ; : : : 3 1 1 4 4 4 4 5 5 5 5 5 5 q q q 5 5 5 q q r 6 6 q q q t t q t u u t t r t t w w u u u w u u u u u w 9 q q u u u u u u u u u u u u u u u u u u u u u u t u q u u u u u u u u u u u u u u u u p p p p p u u u u w 9 t t u u u u t u t t u u u u u u u u u u u u u u u q q t t u u u u u u u u u u u w w u u u u u u u u u u w 9 u u u p u u u u u u u u u u u u u u u u u u u t t w 9 t u t t t q q w w t t t q q q q q q q 5 5 5 5 5 5 4 : 4 4 1 4 : 1 : : ; ; $ $ $ $ @ @ @ @ @ @ + + + + O O o O X . . . . .                 ",
"                    . . . . . . o o o % + + + + + + @ # # # # # $ $ $ $ ; ; ; ; # ; 3 3 3 3 1 1 4 1 1 7 5 7 5 5 q q q q q 5 r r r q r 5 6 r q q q q t t t q q q t t t t u u u u t t u u p p t q u u p p p p u u u u u u u u u u u u u u u u p p u p w p u u u u u u u u u u u u u u u u u u u u p p p p u w u p p p u u p p p p u u u p u u u u u u u u u u u 9 q t t t u u u u u u u u u u u u u u u u u u u p p u t 9 p u u p p p p p p u u u u u t u u u u u u t u t p t q u t t t t t q q q t t t t q q q q q q q q q q q 5 5 : 4 4 4 4 1 4 : : ; ; ; ; ; ; ; ; $ $ $ $ + + + + O O o O X . . . . .                 ",
"                    . . . . . . o o o % + + + % % % # # # # $ $ $ $ ; ; ; ; ; ; @ # ; ; ; : : : : > > 1 1 1 4 4 4 5 1 1 1 1 5 5 r q q 1 6 q q q q 5 q q q q q q 1 1 q q q w w t p u w w t t q 1 t t t t t t q q q q q q w w w w q w w w w w w w u u w u w u u q w w w q q q w q u t u u q q q w w w w u w 9 u u u u u u p p p p u u u u u u p p p u u p u p u 9 q q q q q q q q q q q q q q q q t q w q w t u u u u w 9 p u w w w w w w w q q 9 q w w w t u u u q q t t t q 1 q q q t q q q q q q q 5 5 6 1 1 1 6 6 5 5 5 4 4 4 4 : 4 4 : : : ; - - # # $ $ $ $ $ $ $ @ @ + + + o + O o X o . X . . . . .               ",
"                . . . . . . . . o o o o o % + + # @ @ @ @ # # @ @ @ @ @ $ $ # # # # - - - - - - ; ; - : : : : : : 1 1 1 1 1 1 1 5 5 1 1 1 1 1 1 1 1 1 1 9 q q q q 1 6 6 1 q q q q q q q q q 1 1 q q q q q q q q q 1 q q q q q q q q q q q q q q q q q q q q w q 9 q q q 1 6 w q q q q q q q q q 1 6 q q q q w q u q q q q q w w q t q t q q q u q q w q w q q q 6 6 6 6 q q q q q 6 q q 6 q q 6 q q q 6 q q w q q q q q q q q q q q 1 6 q q q q q q q q q q q q q q q q q q q q q q q q q q 9 6 1 5 5 1 5 1 1 1 1 1 1 1 1 : : : ; - - - - - - - # - $ $ $ @ @ $ @ @ @ + + + + + o o o O X X X X . . . . . . .           ",
"                . . . . . . . . o o o o o % + + + + @ @ @ @ @ @ @ @ # $ $ $ $ - # - - - ; ; : ; ; ; - - - - - : - : 1 1 1 1 1 1 1 1 1 1 6 5 q q q q q q q q q q 6 < 6 6 6 w q q w q q q q q q q w w w w q q 9 1 q q q 1 1 q q q q q q q q q q q q q q q q q q q w q w q q q q 1 q q q q q q q q q q w q w q w q w q q q q q w w q 6 < q q q q q w w w w w w w q q q q q w w q w q q q 1 1 6 q q 6 6 q 6 9 1 1 q q q w q q q q q w w w q w q q q 1 q w q w q q q q q q q q q q q q q q q q q 1 1 6 5 1 < 1 5 1 1 1 1 1 1 : : : : ; ; ; ; ; - - - ; ; ; $ $ @ @ $ @ @ @ @ + + + % % o o X X X . . . . . . . .             ",
"              . . . . . . . . o + + % % + % % % $ # $ $ $ ; ; ; ; ; > 3 3 7 4 4 4 7 7 7 7 7 r 7 5 7 r r 7 4 4 r r t t t t t p a a a a p p a a a a a a a a a a p u q p a a { [ [ { [ [ a a [ [ [ { { { { { { { { :.a { u u p a { :.:.:.:.{ { :.:.{ { { { { { { { :.{ [ { { a a q u p a { :.:.:.:.:.{ [ a { { { { [ { { :.:.:.{ [ { { u { { :.{ { { { { { { { { :.{ { { { { { { { { { { p w w p p [ a { a :.:.:.:.:.:.:.:.:.{ :.:.{ { { { [ a p u w a { [ { a [ { { { a { a a { a { a a a a a { a a p r q t a t t p t t t t r r r r r 7 7 7 7 7 7 7 7 7 3 3 ; ; 3 3 3 3 3 ; $ $ $ $ $ % % % % O O o . . . . . .           ",
"            . . . . . . . . o o + % % % % % # # # # # $ $ $ ; ; ; ; ; ; > 4 4 4 5 5 7 7 r r r r 7 t t t r 5 5 r 5 5 q r r t t t t u t t q q q w p p a a a [ p p q q u p p p u u p p p p p u u u u u u u p p { { { p p w 9 u p p p u p p p p p p p p p p p p p p p u p p p p p q p p [ { :.:.{ { [ p u u p p p u p p p p p p p p p p w p p [ [ ] ] ] ] ] ] [ [ [ :.:.:.:.:.{ { { { { :.{ p u p p u u p u p a [ { p p p p u u p p { { { { [ [ p p w p p p p p p p u u u u u u u u u u u u p p p p u t 1 1 r t t r r r r q q 5 5 5 5 4 4 4 4 4 4 1 7 7 4 3 3 ; ; 3 3 3 ; ; ; $ $ # # # % + + O o O o o . X . . .           ",
"            . . . . . . . . o o o o o + + + + + @ @ @ @ # $ $ $ $ ; ; ; ; : : : 1 1 1 1 5 5 5 5 5 5 5 5 q 1 1 5 q q q q t t t t t u t t u u u u u u u u p u w w p q p p p p u p u u p p p p p p p p u u u u p p [ u p u w u p p u p u u u u u u p p p p p ] p p u u u p u p u w u u u p [ [ [ ] p p p p p p p u p p p p p p p p u u q u p p p p p u u u p p u p u u u u p p u u w u p p w u u u p p u p u p u u p u u u w u u u u u u u u u w w w u p u p p u p u u u p u u u u p u u u u u p p t t w q u u u t t t t r q q q 5 7 5 5 5 5 5 5 5 5 4 1 : : ; $ ; ; ; ; $ # @ # @ @ + + % o o o o . . . . . .             ",
"              . . . . . . . o o o o o o + + + + $ # $ $ $ $ ; $ : : : > > > : 1 1 4 4 5 5 5 5 5 5 5 5 5 r q 1 q 5 q q q q q q q w w w w q t u u u u u p u u u u w w u u u u u u u u u u u u u u u u u u u u u u u u p w w u u u u u u u u u u u u u u u u u u u u u u u w u u w p p u u u ] ] u w u u u u u u u u u u u u u u u u u w p u u u p u u u u u u u u u u u u p p p p p w u u q q u p p u u u u u u u u u u u u u p p p p u u u u u u w u u w u u u u u u u u u u u u u u u u u u u t w t w q w w w w q q q q q q 5 5 5 5 5 5 5 5 5 5 4 5 1 1 > ; ; ; ; ; ; ; $ $ $ $ # # + + + + + O o . . . . .             ",
"                . . . . . . o o o + + + + % % % # @ # @ $ $ $ $ ; ; ; ; : : : : 1 1 1 4 4 5 5 5 5 q 5 5 q 5 1 q q r t t q q t t t t t t u u u u u u u u u p u u w w p p u p u p p p p p p p p p p p [ [ p p p p p p p u w p p p u u u u u u u u [ p [ [ p p p p ] p [ p u p p u p u u u u u ] u u p p [ p p [ [ p p p p p p p p p p w [ u u u [ [ [ [ [ p p p p p p p p p p p p [ u p u q w u p u u u p p [ [ [ u u p p p p p p p p u u p p p u w p p p p [ u p p p p u u u p p p p p p p u u u u t t w w u r r t t t t q q 5 5 5 5 5 5 5 5 5 5 1 4 > > > ; # ; ; ; ; $ $ $ # # @ @ + % o o o o o o . . . .             ",
"                . . . . . . o + o o o + + + + + # # # $ $ ; ; ; ; ; : : > > 3 1 1 1 4 4 5 5 5 5 q q 5 5 5 1 1 q q q q w q q t t w q t t t u u u u u u p p p p p w w p p u p u u u u u w w w u u p p p p p p u u p u p w w u p u p p p p p p p p [ p [ p [ p p p p w u p u p p w [ p p p p [ [ ] p p p p p p [ p p p p p p p u u p u w [ [ ] ] [ ] ] ] ] ] ] ] p p p p ] u u u u ] u ] [ w w u [ p p p p p u u u u u p p [ p u u p p p p p p u u w u p p p u u p u u u w w u u u u u u p p p u u t t w q w u r q t t q q q 5 6 6 5 5 5 5 5 5 5 4 4 4 4 3 3 ; $ ; ; ; ; ; $ $ $ # @ + + + + o o o o . . . . .             ",
"                . . . . . . . o o o o + + + + @ # # @ @ $ $ $ ; ; ; ; ; ; ; ; : 3 3 1 1 4 4 4 1 5 5 7 7 5 4 5 5 5 5 q q q q q q 6 6 q 6 q t q t t u w u u u u u w q u u u p u p w w w w w q q q w w w q w w u u w w q w w u p p p p p p p u u t w u u q w q u w w u p p p p p w p u p p p p [ p u p u p u t u w u u w q w u u p p w w w p p ] ] [ u u w w w p u u p u u u u u p [ [ [ p u w u p u u u u p p p p w w w q w u p p p u p p p p p u w p p p u p p u w w q 9 w w q 9 w w w w t t w w q 5 1 q t u t q t q q 6 1 1 1 6 4 : : 1 : : 4 4 1 : : : ; $ # $ ; ; $ $ $ @ @ @ % + + + o O . X o o . . . . . .         ",
"                    . X . . . . o o o o o + + + # # @ @ # $ $ $ $ $ $ $ $ $ - - : : : : : : : : 1 1 4 4 1 1 1 1 6 6 6 6 6 6 6 6 1 1 q 1 6 q q q q q w w w w w q q w q u w w w u w w w w q q q q w w w q q q w w w w w w w w w w w w w w w w w q q w w q w w w w w w w q q w q q q q t t u u u u w t q t w w u w w w q w w q w w q w w w w w w w w w w w w w q w q q q w w w w w w w w w q q w w w w w w w w w w w w w w w q q q w w w w w w w w w u p u w u u q w w w q w w w w w w q w w w w q q 5 q q q t q q q q q 6 5 6 6 5 4 : : 1 : : : : ; - ; ; ; $ $ $ $ $ @ @ @ @ + + % o o o X X X X . . . . . .             ",
"            . . . . . . . . . . o o o o % % + + % % % @ @ @ @ @ # # # # # # # # # # - - - - - - - : 1 1 : : 1 1 1 1 1 1 1 1 1 1 6 1 5 1 1 6 1 6 1 1 q q q q q q 0 9 q q q q w w w w q q q q q 1 w w q q q q q q q q w w w w w w w w w w q w w w w 9 9 q w q q q w w w w w q q 6 q q w w r r r q q r q r q 1 t q q q w w q q q q q 6 1 q q q q w w q q q 6 6 6 1 1 6 6 6 q 1 1 q q q q q q q q q q w w w w w w w w w q 9 q w w 9 q w w q q q q q 9 w w q q q q 9 q q 1 q q 1 1 q 1 1 1 1 9 9 1 1 1 1 1 1 q q 1 1 1 1 1 < < < : : : - - : - - - - - - # # # # # # @ @ @ @ % % % o + o o X X X X X . . . . . .             ",
"            . . . . . . . . . o o + + + % # $ $ $ $ $ $ ; ; 3 3 3 3 3 3 3 3 3 3 - : 3 3 4 4 5 7 7 r r r r r r t t t t t t t p p p t t q 5 t t p p a a a p u u u p a a a [ [ [ [ { { { a a p t q { { { { a a a a [ [ [ [ [ [ [ [ [ { [ p p p p p p q q p a a a { a a a a a a a a a a a a a a a a a j a a t t a a a a a a a a [ a a a a a a p [ a [ a { a p p p q q t u u u p p a a [ a a a a a a { { [ [ [ [ { { { p u q u a a a a a [ p p u p u [ [ { { [ a [ p { a a a a t u a p a a p p p a a p p p p p p p p p p p t t t r r 4 : 4 7 5 5 7 5 5 4 4 3 3 ; ; ; ; ; ; $ $ $ $ $ $ % + O O O O O o o . . . . .           ",
"              . . . . . . . % + + + + # $ $ $ $ 3 3 3 3 3 3 3 3 2 7 2 7 7 7 7 7 : 1 4 5 7 r r r t t t t t t t p t t t p p p a a a p p q q p p { a a { { a p p p { :.:.:.{ { { { [ [ [ [ p p u w p p p p p p p p :.{ { { { { { :.:.:.{ { [ [ [ [ { p u [ :.:.:.:.:.{ { { :.:.a j a a j 0.0.0.0.0.0.0.0.j a p :.:.{ :.:.:.:.:.:.:.,.,.,.,.,.,.,.,.:.{ ,.,.{ { { p u [ { { { :.:.,.{ { { { { { { { { { { { { { { { { { p w p :.:.:.:.:.{ { [ p [ [ { :.:.:.:.:.{ { [ a p a p q w p p p p u p u p p { { { p p p a { p p u t q q q q 5 5 r t r r t t r 7 7 7 7 3 > > 3 3 3 3 3 ; ; $ $ $ # + + O O O + o . . . . . .         ",
"                . . . . . . o o + + + + % # $ $ $ $ $ $ ; ; ; ; ; ; > > > > 3 1 - : 1 5 5 5 5 5 q q q 5 5 5 q q q q q q t t t t t t t q q u u u u u p p p u w u u u u u u u u u p [ [ p p [ p w p p [ p [ [ [ [ p p u u u p [ [ [ p p p u u p p [ w w p [ p p p p p p p p p a a a a y a a a a a a j a a t t a a p p [ [ [ [ [ [ [ { | [ [ [ [ [ [ ] [ [ [ [ [ u w ] [ ] ] [ [ [ [ [ [ ] ] ] ] ] u u p p ] p p p p p w w p p u p p p p p p u p p p p p p p p u u [ p p [ p w w p p p p p p p p p u u u w w w u u p u u t q q t t 5 1 5 7 q 5 5 5 5 1 1 1 > ; ; ; ; ; ; $ $ $ $ # $ # # + % o o O + o . . . . .           ",
"                . . . . . . . o o o + + + % @ # @ $ $ $ ; ; ; ; > > > 1 1 4 4 4 1 4 5 5 5 5 5 q q q q q q q q q t u u u u u w u t u u w w p u u u u p p p p p p p ] [ [ [ [ [ [ u ] ] u p [ u w p p [ p [ [ [ [ [ ] ] [ [ ] ] [ ] [ [ [ [ [ [ [ [ u w p [ [ p p [ [ [ { a a a a c c c c g a a a j c a j a p { { [ [ [ [ [ [ [ [ [ [ [ [ [ [ [ ] [ ] [ [ [ [ [ u w p [ p p [ ] ] [ [ [ [ [ [ ] [ [ [ [ [ [ [ [ [ ] [ u w [ [ u ] [ [ ] [ [ [ [ [ [ [ [ [ [ [ [ [ p p u p p u w p u u u u u u u u p p p u u u u u w u w w w q w q 5 5 5 r q 5 q 5 5 4 1 4 4 1 > > : : : ; ; $ $ $ $ # @ + % % % o o o . . . .             ",
"                . . . . . . o o o o + + + % @ # @ $ $ $ ; ; ; ; > > > 1 1 1 4 4 : 1 5 5 5 5 5 q q q q q q q q q q w t t t u w u u u u w q u u p u u u u u u u p ] ] ] ] [ [ [ [ [ [ [ ] p [ u w [ [ [ [ [ [ ] ] [ [ [ [ [ ] ] ] ] p p [ [ [ ] ] [ u u p [ [ p p { a { { { a a j j c 0.c c c c c c c c c y a { { { a a [ [ [ [ [ [ [ [ ] [ [ [ ] [ ] p p p [ p u w p [ p p p ] [ [ [ [ [ [ [ p p [ [ ] [ [ [ ] ] ] { u w [ [ ] { [ [ ] [ [ [ [ ] [ ] ] [ [ [ ] ] [ [ [ p [ u w u p p u u p p u u u u u u u u u w u u u u t t w q 5 5 q r q 5 q 5 5 4 1 4 4 > : > > : : ; ; $ $ $ $ # @ + + % % o + o . . . .             ",
"          . . . . . . . . . o o + + + + + % # @ $ $ $ $ $ $ ; ; ; ; > > > 3 3 4 : 1 4 5 5 5 5 5 q q q q q q q q t t t t q q u u u t t q q u p u u p p p p p p p [ u [ [ ] [ ] ] ] ] [ [ [ p u w [ [ [ [ [ [ [ [ [ ] [ [ ] ] [ [ [ p p p [ [ [ [ u u u p a p p a a a y y a a j c c 0.0.0.c b v x b c c c y a a 0.{ a a a a [ [ [ [ p p p p [ p u p [ p p p p p u u p [ p p p ] ] [ u [ [ p p [ p [ [ [ [ [ ] ] ] ] [ u u u [ [ [ [ [ [ [ [ ] [ [ ] [ [ [ [ ] ] [ [ [ [ [ [ u w [ ] ] p u u u u u u p u u u u u u u u u t t r w q 6 5 q 5 q 7 5 4 4 4 1 : 3 3 : 3 ; ; ; ; ; $ $ $ # # @ + % % % % o o . . . .   .         ",
"          . . . . . . . o . o o + + + + % % # # @ @ $ $ ; ; ; ; ; ; ; ; > > 3 3 : : 4 4 5 5 5 7 5 5 5 5 5 q q 5 q q q q q q u u t t t q q t t t u u u u u u u u p u p p p [ p p p ] p p p p w w [ [ [ [ [ [ p [ [ p [ [ p p [ p u u u u u u u u u w t p p a p a y y y y y y y x b x w.c v x l b b b c c x g y c c j a a a a { [ p p p p p p p p p p p p p p p p w p p p p [ p p [ p p p p p p u u u p p p [ [ p [ [ u w u p p ] [ [ [ p u u p p p p p p [ ] ] [ p p p p [ u w p p p p p p u p p u p p u u u u u w w q q q q q 5 1 6 5 5 5 5 4 4 ; : ; - ; ; - ; ; ; ; ; $ $ $ # # # % + % % % % o o . . . . . .         ",
"              . . . . . . . o o o o o % % + + + @ @ # # # # # # ; $ ; ; ; : : : - : 1 5 5 5 5 7 5 5 5 5 5 5 5 4 5 5 5 q q q q r r t t q q q t t t t t q q q w q t q t t t u t t t t t t t q q q q w q q q q q q q q q t q w q q q q w w w w q q q 5 5 r t r t t t y y y y y x x l l x g b v b x x x l x x g y x y y y t t t t t t r r r q q q q w w w w w q q q q p p u p p p p p u u u q q t q w w w w u u u u p [ u w u p p p p u u t q q q t u u t t u u u p t t t t u q q t q q q q q q q q q q q q q q 5 5 5 5 5 5 5 1 5 5 1 1 6 6 4 1 : : : : ; ; : ; - : ; ; # # $ # @ @ @ + + % o o o o o . . . . .             ",
"                . . . . . . o o o o o o % % % % @ @ @ @ @ # # # # # # - - - - - - - : 1 : : 1 1 1 < 1 1 1 : : : 1 1 1 1 1 1 1 1 1 1 q 1 1 9 q w q q w w 9 9 9 q 6 1 q q 1 q 1 q q q q q q q 6 1 q q q q q 6 q q q 6 q q 6 q q q q 9 q w w w w q q q q q r r r r t y y y y y y x l l l b l l l b l l l l x y y y y y y t t t t t t r q q q q q w w w w w w w w q 9 w w w w w w w w w w q 9 9 q q 9 w w w w w w w 9 w 9 9 9 w w w w w w q q q q 1 q w q q q q 9 q q q q q q 1 1 q q q q 6 6 6 6 6 5 q 6 1 6 5 6 5 1 1 1 1 1 1 1 1 < < : 1 : : - - - - - - - - @ - # # # # # # @ @ + % % o o o o o . . . . .               ",
"                . . . . o o o % + + + + + + # # $ $ # # # $ ; ; ; > > > 1 1 1 4 1 4 5 5 5 5 5 5 1 1 5 5 1 1 1 5 q q r q t t t u w u u w u u u u u u ] ] ] ] ] [ w w p u w u u u u u u u u u u u u u w w w w w w u w w w w w u w w w u u u u u u [ p p a { { { :.a c c x b b b l l z l n n n M M M v n v b b b v c c g a a a a p p t w u p p u u u u u u ] u u u u [ [ ] ] ] ] ] ] ] [ ] w w ] [ ] ] [ [ [ [ [ [ ] [ ] ] [ [ ] [ ] [ [ [ [ p p u w u u u u u w u u p u u u u w u w w w w w w w w q q 5 1 6 q 5 q r q 5 5 5 5 5 5 q q q 5 q 5 5 5 1 4 1 1 1 - - ; ; ; ; ; $ $ $ $ # # % + % + % o o o . . . . . .         ",
"            . . . . . . % % % % + + + # # # $ $ $ $ # # $ ; 3 3 7 7 7 7 7 7 7 7 7 r r r r r r r t t a p t q r t t p p a a { { { :.{ { { } ,.} { { } } } } } ,.,.[ p :.:.} ,.,.,.} ,.,.,.:.:.,.,.,.,.,.,.,.,.,.,.,.,.,.{ [ { :.{ ,.,.,.,.,.,.,.,.,.:.:.,.0.q.q.0.w.w.w.v n M n n m G B.M B.G B.G r.r.M M M M n M r.e.w.w.w.q.0.0.0.a a { :.,.,.,.,.,.,.,.,.,.,.,.,.,.,.} ,.} } ,.} } ,.:.[ [ { } :.:.,.,.,.,.,.,.,.,.,.,.,.,.} ,.} ,.,.,.,.,.,.} ] } ,.,.,.,.,.,.:.,.,.:.,.,.:.,.,.,.,.,.,.,.,.,.:.:.a p a a a a p p p p t t t t t t t t t t r r r r 7 7 7 4 3 4 7 2 3 3 3 ; $ $ # # # $ % % % % + o . . . . . .         ",
"        .   . . . . . . o % o o + + + + + + # # $ $ # # $ ; > > ; > > > 1 1 1 4 4 4 5 5 5 5 5 q t u p p t q q t w t u u u u u u u u u u p p u w p p ] ] [ [ [ { u u [ { { { } } } } } } } } } } { { { { { { } } { { [ u w u [ u p p p p p p p p a a a a a j j j c c v v n M n n G m B.G G D z G M M M M m m n n b v c c 0.c c j a t t p a a a a p [ [ [ p p p p [ [ ] ] [ ] u [ [ [ [ [ p p p p ] ] [ [ { { [ [ [ [ [ [ [ [ ] [ [ | } { { } { ] u { } } } :.} } } } { { } { { } { { { { { { { { p p u w u u u u u u u u t t t t q q q q 5 5 5 5 5 5 5 5 4 : : 4 7 2 3 3 3 ; $ $ # # % % % % % O o o . . . . .           ",
"          .     . . . . o o o o + + + + + + # # $ $ $ $ $ ; ; ; > > > > 4 4 4 4 5 5 5 5 5 q q q q q w t w w w u w w u u u u u u t u u p u u p p u u p p u u u p w w [ [ ] [ [ [ [ [ [ [ ] ] ] ] ] ] ] ] [ [ [ [ [ [ [ u u [ [ p p p p [ [ a { a a a a j j j c c c v v b n m M n M G G G F XXY D G G M m m z n n n v v b w.c x x c j y a a a a a a { { a p p p p p [ p p [ [ p [ [ p p p p a a p p ] [ [ p p p u [ [ [ [ [ [ p [ ] [ [ ] ] [ ] w w ] [ ] ] [ [ ] ] [ ] ] [ [ ] [ ] ] ] ] ] ] [ [ u p u w u u u w u u u u t t r r q q q q q 5 5 5 4 5 4 4 4 : : 4 > ; ; ; ; $ $ $ # # % % % % % O o o . . . .             ",
"              . . . . . o + % o + + + + % % # $ $ $ $ $ $ $ ; ; : : > > 1 1 4 4 5 5 5 5 5 5 5 q q q w q q 6 q t t t u u u u u u u u u u u u u u u u u u p p p [ u u p [ [ p ] ] { [ ] ] [ [ [ [ ] [ [ [ [ [ [ [ u ] [ u w u [ p p p a a a a a a a a y j c c c c v v v n m M M M B.J G Z @XzX&X* Q G G G m m m n M M v v b b l x x y y j j y a a a a a a { a a a p a a a p p p [ p p p p p p p p p [ [ [ p p p p [ p p [ p [ [ p ] ] ] [ [ p p p w p [ ] u ] [ [ [ [ [ ] [ [ [ [ [ p [ p p u u u p p u w u p u u u u u u u t t t t q q q q q 5 5 5 5 4 4 4 : - : > ; ; ; $ $ $ $ # # % % % % % % o o . . . . . .         ",
"            . . . . . . . o o o + + + + + % # # $ $ $ $ $ ; ; ; > > > 3 4 4 4 4 7 5 5 5 5 5 q 5 q q q r q 6 q t q q t t t t w w t t t u u u u u u p p p p p p p u q u p p p p ] [ ] ] ] [ ] u ] [ ] [ [ [ [ ] ] [ [ [ u w u [ [ p p p a a a a a j y j c c c b v v v M m M m m m G H D T aXgXfX_ Z Q G J B.G m G M M n v v v b b b x y j c j j j a a a j a a a a p a a a a a [ [ p p p p p p p p p [ [ [ p p p p p u ] [ ] ] [ u [ [ [ [ [ p p p w p [ [ ] [ [ ] ] ] [ p [ p p p p p p p p p u p u p u w u p u u t t w t r r w w q q q q q q 5 5 5 5 5 5 4 1 : 3 > ; ; ; ; $ $ $ # # % + % % O O o o . . . . . .         ",
"            . . . . . . o o o o + + + + % % $ $ # # # # # # ; ; : : > > 1 1 1 : 1 1 1 1 5 5 5 5 5 5 5 5 5 6 6 5 r r r r t t t t u u p p p p p p p p p p [ [ [ [ u q u a p p [ [ u u ] [ [ [ p p u u ] ] [ [ [ [ u u u w w p [ [ [ { { { { { :.{ c c c c b b v v n M M M G G G G G Q Z .XgXjXhX=X* R D H B.J G m m M M e.v v b b b x g x c c j j 0.:.{ :.{ { { { { a { [ { { { { { { { { p p { { { { { [ [ [ [ [ [ [ [ [ [ [ [ [ ] p [ [ [ [ p p w u p p ] [ p u u p [ [ [ p p p p p p p p p p u t u q q t p u t t t t t t t r r q q q q q q q q 4 5 4 4 4 : - : > ; ; ; $ $ $ $ # # $ % % % O O % o . . . .             ",
"            . . . . . . o o o o % % + + + + # # $ # # # # # ; ; : > > > 1 1 1 : 1 1 1 1 5 5 5 7 5 4 5 5 4 6 6 5 4 4 5 5 5 5 5 q q w t t u u w w w w w w u p u u q 6 q t q u u w w w w w u u u u w w w u u p p p w w w w w u p p p p p p p a a a y g x x x x b b n n z z m G D D H F P xXhX+X;XgX.XZ U H G G G G G m n M n n n b b x x x c c c c a y a a a a a a p p p t u u p u p p p p p t p p p p p p p u u w u u u u u u w w w w u p p p u u q q u u u u w w w w q u u q q q w u u u u u q q q q 5 6 q t q q 5 5 5 5 5 5 5 5 6 6 6 1 1 1 1 1 1 4 1 1 4 : - : > ; ; ; ; ; $ $ # # % % % % O o % o . . . .             ",
"              . . . . . X X o o o o o o + + + + @ @ @ @ @ # # # $ $ ; ; ; ; - - : : 1 1 : : 1 1 1 6 6 6 1 : : 1 6 6 5 5 5 5 6 6 6 q q 6 5 q q 6 q q q q q t q q q 6 5 q q q q q q q q q q q q q q q q q q q q q q q q q q q t q t t t t t y y y g x x x l l b n n z z D D G D D D S _ fXsXP +XgXxXC L F D D D D D N z n n n z l l l l l x x x j x j g y y y y y y y y t t t y t y t y t t t t t t t t t t t t t q u t w w w q w q q q q q q q q 6 q q q q q q q q q q q q q q q q q q q q q 5 6 q q q q q q q q 5 5 5 6 1 1 1 1 6 6 6 6 1 1 1 1 - - - - : - # - $ $ $ $ # # @ @ % % % % o o o o . . . . .               ",
"              . . . . . X . o o % % % + + % # # @ @ # # # # # # # # - - ; ; - - - - 1 1 1 1 1 1 1 1 1 1 1 1 1 1 1 1 1 1 1 1 1 1 1 6 1 < 1 1 6 6 q q q q q q w q q 6 6 q q q q q q q q q 6 6 6 < q q q q q q q q q q q q q q q q t t t t t y y y g x l l l l z z z z m D D D D D T A &XgX$X* P aXlXOX* T F D D D D D D m z z z z n n l l l x x x x x y y y y y 8 y y y y y y y t t t t t t t t t r t r r r r q q q t q 1 q q q q q q q q w q q 1 q q q q q q q q w q q q q 1 6 q 6 6 6 q 6 6 6 1 9 q 9 9 q q 1 1 6 6 6 6 1 1 1 1 < < - < 1 1 1 : : 1 : : : - - ; $ $ $ $ # # @ @ @ + % o o o o o o . . . . .             ",
"          . . . . . . . o . o + + + + + % # # $ $ ; 3 3 3 3 3 3 > > > > > 3 4 4 : 4 7 7 r r t t t u p u p u p p p [ [ [ { { [ [ { { a u p { { { { { { { [ [ [ [ { [ { { { { { { { } :.:.:.{ [ u { :.,.,.,.,.,.,.:.{ :.,.,.,.q.,.0.0.0.0.w.w.w.w.w.v n n M M G G G G Q Q Q Q W E U _ jXfXI S L @XlXsXL L F F W W Q Q Q G B.B.G G G r.M r.M r.M v n r.w.w.w.w.v c c w.w.w.w.w.w.w.w.w.w.0.0.0.0.0.0.0.0.0.0.0.0.0.:.0.{ p { :.{ :.,.,.,.,.,.:.} } :.} } :.} } } } } { } } { [ [ { :.:.:.:.:.:.:.{ { :.{ { :.{ { { { [ p p a a p p r q q q t t t r 7 7 5 5 7 4 4 7 2 2 2 2 3 3 ; ; $ $ % + o o + + % o . . . . . .         ",
"        . . . . . . . % o . o + + + + + % % # # $ $ ; 3 3 3 > > > > > > > 3 4 4 : 5 r t t r t t u p p p p p p p [ [ [ { { { { { { { p u u [ { { [ [ [ [ ] ] ] ] [ ] ] [ [ [ [ [ [ } } ,.,.,.{ u { { { { { { { { { [ [ { [ { { { { j 0.0.0.0.v v v v n n M G B.B.G G H Q T Q W E T %XgX*XV F U ) =XfX#XC ^ R R H Q R Q Y.Y.V.B.G G B.G r.r.r.r.r.r.r.r.n n v v b c v e.w.w.w.w.w.w.w.w.w.w.w.w.w.0.w.w.q.w.0.q.q.:.0.a u { :.{ :.| | | | | | | [ | [ [ [ | | | | } | } } [ ] ] [ [ [ [ [ [ [ [ [ ] [ ] ] [ p u u u u u u u u u u q 5 5 5 r t r 7 5 5 4 4 5 4 4 7 7 2 2 3 3 ; $ $ $ $ # + % o o + o o . . . . . .         ",
"            . . . . . . o . o o + + + + @ @ # # $ $ $ $ ; ; ; ; > > 1 4 4 4 5 5 : 1 5 5 5 q r t r r w w w t t t t u u u u u p p p p p w w p u u u u u ] ] [ [ [ [ [ [ ] [ [ [ [ [ [ [ [ { { p u [ ] ] ] [ [ [ ] [ [ [ [ [ [ [ a a a { 0.0.c v v b n n n G G G G G H H Q U F W U ) sXlX_ V F ^ L .XkXdXI F H W W T U Q Q V.G G G m G G M r.e.n M n m n n b b e.b b v v w.b v v b b b b x b b c c x x c 0.:.:.:.:.:.a y t [ [ p p [ [ [ [ [ [ [ [ [ [ [ [ [ ] [ [ [ ] [ [ [ u w [ [ [ [ ] ] u u u u u u u u u u u u u u u u u u u q 1 q q 5 r q 5 5 5 5 4 4 1 1 : > : ; ; $ $ $ $ # # # + % + + o o o . . . .             ",
"            . . . . . . o o o % + + + + @ @ $ $ $ $ $ $ $ ; ; ; : : > 1 1 1 4 4 1 1 5 q 5 5 q q r r t r q q t t t t t t t t w w u u u w w p p p u u u u u u u p p p p p [ p [ [ p p p p { a p t [ ] [ p [ [ p a a a a a { a { j j j 0.0.0.c b v m l z G m G Y.G G H W U U ^ E A @XfXxXV A ! U ) I &XkX$XV ! U Y Y Y R Q W W H D H G G m M r.M m M M n n m n v e.b v v v b b v b v w.v b b b v b x x c 0.c :.:.{ a y y t { [ p p [ [ [ ] ] ] ] u ] ] u u ] u [ [ ] u p p p u w p p p p p u u u u p u u u p p u u u u u t w w w w q 6 q r q r q q 5 5 5 4 4 4 4 3 > > ; ; ; $ $ $ $ # # + + + + o o o . . . . . .         ",
"            . . . . . . o o o o + + + + @ @ @ # $ $ ; ; ; ; ; ; > > 3 3 4 4 4 4 1 5 7 r q q q q 5 q r r q q q r t t t t t t u q u u p q q p p p p p p p [ [ p p p p [ [ [ [ [ p [ { p p a a p t { { { a { { { a a a a a a a j c c x c b v v v M n m N G G G D D Y.H E Y Y U F ~ aXgX.X* T ! ^ ^ L .XfXjX` C P P S L A Z F F D H G G G D G m M M m m G M n M M v v n n n n n n n v e.e.v v v v v v v b 0.c c 0.j j y y t a { [ [ [ [ [ [ [ [ [ [ [ [ [ p [ p p p p p [ p p u w p p p p p p p p p p p u u u u u u u u u t t t q q q 1 q q 5 q 5 5 5 5 4 4 4 3 3 3 > > ; ; $ $ $ @ @ # # + + + + o o o . . . .             ",
"          . . . . . . . o . o o + + + + @ @ @ $ # $ $ $ ; ; ; ; > > > > > 3 4 1 - 1 4 5 5 5 5 5 5 5 q r r q q r q q q t t t t q t t u q w u u u u p p p p p p p u u u p p p p p p a p a a a t r a a a a a a a a a a j j a a c c x x x b v v n n M m N D D D Y T T F A P P I _ #XhXsXC Z U ! ^ U ! L &XgX-X*X*X$X#XXX.X_ ) L A F Z D D G D N G M G m m m m M M n n m M m z z n n n e.e.n M n n v v v v v b b c c a y y t a { p [ p p p p [ p p p p p p [ [ [ p u p p [ p p w w p p p p p p p u u p p u u u u u u t t t t q q w q q 6 q q 5 q 5 5 5 4 4 4 3 3 3 3 > > ; ; $ $ $ $ @ # # + + + + o o o . . . .             ",
"              . . . . . o o o o + + + % # # # # $ $ $ $ ; ; ; ; ; > > 3 3 3 3 3 - : 1 4 4 5 5 5 5 4 4 5 r q q q 5 q q r t t t t q q q q q u u u t u u u u u u u q q t t u p p a a a a a a a p t j j a a a a a y y y c c c c g c c x x b n n M M G G m G D Z C C L _ OX#X*X;XjXfXkX#X* F / ^ Y ! ! L _ sXkXfXkXkXlXkXkXhXsXaX-X&X*X.XZ D D G G B.G G G m G G N m N N N m m m m M n M M M M z m n v e.v v b b x c y y y y a a [ [ p p p p u u w q w w u p p p p p p p [ p p u w u p u u u u u u u u u u t t t q q q q q q q q q q 5 6 5 5 5 5 4 4 4 4 4 3 3 3 ; ; > : ; ; $ $ $ @ @ # # @ + + + + o o . . . . . .         ",
"              . . . . . . . . o o % + + # % # # $ $ $ $ ; ; ; ; ; ; ; ; ; ; : : - ; : 1 1 1 1 1 1 : 1 1 5 1 1 5 1 1 6 q q q q q 6 6 q 1 q q q q q q q q w w w w q q q q q t u p p p p t p y t r y a a a y y y y y y y y y y g g g x x l n n n z N D = U _ XX#X=XaXlXkXgXgXhXjXaX$XC V F E U Y Y T L I I ` .XOX#X*X=X-XsXhXhXhXhXhXaXA D T D G G G D D G D N D N N N N N m m m m z z m m z z z n n n n b l l x j y y y t y p u u w w w w w w w w w w w w w w w u u w w q w w w q w q q q q w w w w w q q q q q 1 6 6 6 5 5 5 5 5 6 - 6 6 1 1 : : - - - - - - - - ; ; ; # # # # @ @ + + % o % o o o . . . . .             ",
"              . . . . . . . . o % % O + + # @ # @ @ @ @ # # # # # # # $ ; ; - - - - - : : : - - 1 1 1 1 1 < 1 6 1 1 1 1 1 1 1 1 q 1 q 1 1 q 9 q q q q q q q q q q q q q q q q q t t r r t t y t y y y y y y y y y y y y y g x x x l l l z z z z D = XXaXfXkXkXfXkXdX=X$XOX) P V * V L T U U T U T ~ L L S S V V V V V S C I $XhXkX.X* D D Q D D Z Z = D D D G D N N D G D D N N D N N N N z N m z z n b l l x g g y y 7 t u u w w w w w w w w w 9 w w w 9 9 w w w 9 9 9 w w 0 w w w w w w w w w w q 9 9 9 9 q 1 1 1 1 1 1 1 1 1 6 : 6 6 1 1 : 1 : : ; - - # # # ; ; ; # # # # @ @ + + @ o % o o . . . .                 ",
"              . . . . . o o o % % % % % $ $ # $ $ $ $ $ $ ; ; ; > > 3 4 7 7 4 4 4 5 5 5 7 7 r r 5 5 q r 1 < 1 q t t t t t t u u u t u u p p u a p p p p p p p p t t p a j :.j j :.j j y j c c c c w.w.v b b v v v v b x x x b v n n m M m m G G G Z #XkXgX-X+X.X` P V V V S Z A T L Y ( Y ^ E E / ! ! ! ( / ( ( ( ~ ^ T C OXhXgX@X* = H Q H H H ! %X@XA F U Q Q Q Q Q H H H D D D D D D D D D D D D m M M m n v w.w.b c 0.:.{ :.:.:.{ { [ [ p p w u [ { { [ [ [ [ p p u [ { p [ [ a [ a a [ [ [ p u u q q w u u p p u t t t t t t 5 r r r r r 7 5 5 4 3 : : ; - > > ; ; ; ; ; $ # @ # @ + + + + o o . . . .   .         ",
"          . . . . . . . o o o o + + + # $ $ $ $ $ $ $ $ 3 3 3 2 7 7 4 4 4 7 7 r r t t t t t t t p t p a p t q t p a a a p p a a p a [ a [ [ [ [ [ [ [ { { { :.:.a u a :.:.0.0.w.w.0.c c c c w.e.w.w.w.w.w.v v v v v v b b r.r.r.r.r.B.G M B.B.B.G T L #XhXjX#X* C A T ~ ~ ~ ! ^ ! ! ^ / ( ( ^ ^ W.W Y ^ ^ / ! ! ! ( ( L #XhXgX+X* D D W Y.Y.Y.D @XkXfX&X_ L ! E E E W W W W W W W W W W H D D Z T T D G M M n v w.w.w.0.0.0.:.:.{ { { { :.:.:.:.u [ { { :.,.,.,.{ [ [ [ [ { :.:.{ { { { [ [ [ p p p p w { { { { :.{ p p u t t t t t t t t t t t r 5 7 4 4 3 - : 3 4 2 2 2 3 3 ; $ $ # # + + + o + o . . . . . .         ",
"            . . . . . . o o o o + + + + # # # # $ $ # # ; ; ; ; > > > > 1 4 5 5 5 5 q q r r r r r q t t t q 1 t q q w t w w w t w u u u u u u u w u p p p p p p p q p a a a a j c c c c c c b c v v v v v v b b v n n b l M M M r.r.M M M M M B.H F A P @XkXfX&XL ) ~ ! ( ( ^ U ! ! E / ^ E Y E W / E Y R / ^ ! ~ ~ L OXjXgX#X* Z H H W Q Q Y.F .XhXhXgXdX@XL A U R R W W W R Q R T E U F S ) #XaX%XN J n r.n v v b c c { { { a [ [ [ p p p p p u [ [ [ [ [ [ [ [ [ ] ] [ [ [ [ [ [ [ [ p u u u u p u w [ p p p p p u t q q q q q q q q q 5 5 5 5 5 q 4 4 1 - 3 > > > > ; ; ; $ $ # # @ + + + o o o . . . . . .         ",
"            . . . . . . o o % % + + + + + + # # $ $ # # $ ; $ ; > > 1 1 1 1 5 5 5 5 5 q q q q 5 r q q r w q 9 u t t u u u u u u u u p p p p u u p p p p p p p p p t p a a a a j c c c b v v v v b b v v v v n b n M m n l M M M M M M m G G G G G D U Y A @XdXfX=XI L ( ! ! U / / / W W E Y Y Y E E R E W./ R ! ) P .XdXfX$X* Z F Q T T T T Q F _ fX-X*XfXkX-X.XL U U R R R R U U Y A A _ $XjXhXkX&X= G M n n v v b b c 0.{ a a [ [ p [ p p [ [ w ] [ ] [ [ ] [ [ ] ] ] [ [ ] ] ] ] ] ] ] u u u u u u w p p u u u u u t t t t t r r q q r q q q 5 5 5 1 4 1 - 1 > > ; ; ; ; ; $ $ @ @ @ + + o o o o . . . . .           ",
"            . . . . . . o % % % + + + + + + # # $ $ $ # ; ; $ ; > > 1 1 1 1 4 5 5 5 q q q q q q t q r q q q 1 t r r u u u u u u u u u p p p u u p p p p p p p p p t a a a j j c c c b b v n v M M n M M M M M M M M M M z m M m M m G G D D D D H W Q R U L .XdXkX-X_ L ! ( / T / ^ E E R U U Y U E E ^ ( E / ( L .XdXfX&X* Z W Q R T T Y T R T ` dXsXP .XaXkXlX%X) S ~ ^ R Y T A L XXxXlXkXhX;XhX#XB G M M M n v v b c c a a a [ [ [ p p p [ [ w ] [ [ [ [ [ [ [ [ [ [ [ [ [ ] ] p [ [ ] p ] p u p u w p p u u u u u u u u u t q q q q q q q q 5 5 5 1 4 1 - 4 > > ; ; ; ; ; $ $ @ # @ + + + o o o . . . . . .         ",
"            . . . . . . o o o % + + + + % % $ $ $ $ # # ; ; ; ; > > > 1 1 4 4 4 5 5 5 5 5 5 5 5 r q r r q 5 1 q t q q t u u t t u u u u u u u u u u u u p p p p a t a a y j y c c b v v n n n n n M M m M M M M m m G m z G G G G G G G G G Q H Q D W Q / Y S _ aXfXaX.XL ( ~ ~ ! ~ Y Y Y U U U T Y ! Y ~ ^ ~ L .XsXgX&XV Z F U E U T U Y U R T I sXkXP V I #XlXkXaX@XL L L P ) #X-XlXlXlX#XI -XkX_ B J G G M n v v b c c j j a a [ [ p p p p p w p [ p [ ] u ] [ p ] p p p p p p p p p p p u p p p u q u w u u t t t t t q w q q q 5 5 5 5 5 5 5 5 5 4 4 1 - 3 > > ; ; $ $ $ $ $ $ # @ + + + o o o . . . .             ",
"            . . . . . . . o o o o O + + + % # $ $ $ @ @ ; ; ; ; ; > > > > 1 1 1 4 5 5 5 5 5 5 5 5 5 r r q q 1 q t t t t t t u u u u u u u u u u u u u u p p a a a t a j j c c b v b b v n m M M m G G G G G G G G G G G N G G G G Q D D Q H D Q T R W W R ^ ! L _ -XgXsX.XL ~ ~ ~ ~ Y Y Y Y R E Y Y Y Y ! ! L _ aXhX=XC * F U ! Y U T U R R R ~ I aXkXI S ! P .X=XfXkX&X.X_ %XdXkXkXsX@XI * P lXdXC = G G m m m v v b c c j y a a a p p p p p p w p p p [ [ [ [ p p u p u p p p p p p p p u p u u u u 9 u w u t t t t t t q q q q q q q q q q 5 5 4 5 1 1 : - : > > ; ; ; $ $ $ $ # @ @ + + + o o o . . . .             ",
"              . . . . . . . o o o o O o % + @ @ # $ @ @ $ ; $ ; ; ; ; ; ; : : : : 1 1 1 4 1 1 1 4 4 q 5 5 5 1 q q q q q q q q q q q q q q q q q q q q q q t t t t r p a j c c v v b b n n m m m G G G G G G G G G G D D D D D D D D H Q D D D T U F F U F T T T L I =XgXjXOXP ~ ^ ! U Y Y U R R U U Y ~ U T ` -XgX=XC V F U Y T T T R R U Y Y ~ P =XkX.X* ~ ~ P P #XdXkXsXsXgXfX=X.XV * V V OXfX=X* Z G G m z n b b x g y y t t t q q q w u u u q u p p p p p p u u w q w u u u u u u u u t u t q q q 1 q q w q t t t r r q q q 6 6 6 6 1 1 1 1 1 : 1 : : ; # ; ; ; ; ; $ $ $ $ @ + + + % % o o . . . . . .             ",
"                . . . . . . o o o o o o o o % % @ @ @ @ # # # # ; $ ; # # $ - - - : : : : : : 1 1 1 1 1 1 < - 1 1 1 9 9 9 1 1 1 q q q q q q q q q q q q w q q q t 5 t y y y y x x l b n z z = = N D D D D D D D D D D D D D D D D D F Z Z XXXXL F T T F U U T T ~ L P *XhXhX` A R R U T T U U R U U T T ! L I jXhXI * F U U F U T F Q H U T T T S &XfXOXV ( T Y I C ` *XfXhX*X` * * Z F T S $XgX@XB D D D N z z b b x x y y y t t t q w w w w w 9 w w w w w w w w q q q w w w w q q q q q q q q 9 q q < w 1 1 1 q 6 5 6 1 1 1 1 1 6 1 1 1 1 1 1 : - : - - # @ - - - # # # # @ @ @ + % % o o o o . . . . .               ",
"              . . . . . o . . o o o o % + + @ @ # # # $ $ ; ; ; ; ; - ; ; ; - - - - : 1 < 1 1 < 1 1 6 6 5 q q q w w w r t t u u u t u 9 < q w w w w w w w t t t t p a a y x x b b n n n z = @X@XL V D H D H H Q D D Q H H G W F R F C I *XfXlX) Z U T T T U U U ! ! L I -XfX) Z ^ T ! Y T U ! R R U T ~ ~ L P =XfX.XV ! ! Y Y U W R R U U U ! ~ L %XfX+X* Y T Y L I P P _ I * * S T T ^ L I -XhX) * D H D G G n M v x y y y y p u u u u u u u u w w w w u u u u u w q q w q q u u u u q q q t u w w w w q w w t w q q q q q q 5 1 < 5 6 1 5 1 1 1 1 1 : : : : - - - - - $ $ # # @ @ + % o o o o o o . . . .             ",
"            . . . . . . + o o % % % # $ $ $ $ $ 3 3 3 3 3 2 7 7 7 7 7 7 7 7 7 7 : : 5 r r t t t p p p p p p p p p p p p p { { { { a { u q p p p [ [ [ [ p a a j :.0.0.0.b v w.v n M M G Y.^ aXgXsX#X) A T U U T / R W W W W ^ ^ T ) $XhXhXgXdXI Z U T ^ ^ / / ( ( ( ) _ dXdXL A ( ( Y ! ( ^ / ( ^ ( ( ! ! ~ I *XkX#XS ( ! ! ^ / / E ^ ( ( / ^ ( ~ #XgX$XC ( ( T ~ ! ( ! Y T T ( / / ( ( ~ .XjXsXL = Q Q Q Q G B.r.M v x v c c :.:.{ { { { { { :.,.:.:.{ { } } } { { :.:.:.{ p [ { { { [ [ [ a { :.{ { { { { { :.{ a p p p u u t q 5 t t t t t t t t r 7 5 5 4 4 4 4 4 3 3 3 3 3 $ ; $ # + # # + % + . . . . . .         ",
"            . . . . . . + o o % + + + + @ # @ # $ $ ; ; ; > > 3 4 4 4 7 7 7 7 7 : : 5 5 5 r t r t t t t t t t t w u u u u u u p p u p w q t u u u u p p p p a a j j 0.0.c v v v n M M G G Z =XhXhXhXdX#X` C L ! U E U W W U L I @X-XhXjX*XjXdXC Z T T ^ W W ^ ^ ! ! ~ .XhXaXC F / / E E ! ~ ! ^ ^ ! ! ) ! L L @XkX&XC ! Y ! E W E E Y Y / ( ^ ( L @XgX*XV ^ ( ( ! ! ^ ( ^ ^ ( ^ ^ ^ ( ! L @XkX=X* D Q H Q G G G M n v x c c j a a { p p p a { { [ [ [ [ [ [ [ [ [ [ { { { [ u [ [ [ [ p p p p [ p p p p p p p p p p u t q q q r 5 6 q q q t r r 5 5 5 4 4 4 1 : : : ; ; ; ; ; ; $ $ @ + % + + o % o . . . . . .         ",
"            . . . . . . o o o o + + + + @ # @ @ @ @ $ $ ; ; ; ; : > > > 3 4 4 4 1 1 5 5 5 5 q 5 q q q q q q q q w w w w t t u u u u u w q t u t u u u p u p p a a a a c x b v v n m m G H Z %XhX*X*XfXfXdX$X_ S L ! ! U T L .X=XgXkX-X` ` hXxXV A R U E W W R R U ~ P OXgX=XV U / U ( ( ! ! ~ ! ! ^ ~ ! ~ ~ ~ .XfXsXS A ! ^ R W T Y Y Y ^ / ~ ~ P OXkX=XV ^ Y Y R ^ E R ^ ^ Y Y ^ ^ ! ! P &XlX#X* Q Q H G G D m M n v x b c j y a { a a p p p u [ [ ] ] u ] ] ] ] ] ] ] [ ] w [ ] ] ] ] u u u u u u u w u u u u u u t q q q q q 5 1 q 5 5 q 5 5 5 4 1 1 4 4 1 3 : : ; ; ; $ $ $ $ # @ + % + + o o o . . . .             ",
"            . . . . . . o o o % + + + + % % @ $ $ $ $ ; ; ; ; ; > > > > 3 3 4 4 1 1 5 5 5 5 r 5 q q q q q q t t t t t t u u u u u u p t q p p u u p p p p p a a j j c c x b v n m m G G G Z OXgX&XV _ &XlXgXhX*X.XP L L ) &XgXgXdX@XC * .XkX&XV F W T Y U R W W / ^ P @XgX$X* U ^ ^ / U ~ L L L ~ ! ! ( ! ~ ~ ) aXkX) Z ^ Y E ^ ^ U Y ! ! ^ ^ ) P .XgXaXS F ( / R W./ U E E U ^ ^ / ^ ~ I aXkX.X= W Q Q G G G G M M v c v c c y a a { { { [ p p [ [ [ [ [ [ [ [ [ ] [ ] ] ] u [ [ [ [ [ [ [ ] ] p p p p p p u u u t t t t t t t q 6 r 5 5 r 5 5 7 5 5 4 4 3 3 : 3 3 ; ; ; $ $ $ $ # # + + + + + o o . . . . .           ",
"            . . . . . . o . o % + + + + + + @ @ $ $ $ $ $ $ ; ; ; > > > > 3 3 3 : : 4 5 4 5 q 5 5 q q q q q t t q t t t u u u u u u p w q t u u u u p p p p p a j j c c b b n n z m G G H F _ lXaXC C A _ $XhXhXfX=X.X#XdXlXfX#XP * Z S #XkX$X* F R T U U R E W / ^ P $XgX+XV U ( ! ) ~ L .X&X&X.X~ A ~ ) ~ ! L &XkXXXV ^ E Y Y ^ U Y U ! / ~ L ` &XhXsXS F / E W E E E E E E U R ^ ^ L _ dXsXC Z Y.T U D G G m m M n x b c c a { a a p p p [ p u p p p p p p p [ ] [ [ [ ] w p [ p p p p p p u u u u u u u u u q t t t t t q q 5 1 5 5 5 r 5 4 5 4 1 1 3 3 3 : ; ; ; ; $ $ # # @ # % % % + o o % o . . . . . .         ",
"            . . . . . . o . o o + % % % % % $ $ # # $ $ ; ; ; ; > > > 3 4 4 4 4 4 1 5 5 5 5 7 5 5 q q q q q q r t q t t t t t u u u p t q t u u p p p p p p a a y j c c b b n z m m G G G F I aXlXI A ( F S .X$XdXgXhXhXkX&X` * V T U L &XfX@XV U R U E E Y U E / ! P &XgX.XV ! ^ ~ P ` $XfXlXlXdX&X.XI A ~ ( L #XgX%XV ! / Y Y R / / / / ! I _ -XgXdX_ V R U ^ U U ^ E T U ^ ^ / ^ ! ~ OXkX-XC Z W U U Q G G m m m n l b b 0.{ :.a a a p p a p p p [ [ [ [ [ p p p p p p u q p p p u u p u u u p p p u u u u u t t t q q q q 5 6 1 5 5 5 r 5 5 1 1 : : 3 3 3 3 3 ; ; ; ; ; $ $ # $ # + + + + + % o . . . .             ",
"            . . . . . . o . o % o o + + + + + @ @ @ @ $ $ $ ; ; ; ; ; ; > > 3 3 : : 4 5 5 5 7 7 5 5 q q q q q q q q q q q q t t u u p w 1 q u u u u p p p p a a t y y x x b n z z N m G G F P &XlX.XV / / / A C I $XsX-X.XV V A A ~ ! L =XkX.X* T U T U U U U R R U P =XfX` V T L L #XsXkXlX$X$XfXfXlX&X.XP L L OXfXxXC F ^ U U R ! ^ ^ ! L .XaXkXaXI * A R E T T T Y U E E E U R ^ ! L _ dXhX*XC Y T D Q G G G m m z l b c 0.{ { a a a a p u w w w u u u u u u w w w q q q q p u t t t u u t q q w w q q q w w q q q 9 6 6 6 6 1 : 5 5 4 5 1 : 1 : : - ; - - # - # $ # $ # @ @ @ @ + % o o o o % o . . . .             ",
"                . . . . . . o o o o o + + + + + + @ @ @ $ # # $ # $ ; ; ; ; : : - - - 1 1 4 4 4 5 5 1 1 6 6 1 6 1 6 q q q q q w w w w w q w q q w w w u u t t t y y c x x l l z z m G D D U S $XkX#XV ! U ! ! ~ A S P C * S T U Y ~ L I -XfX) V T Y T T U T T F U A I aXkXI V P .X=XgXgX=X_ * V I $XdXgXgX=XOXP I jXfXP S U Y T ~ F ! ~ C OXhXgX=XP * A F ~ ~ T T L T U U U U U Y U ! ~ S .XdXgX$XC T H D Q D G m z z l x c c a a a p u u u w q w w w 9 w w w w w w w w w w q q q q q q q q q q q w q 9 q q q 9 q q q q q q 6 6 < 1 1 1 1 1 1 : 1 : : : : ; # ; $ $ # # # # @ @ + + + + O o o o . . . . . .             ",
"              . . . . . . . o o o o o o + + + + % + @ @ @ # # $ # # - ; ; ; - - - - - 1 1 1 1 1 - < < < 1 < < 6 1 1 1 1 6 6 6 9 9 9 w 9 9 q q q 9 9 w w w r r r t t g g x l l z z z G H D F S .XgX=XV T U U T T ! T T L A T ^ U T ! L I sXsXL S T L A T T T R U U L I fXsXC I &XkXfX-X.X* * S A A V I #XaXkXkX-XOX;XgX` V U T T T ~ L C $XfXgX*XC V A T T T T ~ T T T T T T U T T Y U ! ~ L OXfXgXOXS R D D G z z z l l x x y y s t t t w w w w 0 w w 9 w w w w w w w w w w q q q q q q q q q q q q q 1 q 9 9 9 q q q 9 1 1 1 1 1 6 6 6 1 1 1 : : - : - - - @ # # # # # # # @ @ + + + + o o o o . . . . .               ",
"            . . . . . . o o o % % % # $ $ $ $ $ $ $ # # ; ; ; 2 3 3 4 7 7 7 7 7 5 7 r r r r r r r t t r t q q t p p p a a a a p [ { { { :.:.:.:.{ { :.:.:.0.0.0.c j w.w.v M M G G G H Q W E Y _ jXsXL T ( ( ! ( ( ^ ^ ! U ^ ^ ^ ( ! ~ .XfXaXA A ^ ! ( ! Y E W.W / A .XkX;X+XjXkXdX%XP * F U ^ ^ ! Y L C ~ #XaXhXhX;XhX@XV W.E ^ / A I *XgXfX#XV S T ( ( / / / / ^ ^ ^ / E E E E ^ ^ E E W.U P #XgXgX.XL E Y.Y.E.B.B.r.M r.r.w.w.w.0.0.0.:.:.:.:.u [ { { { { { { { { { { { { { { { { { { [ [ [ [ p p p q p u p p p p p p p u t t t t t t t r r r r 7 7 4 4 3 ; 3 3 3 3 3 3 3 ; ; # # % % % + + + + o . . . . . .         ",
"          . . . . . . . o + % % % % % # $ $ $ $ $ $ # # $ ; ; 3 3 3 4 7 7 7 5 5 7 7 r r r r r r t a p p t q q t u p p p p p p p p p p p p a p u p [ [ [ a a j j c c w.r.r.r.G G G Y.Q W W ^ ! I -XhX_ A ( ^ ( ^ ^ / ( ^ E E Y ( ( ~ ~ XXdX-XC T ^ ! ^ ! E E W W W.T OXfXjXhXgX&XI * = H D W W W W R R R R Z I @X-XgXhX=X= W W.! L ) -XhXjX.X* A U ^ / ( / / / / ^ ^ / / W ^ ^ ^ ^ ( ( W.W ( ! L $XgXfX_ A W Y.B.B.M M n n v v c 0.0.:.{ { { { [ p { ,.,.,.,.,.,.,.,.:.:.:.:.} :.,.,.,.,.:.:.:.:.{ [ a u a u p p u u p p p p p p t t r r r r t r r r 7 5 4 4 ; 3 3 3 3 3 3 ; ; ; $ $ $ # # % + + % + . . . . . .         ",
"            . . . . . . . o o o + + + + @ @ @ @ $ $ # # ; ; ; ; > > > > 1 1 1 1 1 5 5 5 5 5 5 5 q q r t r 6 1 t q q q q w w w w u u u p u u u u p p p p p a a j x j b w.v M M m G G Q W Q U ! P *XgX.XC ( / ( W ^ ^ Y Y Y ^ U ~ ~ ~ L #XkX$XB ~ ( ^ U U E R F E R Z #XkXkX-X_ * = D H W W H W H W Q Q U Q W F Z S XXxXXX= H W F .XaXgX-XI B A T ! ( / ! / ! ! / R E W W E E E E E ^ / W.Y.W ( ~ P &XfXsX_ D G Y.B.r.r.n v v b c 0.j a a a { [ [ u [ [ [ [ [ [ [ [ [ [ [ [ [ [ [ [ [ [ [ [ [ [ [ p p p w u w u w w w t t u t t q q 5 5 5 5 q 5 5 5 5 4 1 3 : # ; : : ; ; ; $ # @ # # # # + + + o o o . . . .             ",
"            . . . . . . o o o o + + + % @ # # $ $ $ ; ; ; ; ; ; > > 1 4 1 1 5 5 5 5 5 q q q r r q q q r r 5 q t t t t t u u u u u u u p u u u u u p p p p a a j x x v v n M M m G G Q Q T E ! C +XfX&X* Y / W / E Y Y T R ^ U ~ Y ) P $XkX-X) A ! ^ ( W E ^ U R R A _ xX@XV * Z H G H G W W G H W D D W H H V.Y.F Z Z = D H W ( dXgXjX*XOX.X) L L L T ~ ! ! ! ~ / / W W W E E E ^ / / W W.E ^ ^ ! I =XgXaX) D G B.r.r.n v v b 0.0.j a a [ [ [ [ u [ ] ] [ [ [ [ [ [ [ [ ] ] [ ] [ [ [ ] ] ] ] ] u p p w p u u t u u u u u t w q t r q q q q 5 5 5 5 5 4 3 3 - 3 : : ; ; ; ; $ $ # # # @ + + % o % o . . . .             ",
"              . . . . . o o % % % + + + @ @ @ @ # $ # # ; ; $ ; > > > 1 1 1 5 5 1 1 5 5 q q 5 q q q q r q 1 1 q q q t t q w w t u u p p u u u p p p p p a a a j x x b v n M M G G G Q Q U Y T ) =XkX&XC ^ / R E Y Y Y U R / ! ^ ^ U ! _ -XhXaX.X~ T / W T E R Q Q T U Z B Z Z F H H H H G G H G G H H H G H H H H H W D H D F ! &XsXfXkXkXfXsX=X$XOX_ I P A ! / / / ^ / E ^ E E E / W.W.^ E ^ E ! T I =XgX=XL D B.B.r.r.v v w.0.0.0.a a { [ [ [ u [ ] ] [ [ ] [ [ [ [ [ [ [ ] ] p p p p p p u u u u u w p u u u u u u u t t w q t r q q q q q 5 5 4 5 1 3 : - 3 : : : : ; ; $ # $ $ # @ % + + + o o . . . .             ",
"              . . . . . o o o % + + + # @ # $ $ $ $ # # ; ; ; ; > > > 1 4 1 5 5 5 5 5 5 5 5 q q q 5 5 q r 6 1 t t t t t u t u u q w u u u t u u p p p a a a a j x x b v n M m G G Q H Q ^ L ) xXlXdXL V U U ^ E Y Y E U R / ^ ! / / ^ L ` =XfXdX.XL U / U U R R W W H H H H H D H G H G G H G G G B.G G G G G H H G H H H W H F C P _ @X*XaXfXfXkXkXdXaX&X#X_ U ^ ^ ^ ^ ^ ^ ^ ^ Y Y T ! L L ) ) _ .X_ +X;XgX&XT G r.r.r.w.w.w.0.0.0.a a a p [ p w p [ ] [ ] ] [ p p [ p p p p p p p p p p u p u u u u w u u u u u u w q t t t t q q q q r r q 5 5 5 5 4 3 3 - 3 3 : : ; ; ; $ $ # # # + + + % o o o . . . .             ",
"          .     . . . . o o % % + + + % % % $ $ $ # @ @ # # # $ ; ; 3 3 4 4 1 1 1 1 1 1 : 1 5 5 5 5 r q 6 1 1 q t t t t t r q r t q t r t r q u t t t t y y y x b 8 b v n m G D G D H W T I =XkXaXI = D Y Y Y ^ R Q T T U U E E / ! T ( L I &XgXjXOXC ~ ^ R R Q W H H H H H G D G G G G G G G G G G G G G H G G G G V.V.H H H H U A Z V V S ) .X%X=XdXfXgXfXxXS ! ^ E E E / ( ~ .X$X%X&X=X-X-XsXsXgXhXgXhXgXzXXX= M r.r.0.0.b c g a y a a p p p u u p p p p u t w q p p u u u q u u u u u u u t q q q q t u t t q q r r r q 5 5 5 6 q 5 5 5 5 5 4 3 4 3 3 ; ; ; 3 ; ; ; ; $ # @ # # # % + + + o o o . . . . . .         ",
"                . . . . . o o o o o o o + + + @ $ # @ # $ $ $ $ ; ; ; ; : : ; ; : : : : : 1 4 1 4 5 5 q 6 1 1 5 q q q q q q q q 6 1 q q q q q q q q r r t y y y x l v l n z N D D H D F I &XhXsXI * D W ! Y Y U W R T T T U U R U ! ( F ( ~ P $XgXhX@XS T E R F H G G G G G G J G G J J J J J J M M J J J J J J J J J B.G G G H H H H Y.H F Z Z V C P ` OXfXdXI L U E ( E ^ ! ) aXgXkXlXlXlXgXhXsX-X-X=X=X&X%XZ = M v w.0.0.c g g a a y t u t u 9 w w q u t w q w w w u q q t t q q q q q q q q q q q 6 q q q 5 q q q 5 5 5 4 1 5 1 5 6 1 1 1 : : : : 3 ; $ # $ ; ; ; - $ # # # % + + % o o o o o . . . . .             ",
"                . . . . . . o o o o o o % + + + @ @ @ @ @ @ # # $ $ $ $ ; ; - - - - - : - - : : 1 1 1 1 1 < < 1 1 1 1 1 1 1 9 1 q 6 q 6 1 q 9 q q 5 q r r 7 t y 8 l g x n z z N G D T P &XfXdX` * Z Y T Y Y U Q Q T T T T T H H U U T ~ T ~ L P #XkXfX$XS F H H G G G J J J J J J M M M n n n n n n n n n n J J J J J J J J J J G G J H H H H H / F A C C &XlX$XV ( ! ! / ( S $XfX-X@XXX.X_ ) L L Z Z = B B B l n r.v w.w.b c g a y s t r w w w 9 w w w w w w 9 w 9 9 w w 9 9 w q q q 9 9 q w q q q 9 1 9 1 9 1 9 1 1 1 1 1 1 1 5 < 1 1 1 1 1 : - - - - - # # # @ @ @ @ # @ @ @ + + % o o o o o . . . . .               ",
"          .     . . . . . . o o o o + + + % # $ $ $ $ $ ; ; ; ; ; ; ; ; ; : : : : : 4 5 5 5 r r t r 5 1 5 q t u t u u u u u u u u t t q w p u u p p p a y y y x x b b e.r.M m G H F P &XkXfX` * A E ! ~ ! E E Q W E Y Y Y E / / ! ( ! ! ~ ~ ! ~ L #XfXfX&XL F W Y.H G G G B.B.B.B.B.B.B.N.N.B.N.N.N.N.N.n n M N.B.B.B.B.B.B.B.V.V.V.V.V.V.V.V.V.H / W.( A .XlXaXA ~ ( / / ~ .XsXkX.X* V Z Z D G m M M M Y.B.B.B.r.r.w.e.e.e.w.w.w.0.0.o.{ { { [ u u u u ] u u u u u u [ p w w u u u p u u u u u u u u u u u u u u u u t t r r r q 1 6 6 5 q 5 5 5 5 5 4 4 3 3 3 3 3 ; ; ; ; $ $ $ $ % + o o o o o o . . . .             ",
"            .   . . . . o o o o + + + % # # $ $ ; ; 3 3 3 2 3 3 > > > > > 3 4 4 4 4 7 r r r t t p u t r q u p p a a a p [ [ [ p p p p w u :.:.:.:.:.:.0.0.0.0.w.w.w.r.r.r.G G Q T L %XlXlX_ V A U E ^ / W.W.Y.W W / E E E E W.W./ U ( ( ! ( ( W.( A OXsXfX&X) F Y.Y.V.B.V.B.B.B.B.B.B.Z.B.Z.Z.Z.Z.Z.B.r.r.r.r.B.B.B.B.B.B.V.V.V.V.V.Y.V.V.W.W.W.W.W.W.W./ ) -XfX.XA ( W.W.~ &XgX&X* F Y.W.Q.Q.E.).2X).E.R.R.T.r.r.r.e.e.Z.a.e.a.e.w.w.w.q.q.q.q.q.,.,.,.,.,.,.,.{ { { :.,.p w [ [ [ [ [ [ [ [ p p [ { { { { { [ p p p p p p p p t 5 q q r t t t r r r 5 5 5 5 4 4 4 3 3 3 3 3 3 $ $ $ + + + + + o o . . . . . .         ",
"          . . . . . . . o . o o + + + + % % # # $ $ ; ; ; ; ; ; > ; > > > 3 4 4 : : 4 5 5 5 7 q q q q q q t u w u u u u u u u u u u p t u :.{ [ { p a a a a c c c b v n n B.G D S #XkXhX.X* S T / ( ( ( E Y.Y.W W E E E E E / / ( ! ^ ~ ~ L ~ K ~ ) I +XjXkXxX! G V.B.B.B.B.B.B.N.N.r.r.r.r.a.a.s.s.s.r.e.e.r.N.N.N.N.N.B.N.B.B.B.V.V.A.Y.Y.V.V.Y.W.W.W./ L #XkX=XS ^ W.! @XfXjX~ = W Y.R.R.R.P.8XFX8X9.Z.B.r.P.r.s.e.a.Z.a.e.w.q.q.q.q.o.{ | { | [ [ [ [ ] [ [ [ [ [ [ [ u w [ u p [ p p p u w u u p p p u u u u u u u t t t t t 5 q q r t r r 5 5 5 1 1 4 4 3 3 ; ; ; ; $ $ @ # # % + + + + + o o . . . . . .         ",
"        . . . . . . . . . . o o + + + + + % # # $ $ $ ; ; ; ; ; ; ; > > > 3 4 4 : : 5 5 5 5 q 5 1 q r r q t t q t t q q t t q w t u p w w p u u p p p a a a a c b b n n n G N Z #XfXjXOX* C S L L L L Y Y / W.W./ ^ E E E E / / ~ L L I ) _ .X$X&X-XjXjXhXkXzX( J V.V.B.B.B.N.B.N.N.N.N.N.a.N.N.N.N.N.N.N.N.C.N.N.N.Z.Z.Z.Z.Z.B.V.B.B.B.V.V.V.Y.W.W.L.W.W.! _ dXfX` F W.! xXkX#X* Y.Y.Y.R.R.R.P.2XFXDXI.P.Z.Z.r.s.s.u.u.a.w.w.0.O.O.o.{ | | { { | | [ [ [ [ [ [ ] [ u u [ u w [ p p [ p p p p u u u u u u u u u u u u u r r r r q 1 q q 5 5 5 5 5 q 5 4 4 5 4 3 : ; ; ; $ $ $ $ @ @ + + o + + o o o . . . .             ",
"        . . . . . . . . o o o o + + + + % % # # $ $ $ $ ; ; ; ; ; ; > > 3 3 4 4 1 : 5 5 5 5 r 5 q r r q q q t t t t t u u u u u t u p w w u p p p p p a a j c c x b v n M M D  XlXgXjXaXaXxX&X%X#X@X.X_ _ ) Y ^ ^ ^ E E E / / ! ) #X$X=XdXzXlXlXkXgXsXaX&X@X) = J V.V.B.B.B.N.B.N.N.Z.Z.C.C.C.C.Z.Z.Z.Z.C.C.Z.Z.N.N.Z.Z.Z.Z.Z.Z.B.B.A.A.A.V.V.Y.Y.W.Q.Q.W./ L &XkX$XS ! #XzXaXS D Y.R.R.R.R.R.T.U.9XFX8X9.!.Z.Z.s.s.u.t.a.w.w.w.q.q.O.O.o.| | | | | | [ [ [ ] [ ] { ] u [ p w a p p p u u u p u p p u u u p u u u u u r r r r r q 1 q q 5 q 5 q 5 5 5 1 4 4 4 : ; ; ; ; ; $ $ $ # $ # + + + + o o o . . . .             ",
"              . . . . . o o o o + + + + @ @ @ @ # $ ; $ ; ; ; ; > > > 3 3 4 4 4 1 1 5 5 5 5 5 q 5 r r r r r r r r r t t q q t t t t t q q u u u p p p a a j c c c b w.w.r.M G Y &XxXdXkXlXlXkXkXkXgXgXgXsXaX$XL ! ( E ( E / ( L &XfXkXfXlXdX&X%XXX_ A Z = B = J J V.B.B.B.B.Z.N.Z.Z.Z.Z.Z.Z.Z.Z.Z.Z.Z.Z.Z.a.Z.Z.Z.Z.Z.Z.Z.Z.Z.Z.Z.A.A.A.A.A.A.V.V.R.R.R.Y.W.E XXkXsXP ) sXlXXX= W Y.Q.R.R.R.R.T.x.2XFXGX5.G.G.p.s.s.u.u.a.w.q.q.q.q.O.o.o.{ { { { { { { [ ] ] ] [ p u [ [ p u u p p p p p p p p u u u a u p u t u u t t r r r t 5 4 5 5 5 5 5 5 5 5 4 1 4 3 3 : 3 3 3 ; ; $ $ @ $ $ % + + o o o o o . . . .             ",
"              . . . . . o o o o + + + + @ # # # @ $ $ $ ; $ ; ; > > > > > > 4 4 - : 4 5 5 5 q r q q r q 5 q q r q r t t t t q q p p u q q u p u p p p a a a j j c c w.w.e.n m D = C P L ) _ OX@X$X&X=X-XhXgXdX` ! E ( / W / ~ .XdXgX#X.XI S V * V V D H V.V.V.V.V.B.B.A.A.B.Z.Z.Z.Z.Z.Z.Z.Z.Z.Z.G.Z.C.C.Z.Z.Z.Z.Z.Z.Z.Z.C.C.C.Z.S.S.J.H.H.A.L.A.L.R.R.Q.Q.Q.W.( xXkX.X$XkX&XV H Y.Q.Y.A.R.A.A.~.!.P.2X].,.s.p.G.p.Z.a.e.e.t.q.q.q.q.O.o.o.o.{ { { { { { { [ { { [ [ p p p u q q u u u u p p u u u u t p w p u u u t t q q q q q 5 4 5 5 7 5 5 5 5 4 4 4 3 4 3 3 3 ; ; ; $ $ @ @ # @ + % o o o o o o . . . . .           ",
"                . . . . . . o o + + + + # # @ # $ ; ; ; ; ; ; > > > > > 4 4 4 4 - : 4 5 q q r r 5 5 5 5 5 5 5 r q r t t r r r t 5 q q q q q w q t t t t t t y y y y x b n m z G G D D D = = = = = Z S A P &XkX&XZ W.W./ W ( L &XkX$X* V Z D F R H V.V.V.V.V.V.V.B.B.Z.B.B.Z.Z.Z.Z.Z.Z.Z.Z.Z.N.a.C.C.C.C.C.S.H.K.'.'.,X3X4X5X6X6XuXyXyXcXUXUXUXnXnXnXnXUXQ.W.Q./ #XfX;X;XfX_ V Y.W.W.Q.'.H.A.H.S.Z.Z.r.w.e.Z.s.s.a.e.#.#.e.u.w.o.O.O.O.o.X.i i i i p p u u p ] ] u p p p p w q w p p p p p p p p u t q q q t w t q q q 5 1 1 1 1 1 : 6 6 6 6 1 1 : : : : : : ; ; ; ; ; ; $ $ $ @ # @ + + + + + + o o . . . .             ",
"                . . . . . . o o % % % + + @ @ @ @ # # # $ # # $ ; ; ; ; - - - : - - : 1 1 1 1 1 1 1 1 1 1 1 1 5 1 1 1 1 1 1 6 q 6 q q 1 q w q w q q q r t t y y x x x x b n z m M G B.Y.Y.Q Q Q Y.Q Q W Z _ fXfX_ T / W./ Y ` dXlX_ V W W.W.Y.V.V.V.V.V.V.V.V.V.B.Z.A.Z.Z.Z.Z.Z.C.N.C.C.C.A.~.'.,X3X5XuXyXcXmXMXVXBXCXCXMXMXMXMXmXmXnXnXUXyXyXyXyXyXyXuXV.V.Q.H ) dXjXgX#XV H Y.W.Q.UXMXnXyXuX4X'.'.A.N.N.$.p.p.Z.a.a.e.+.+.+.o.o.O.o.X.X.| i i i i p u u u u u w w w w w w w w q q q w w w w w w q q q w w q 9 9 q q 5 1 1 1 1 1 1 1 1 1 1 1 1 : - - - - - # # # # # @ @ @ @ @ + % o o o o o o o . . . . .             ",
"                . . . . . o o o + + + % # # # # @ $ # # $ $ $ ; ; ; ; ; : > : : 1 1 1 1 1 1 1 1 1 1 1 5 1 < < 1 6 5 q q q q q w q w w w w q q w w q q r t t t y y y x x l b n n M M G G G Q Y.Y.E.E.E.E.Y.T %XkX=XS ( W.W.~ #XfX&XV D H W.V.Q.Q.V.V.V.V.A.A.A.A.A.A.A.A.S.S.S.H.'.,X4X6XyXnXMXMXCXVXMXNXnXyXuX6X3X3X,X'.K.H.A.S.C.N.N.N.$.n h $.N.N.N.N.J J Q.W.~ &XkXaXL D Y.Q.Q.R.4X5XcXNXVXBXZXAXmXyX4X'.H.*.#.#.&.i.u.#.#.u.O.O.O.X.X.X.X.i i i | | p p ] u w u w w u w w u w w w w w w w w q w 9 1 q q 9 9 9 q q q 1 5 1 5 1 1 1 1 1 1 1 1 4 1 : 1 : ; - ; - - - - $ $ $ $ @ @ + % O o o o o o . . . .             ",
"        . . . . . . . . o o o % + % % # $ $ $ $ $ $ ; ; > 3 3 2 4 4 7 7 7 7 7 7 r r t t t t t t t r t p t 6 1 q t p p a a a p p a { { { :.:.:.:.:.:.:.:.0.0.0.0.g c w.r.n r.r.B.r.B.T.T.E.E.R.E.R.E.P.).E.E._ dXfX.XT Q./ _ aXfXXXV W W.Q.Q.Q.Q.Q.Q.Q.Q.'.H.L.Q.A.K.'.'.4X6XyXmXMXMXMXMXmXyX6X5X'.'.H.S.N.N.$.$.*.$.$.$.e.a.N.a.N.N.N.Z.Z.A.A.A.A.A.~.A.R.R.Q.Q.W.XXxXXXZ Y._._._._.A.N.C.N.A.'.,X5XyXNXVXCXNXcX4X'.C.*.i.C.C.a.p.p.u.u.u.u.t.O.o.O.q.O.q.q.q.} q.q.,.,.,.,.:.,.{ { { { { { { { { :.a u { { { :.{ { { a a a p p p p p t p t t t r 5 5 7 4 3 : 3 3 3 3 3 3 3 3 3 $ $ $ $ + + % % + o . . . . .           ",
"          . . . . . . . o o % % + + % # # $ $ $ $ $ # # ; ; ; > > > > 3 4 7 4 5 r r r t t t t t p t p a p q q t t u p p p p u u w u u p [ [ { { [ [ { { a a a j g g w.w.w.w.e.e.r.r.r.r.B.B.T.T.Y.T.).bX9XP.E %XkX=XT W.! @XfXaXZ D W.W.Q.Q.Q.Q.W.W.L.A.K.'.'.3X6XUXMXVXAXMXnXuX4X3X'.A.C.*.$.$.$.e.e.a.r.Z.Z.Z.Z.Z.Z.G.H.~.H.G.~.R.~.~.~.~.~.~._.~._.`._._._.Q._.Q.Y.G Y.R._._._._.^.~.G.Z.N.e.e.e.$.C./.3X6XMXBXVXcX4XH.*.&.i.u.u.t.%.%.%.+.O.| X.O.O.| } } | [ { [ ] [ [ ] [ [ [ [ [ ] ] ] ] p { p w { { { { p p u u u t t r q q q q q q q q r 5 5 7 4 : : 3 ; ; ; ; ; ; $ $ # # % + + + + o + o . . . .             ",
"          . . . . . . . o o o O + + + % @ # $ $ $ ; $ # ; ; ; ; > > > > 1 4 4 4 5 5 5 5 q 5 5 5 q 9 q t t 1 1 t t t u t w w u u u u u p p p u u u p p p a a a y g y c w.w.w.e.e.d.r.r.r.B.B.T.T.R.T.7XFXbX9.Y.( aXkX@XA I xXkX@X= V.Q.W.Q.Q.L.L.W.Q.oX4XyXmXMXAXMXnX6X4X'.H.N.$.$.$.e.e.Z.Z.G.G.!.!.!.!.~.~.~.~.~.~.~.~.~.~.~.~.~.!.~.~././.~.^._._._._._._._._._._._._.R.^._.~.^.R.^.R.R.!.~.!.!.Z.Z.a.#.@.$.C.'.5XNXCXVX6XK.&.&.&.&.+.+.%.+.O.X.O.O.O.| | } | [ | [ [ [ [ ] [ [ [ [ ] ] u ] ] u p p w { [ u u p u u w r u r r q q q q q q q q q 5 4 5 4 : ; 3 ; ; ; - ; $ $ $ # # + + + + + o o o . . . .             ",
"            . . . . . . o o % o + + + + + + @ @ # $ $ @ $ ; ; ; : : > 1 1 1 4 5 5 5 q q 5 5 q q q r r t q 6 9 t t t u u u u u u u u p u p p p p p p p [ { { { a y y c b w.e.e.e.e.r.r.r.r.B.Z.T.R.P.9XFX8Xj E.Y #XfXaXP .XlXdXL D Q.Q.Q.Q.'.oX4XuXnXAXAXNXuX5X'.A.N.$.v e.Z.e.Z.A.~.~./.~./././././././.~.T.T.T.T.T.~././.~.!.~.~.~.!.^.~.^.~.R.R.R.R.R._.`._._._._._._._._.^.^.^.~.^.R.~.Z.~.G.G.Z.G.G.G.Z.p.u.+.f C.,XyXBXBX6XH...=.&.%.O.t.O.O.+.O.O.} | | } | | | | [ p ] [ [ p p p p p u u u u u w p p p u u u u u u u q q q q q q q q q 5 5 5 4 5 4 : : : ; ; ; ; $ $ $ # # @ + + + + + + o o . . . .   .         ",
"            . . . . . . o o % o o o + + + + @ @ $ $ $ $ ; ; ; > > 1 1 4 4 5 5 5 5 5 q q q q q r q q r t t q q t w w t t t t q w u u p p p p p p p p p p [ { { { y y c b w.w.e.e.e.e.r.r.Z.Z.Z.T.T.U.GXSXU.r.E.E ~ aXfX+X*XlX%X* Y.Q.'.3XuXnXMXMXNXuX4X'.A.N.$.C.N.Z.R.~.!.~.^.~.~.~.!.!.~.^./././././.(.~.|.vXvXvX<XT.~././.(.~.~.(.^.~.(.~.1XiXHXiXpXwX_._._.`._._.`._.[._.[.R.^.~.^.^.T.!.!.G.G.G.G.x.x.x.p.p.a.p.#.f -.'.yXCXCX4Xm.@.&.%.%.%.O.+.%.O.O.} } } | | | | [ p p p p p p p p u u u u u u w u w u q u u t t w w w q q q q q r q 5 5 q 5 5 4 4 : - : > > > ; ; $ $ $ @ @ + + + + o o % o . . . .             ",
"            . . . . . . o o o o + + + + + # @ $ @ $ # # $ $ $ ; : : : > > > 1 1 4 4 5 5 5 5 5 5 5 q q r q 1 1 q t t t t t t t u t u u u u u u u u u u u p p { a a s g 0.0.w.w.w.e.e.r.r.s.r.s.Z.s.2XFXGX9.r.R.Q.W @XlXsXjXdX! D W.Q.4XNXMXuX4X'.S.b.N.N.N.~.H.~.~.~._.`.`.^.^.R.1XiXvXiX|.~.(.(.(.~.(.(.<XPXKXKXKXKXeX~././././.(.!.~.^.~.rXLXKXKXKXKXKXNX[.[.[.[.[.`.{._._._.^.^.^.T.R.^.!.!.!.G.G.G.s.s.p.p.p.a.p.u.a.C.f ..'.cXZXcXF.#.#.+.@.X.@.+.+.O.O.} | | | | { { { [ p p p p p p p p p p p p w u u p u u u t t t t t t q 5 5 5 5 5 5 5 5 5 4 4 1 ; - - ; ; ; ; $ # # # # # + + + + o o o o . . . . . .         ",
"              . . . . . . o o o o o + + + + @ @ $ $ $ $ ; ; ; ; > > > > > > 1 1 4 5 5 5 5 5 5 5 r r r r q 5 1 q q q q q q q q q t w u u u u u p u u u u p p a a g i o.0.0.w.w.w.e.e.a.r.s.s.s.P.d.2XFX8X:.Z.R.Y.Y.E xXgXgX&XV V.Q.Q._._.A.N.N.N.N.A.A.R._._.~.`.`.`.`.`.`.`.~.wXLXKXKXKXPX4X~.`.(.`.(.(.IXKXHXqXiXKXKX`.~.(.~./.~.(.~.^.{.PXKXHXwXpXvXLXKXeXR.[.[.[.{.[.[.[.[.iXJXJXNX{.T.T.T.!.G.G.Z.Z.p.p.p.i.u.+.a.a.#.i.i.-.m.5XBXNXH.-.#.&.X.@.+.+.O.O.} | | | i p u u u u w w t t u w w w w u u 9 q q u w t t t q q w q q q 5 5 5 5 5 5 5 5 4 4 3 3 ; ; ; > ; ; ; $ $ $ $ # @ + + + + o o . . . . . .             ",
"                . . . . . . o o o o o o % % + + @ @ @ @ # # # ; ; ; $ $ $ ; - ; ; : : : : 1 1 1 1 5 1 1 6 1 < 1 6 5 6 q q q q q q q 9 q q q q q q q r r r r u i i s g a a :.0.0.w.w.e.e.e.s.s.r.s.P.2XU.w.T.E.E.R.W XXlXlX_ D Y.Q._._.V.N.A.R.~._._._._.~._._.^.^.`.`.`.`.`.|.PXKXHXrXHXKXJX^.(.(.(.^.4XKXPXT.v r.HXLXrXs.(.~././.(.~.~.rXLXJXT.r.T.r.rXKXPX^.[.|.{.{.{.[.{.HXKXLXKXKXPX{.T.!.T.Z.Z.p.p.p.a.u.t.u.u.+.+.+.+.&.&.-.h ,XBXNXJ.@.#.X.X.@.X.X.X.| | | i p u u u u t w q q q w w w w w q q 9 q q q q q q q q q q q q 6 6 6 1 1 1 1 1 : - - - - # # # ; ; $ # # # @ @ % % % o o o o o . . . . . .             ",
"                . . . . . . o o o o o % % + + + @ @ @ @ # # # # $ $ # # $ $ - - - - - : - - - : < 1 1 1 1 1 1 5 1 1 6 6 q q q q q 5 9 1 1 1 q q q q q r r r u u i i | { { o.o.o.q.q.w.e.e.a.s.s.r.s.d.w.e.B.Y.E.R.Y.Y %X#XV H R._.Q.Q._._._.^._._.R.^._._._.R._.`.`.`.`.`.^.eXKXJXB.b ^.PXKX{.T.{.(.~.rXKXHXr.E.R.iXKXpXw./.(.~.(./.^.R.eXKXvXM ^.[.|.[.JXKXiXE.|.|.1X{._.pXKXPXwX|.HXKXvXr.T.T.Z.Z.Z.p.p.a.u.t.%.+.+.+.O.%.%.@.#.@...,XZXcX$.f @.@.X.X.X.X.| | p u u u w 9 w w w w w q q q q q 9 q q 1 q 1 1 1 1 1 1 1 1 1 1 1 < 1 1 1 1 1 : - : - - - - # # # # # # # @ @ @ @ + + + % o o o o . . . . . .             ",
"            . . . . . . o o o o + + @ # # # $ $ ; 3 ; ; > > ; 3 3 3 3 2 7 7 4 4 : 1 4 4 5 5 7 r r t t t t t t p p p a a a a { a p a p q q t p u p p a a a { { o.O.o.q.q.O.q.t.t.a.u.a.p.p.Z.Z.s.T.Z.A.H.3XuX|.R._.R.Q.Q.G V.Q._._._._._.`.`.`.`._.[.tXHXIXHXtX[.{.1X{.{.1X{.iXLXvXr.[.[.HXKX<XT.{.{.(.wXKXHXT.^.^.vXKXpXr.(.`.(.`.{.{.^.iXKXiXr.[.}.<X}.tXKXLX[.[.}.<X<X[.HXKXeXb r.}.KXPXT.).!.!.!.G.G.G.x.p.p.a.p.t.O.t.&.%.a.+.*.*...5XZX4X@.#.u.#.+.+.+.O.O.O.o.o.q.o.{ [ { { { { [ p [ [ { { { { p { p p { a p p u t t t t 5 5 q r r r 7 7 r 5 5 4 4 3 3 3 > > > > 3 3 $ $ $ $ % + + + + + o o . . . . . .         ",
"          . . . . . . + + o o % + + @ # $ $ $ 3 3 3 3 3 3 3 3 2 2 7 7 7 7 7 7 7 : 1 4 7 r r r t t p t t t t t p t t u p p p p p p a p q w p p p p p a p a { o.o.q.o.q.+.+.t.u.u.u.u.a.p.Z.Z.Z.C.Z.~.4XnXCXAX,XN.'._.^.^.`._._.{._._._.`._._.[.[.[.HXKXKXKXKXKXiX`.<X1X<X1X{.iXKXiXr.[.|.PXKX|.T.{.1X{.rXKXJXT.^.^.iXKXtXr.{.{.{.{.{.{.[.vXKXeXT.|.<X<X<X<XHXKXiX^.qX<X<X<XJXKX}.T.[.}.LXPXr.s.).!.!.Z.x.s.s.p.p.p.a.%.+.t.u.u.&.u.&.*.$.S.mXNXC.*.#.#.+.+.%.%.O.O.o.O.q.q.{ p { [ p p p p p [ { { p p p { p p { { a u t q q t t 5 q r t t t t r r 7 5 5 4 3 3 3 > 3 3 3 3 3 ; ; $ $ $ % + + + + % + . . . . . .         ",
"            . . . . . . o . o % + + @ @ @ @ # $ ; ; ; ; ; ; ; ; > > > > 4 4 4 5 1 1 5 5 5 5 r q q r r r w w q w w w w t t u u q u u p w w u p u p p i i | { | | { o.O.O.+.u.O.u.%.a.u.a.C.i.C.'.uXMXCXnX4XA.e.Z.~.~.^.`.^.^._._.`.`._.`._.`.{._.pXKXLXeX[.pXLXKX4X{.<X<X<X|.vXKXpXT.[.<XPXLX^.T.{.{.(.rXKXHXT.^.^.vXKXpXr.(.{.{.(.1X{.].HXKXqXT.}.<X|.<X<XeXKXLX}.|.<X<X<XPXKX{.T.].].<X^.w.P.).!.s.s.s.s.a.p.u.u.u.%.+.&.u.&.&.&.&.*.C...4XZX,Xf #.t.O.O.O.+.O.O.| o.| | { u [ [ [ [ p p u ] u u u u u u u u u u u u u u u u t 5 1 q q 5 q 5 5 5 5 4 4 4 1 1 : ; ; ; ; $ $ $ $ # # % + o + + o o o . . . . . .         ",
"          . . . . . . . o . o % + + @ @ @ @ $ $ $ $ $ $ ; ; ; ; > > > > 1 4 4 5 1 1 5 5 5 5 q q q q r r w w r r t u u u u u u u u u p w w p p p p p i i | | | | | o.O.t.X.%.u.&.&.#.a.u.*.,XcXVXMXyX'.N.h e.s.Z.R._.(.~.^.|.<X|.^.`._.{.`.{.[.{.HXKXpXv E.E.vXKXHX^.<X<X<X<XHXKXpXT.{.qXLXLX^.).1X{.`.rXKXJXT.^.[.vXKXpXr.(.{.{.1X1X{.{.JXKX}.E.<X<XHXpXqXqXHXKXHX[.qX<XrXLXLX^.T.{.].^.T.T.).!.!.P.x.s.s.s.a.u.t.t.+.+.%.&.&.&.&.i.*.*.$.K.BX4Xf #.t.O.%.%.%.%.O.O.O.| O.| p { [ p p u ] u u u u u u u p p u u u u t t r r r r q 1 q q q r q 5 5 5 4 5 4 1 1 : > ; ; ; $ $ $ $ # # + + + + + + o o . . . . .           ",
"            . . . . . . o . o % + + + + @ # @ @ $ $ $ $ ; ; ; ; > : > > 1 1 4 4 5 1 5 r q q r q q q q r q q t r r w u u u u w w u u p w w p [ p [ [ { { | | | o.O.O.q.+.O.a.&.#.C.$.$.K.yXBXBXuX~.h f a.Z.Z.!.~.^.R.T.|.HXLXKXPXpX_.|.`.{.{.|.|.HXKX<XE.|.}.qXPXKXrX{.wX<X<XHXKXeXT.|.rXKXPXT.^.1X1X{.rXKXHXT.^.{.vXKXpXr.(.{.`.1X{.{.1XPXLX[.^.<XiXLXPX}.wXtXLXLXwX<XqXrXKXPXE.).{.{.(.(.^.).).!.P.s.s.s.d.a.u.u.u.+.+.&.&.*.&.&.i.&.*.$.J.BX6Xf #.t.O.%.%.%.@.O.O.O.} | | u [ | { { [ [ [ [ ] u u u u u u u u u u u u u u u t q 1 q q q r 5 5 5 5 5 4 4 1 1 3 : ; ; ; $ $ $ $ # # % + o + + o o o . . . . .           ",
"            . . . . . . o o o % + + + + @ @ @ # $ $ $ ; ; ; ; ; > > 1 1 4 4 5 5 1 1 5 5 5 5 q q q r r r q q t t w r t u u u u u u u u w 9 u p p ] ] | | | | | o.+.X.+.+.+.+.&.i.-.m.5XVXBXuXH.f g w.Z.Z.s.!.).T.R.^.^.JXKXPXPXKXKXiX^.|.|.{.}.|.JXLXqXE.<XqX<XvXKXJX{.qXqX<XHXKXrXE.|.tXKXJXT.(.1X1X[.rXKXHXT.(.`.vXKXpXr.].{.1X1X1X{.<XLXLX^.^.}.iXKXKXpX|.eXHXKXHX|.qXtXKXJXE.].{.^.^.^.^.).).!.P.s.s.s.d.a.t.w.w.+.O.#.&.*.*.&.&.*.i.$.K.BX5Xf #.u.t.t.%.%.%.+.O.O.o.X.| i { { [ { p ] p [ u u u u u u u u u u t t t r r r r 6 1 q q q r 5 5 5 4 1 1 : : 1 3 ; ; ; ; ; $ $ $ # # + + o + + o % o . . . . . .         ",
"              . . . . . o o o % + + + + % % @ # @ $ $ $ ; ; ; ; ; : > > > > 4 4 : 1 5 5 5 5 r r r r q r q q q r q q t t t t u u u u p u w u p { { { { { o.o.o.O.X.O.X.+.#.#.#.-.H.cXZXcXK.f f @.a.s.G.G.G.!.!.).^.E.tXKXJX[.E.pXKXiXT.}.{.|.<X}.HXKXwX^.<XqXwXwXPXKXpX|.rXqXJXKXwXR.|.pXKXHXT.`.1X1X{.rXKXHXT.`.{.vXKXpXr.(.1X`.{.{.].wXKXPXE.[.<XvXKXLXPX{.eXtXPXKXrX|.vXLXHXT.[.{.wXtX^.^.).!.!.P.s.s.s.s.a.t.w.e.+.+.#.&.&.*.=.=.i.=.*.'.BX4Xf $.&.&.&.%.&.%.O.o.O.X.o.{ i { { p p p p u u u u u u u u u u t r r q q q q q q 5 6 q 5 5 5 5 5 1 : : ; : ; : ; ; ; ; ; ; $ $ $ @ @ + + + + + o o o . . . .             ",
"              . . . . . o . . o o o o o + + + + @ @ # # # # # $ # $ $ ; ; ; ; : : : 4 5 4 5 5 5 5 5 5 5 1 1 6 6 1 1 1 5 q q q q t w p t 9 w u p p p i { | | o.o.i @.X.@.+.#.-.'.NXBX4X$.d h u.a.a.p.p.s.x.x.P.T.T.T.vXKXrXb E.R.<XT.T.{.}.<X<X|.JXLXrXE.qXwXrXqXiXKXPX|.wXwXJXKX<X^.|.iXKXvXr.(.1X1X[.rXKXHXT.(.{.vXKXpXr.(.`.].{.{.^.eXKXJXE.[.<XHXKXPXKXpX}.eXvXKXJX[.iXKXiXE.[.{.HXKX<XT.).!.P.s.s.d.y.y.t.w.q.t.+.@.+.#.&.*.*.=.=.m...5XZXK.f $.#.#.#.+.@.@.X.X.X.i i i u i p u u r u w w t w w w q w q q 5 q 5 q 1 1 1 1 1 1 : 6 6 1 1 1 : - - - # - - # # $ $ $ # # # @ @ + @ + % o o o o . . . . . .             ",
"                . . . . . . . o o o o o o + % % @ @ @ @ # # $ $ # # $ $ ; ; ; ; - - ; : : : : : 1 1 1 1 1 1 1 6 1 1 1 1 6 5 5 5 6 1 q 1 1 9 9 q r u u u i i i i o.i X.@.-.-.'.VXVX'.d f @.@.e.@.e.a.p.Z.Z.Z.Z.T.T.Z.iXKXvXr.^.[.^.^.^.{.<X}.<X<XHXLXeX^.wXrXwXrXrXJXKXiX<XrXJXKX}.^.}.vXKXiXr.{.{.{.^.rXKXHXT.^.`.vXKXpXr.].].].[.{.^.pXKXNXE.|.qXHXKXHXKXJX|.eXeXPXKXeXiXKXpXE.[.|.PXKX^.r.).T.T.s.s.d.y.t.w.q.o.+.o.X.@.@.+.#.&.&.$.$.S.NXnX..h $.$.$.#.@.@.O.X.X.X.i i i s i r r w q q q q q q 5 9 1 1 1 1 1 1 1 1 1 1 1 1 - 6 - 6 : : : : ; : ; ; ; - # # # # # # # # # @ @ % + % o o o o o o . . . . .             ",
"              . . . . . o o o o + + + + + % @ $ # $ @ # # $ $ ; ; ; ; ; > > 3 3 4 4 5 7 5 5 5 5 4 4 4 4 1 6 5 5 r r r t t r r r u q u u u p p p a a { { o.o.o.o.o.o.+.@.$.J.NXMXK.f -.#.e.a.u.p.p.p.Z.Z.Z.Z.Z.T.~.!.<XKXKXwXR.{.|.{.}.}.}.8X4XqXHXKXeX_.rXrXeXtXeXiXKXLX}.rXPXKX}.^.}.HXKXpXr.{.{.{.].rXKXJXT.^.[.vXKXpXr.].{.{.{.|.^.iXKXiXT.}.qXJXKXeXJXKXeX<XeXiXKXJXHXKXeXE.{.<XLXLX^.r.).).!.P.s.s.s.a.a.w.q.t.t.+.u.u.&.*.=.=.C...4XZX3Xf -.*.*.$.*.*.&.+.+.+.+.o.o.o.| { { { p p p p p p u t q q q q r r t t r r r r q q r 4 7 5 4 5 4 4 3 3 3 3 ; ; # # ; ; ; ; $ ; $ $ @ @ + + + + + o o o . . . .             ",
"              . . . . . o + % % % % # # $ $ $ $ $ ; # # ; > 3 7 7 7 7 7 7 7 7 7 r r r r r r t t t p a a p q w p p p p a { { { { { { :.:.:.:.{ { { o.q.q.q.t.t.u.+.@.#.&.m.yXCX'.f #.u.i.p.p.p.G.p.x.G.G.G.G.!.).~.).~.iXKXPX[.{.1X1X}.rXtXqXwXwXHXKXpX[.rXvXHXeXpXeXJXKXiX}.LXKX|.[.}.HXKXwXT.|.1X1X{.wXKXJXT.].[.vXKXpXP.{.{.{.{.{.^.vXKXpXE.<XrXPXKX|.pXKXJX|.eXeXPXKXPXKXqX^.|.wXKXPXP.P.(.).!.!.!.x.x.s.s.s.p.t.a.l.i.a.i.=.F.=.n.K.VXnXm.-.&.C.=.F.D.=.l.u.i.%.u.u.t.O.t.y.O.O.} } } ,.{ { { { { p { p p p p p [ a a a p a t t t t t t t t t r 7 7 5 4 ; 3 4 4 3 3 3 3 ; $ $ $ $ $ $ $ + O + + . . . . . .         ",
"            . . . . . . o + % % + + + @ @ # # $ $ $ # # ; ; : > 1 1 1 1 1 1 4 4 5 5 1 1 1 5 5 5 t t u t t w w u w w w u u u u u p ] p [ [ [ [ { { | } O.O.O.O.%.@.+.#.@.K.CX6Xf -.#.&.&.i.i.i.i.p.p.p.s.s.s.G.!.!.!.!.^.JXKXHXR.1X1X1XJXKXtXqXqXHXKXpX[.rXJXKXvXqXeXiXKXPXqXPXKX|.[.}.JXKX8XT.{.1X].].rXKXHXr.].].vXKXpXr.(.{.{.{.{.].HXKXrXT.<XeXLXLX[.<XPXLXwXqXwXiXKXKXKX<X).|.eXKXJXr.P.).!.P.x.x.s.s.d.y.a.t.u.%.%.a.a.=.=.=.n.S.yXCX'.f $.$.F.=.=.=.=.&.i.&.&.%.O.O.O.O.| } | | ] [ [ ] u [ [ [ w ] u u u u u u u u u u u q q q q q q q q r 5 7 4 4 1 - : > > ; ; ; ; $ $ $ @ # # % % O o o o . . . .             ",
"            . . . . . . o o % % + + + @ @ # # # $ $ $ $ ; ; ; ; : > > 1 1 > 4 4 5 5 5 5 q q q q 5 t t q q q q t t t u u u u u u u u u u p p p i { { | o.O.O.O.+.+.@.#.@.4XZXK.f #.#.&.&.a.i.i.a.i.p.p.s.s.s.G.!.Z.).).!.<XLXKXtX^.<X|.vXKXJX}.wXHXKXpX[.eXJXKXLXwXeXtXHXKXHXLXLX[.[.8XIXKX}.T.{.|.{.{.1XwX^.P.^.^.vXKXpXr.(.{.{.{.{.[.JXKX<XT.}.eXKXPX^.[.HXKXHX[.rXrXJXKXLX^.^.{.pXKXHXr.T.).!.!.P.s.s.s.a.a.t.t.u.&.t.&.&.&.=.b.b.6XZX5Xf ..$.m.*.F.n.n.=...#.&.+.%.O.O.O.O.O.} | | [ [ p p p p p p w p u u w w w w w w w w q t r q q q q q q 5 5 5 1 4 3 - 3 > : ; ; ; ; $ @ @ @ @ @ + + O o o o . . . .             ",
"            . . . . . . o o % o + + @ @ # # $ $ $ $ $ $ ; ; ; ; > > 1 1 4 4 4 4 5 5 5 5 q q q q q r q q q q q t q q q t t t u u u u p p p { { { | | o.o.O.O.O.+.+.@.&.@.6XBXS.h *.#.i.i.a.a.i.i.i.p.p.p.s.s.Z.G.!.!.~.^.T.pXKXPX1X{.1X<XPXKXiX|.HXKXiX[.eXJXKXKXHX}.pXpXLXKXLXLX[.[.qXPXKX[.T.{.{.{.(.].{.T.^.(.(.vXKXpXr.(.{.{.{.{.[.PXKX{.E.|.eXKXJXR.}.rXPXKXwX8XqXiXLXPX^.^.[.iXKXiXb !.).).!.x.s.s.d.a.u.t.t.t.t.a.&.&.=.=.b.5XZXuX....b.b.m.C.b.m.$...'.6XH.@.#.+.+.O.X.O.| | { { [ p p p p p p w p u u u u t u t t t t r q q q q q q q 5 5 5 5 4 3 3 - 3 > > ; ; ; ; $ $ $ @ @ @ + + o o o o . . . . . .         ",
"        .   .   . . . . o o o o + + + + @ @ # # $ $ # # ; ; ; ; : > > > 4 4 4 4 4 4 4 5 5 5 q r q 5 q r q 1 1 r q r r t r t t t p p i i a a { { { X.X.o.O.O.+.+.@.@.u.-.5XBXH.f $.*.*.i.a.&.i.i.i.p.p.p.s.s.s.G.!.!.!.).).^.HXKXHX^.<X|.pXKXLXqXvXKXiX[.rXJXKXKXKXeXwXeXHXKXKXLX[.^.qXLXLX^.T.{.{.{.{.1X(.{.{.{.^.vXKXpXr.^.].].].].|.LXLX^.^.[.pXKXHXE.<XqXHXKXHX^.wXqXiXqXT.[.[.vXKXpXb T.).!.!.x.s.s.a.u.u.u.t.u.%.&.*.i.=.*.5XCXyXb...$.m.b...b.b.S.'.yXMXZX,Xg #.@.+.o.X.o.| { { p p p p p u u u w u t u t t t t t t r r r q q q q q q q 5 5 5 5 4 3 3 # 3 > : ; ; $ $ $ $ # @ @ @ + + + o o . . . . .             ",
"            .   . . . . o o o o + + + + @ @ # # $ $ # @ $ $ $ ; > > > 3 4 4 4 4 4 4 4 5 5 q r r 5 5 5 r q 1 1 t r r t t t t t u u p p i i a { | X.X.X.o.O.+.+.%.#.@.u.$.,XZX3Xf C.i.*.*.*.=.&.a.i.a.a.a.p.s.s.Z.s.).!.).).^.1XPXKXpX[.qX|.HXKXHXiXKXiX_.rXJXKXPXKXJX}.eXpXLXKXLX[.^.rXLXPXR.).{.[.(.].(.{.(.(.{.^.vXKXpXr.^.(.(.(.(.<XKXPXE.^.{.iXKXiXT.}.qXrXLXKX<X|.<X1X^.^.{.[.HXKXwXb T.).!.!.P.s.s.p.a.a.u.t.u.&.&.=.=.n.4XCXnXS.b.S.S.J.K.,X4XyXmXCXMXNXMXZ.d #.@.O.o.o.o.o.{ { { p p p p u u u w t t t t r q r q q q q q q q q q r r r r 5 5 5 4 3 3 # 3 > > ; ; ; ; $ $ # @ @ @ + + + o o o . . . .             ",
"          . . . . . . . . o o o + + + + + + @ # $ $ @ @ # # # $ ; ; > > > > 1 : : : 1 1 1 1 1 4 5 5 5 q 5 1 1 q 6 5 q q 5 q q q r u u u p i i i | | X.X.O.+.%.%.@.#.&.$.J.VXcX..$.*.*.*.*.*.*.&.u.u.u.u.a.a.s.s.s.s.!.!.).^.T.tXKXKX|.{.<XwXPXKXPXKXiX[.wXHXKXiXJXLXpX<XrXHXKXKX[.R.eXKXJXT.^.{.^.{.^.<XPXiX^.{.^.vXKXpXr.^.(.^.(.^.qXLXJXr.^.[.vXKXpXT.1X<X|.HXLXvX^.<X<X<X{.{.[.JXKX|.n T.).!.s.s.s.a.u.u.u.t.u.+.&.&.&.&.H.BXMXmXnXNXVXMXCXCXCXZXMXcX4X3XAX6Xf f #.+.X.g X.i i i u u u t w w u u u q t q q q q q q q q q 5 5 1 1 6 6 5 5 1 1 4 1 4 : 3 : # ; > : ; ; ; ; $ $ @ @ + + + + o o o o . . . .             ",
"          . .   . . . . . . o o o o o % % + + + @ @ @ @ # $ # $ # $ ; ; ; ; - - : : 1 1 1 1 1 1 6 5 1 1 1 1 1 1 6 6 6 6 6 6 q q 9 w r u u u u u i i | X.X.O.+.+.#.@.#.=...5XZX3Xh $.=.*.*.&.+.&.&.u.u.t.e.u.s.s.s.s.!.!.!.).^.).vXKXJX^.<X}.iXKXKXKXiX^.qXHXKXwXeXKXPX}.qXrXPXLX[.E.tXKXJXr.).(.^.(.).4XKXIXr.T.E.vXKXtXw.).(.).(.!.wXKXJXr.R.^.HXKXwXB.1X<X|.wXLXLX{.{.<X{.1X[.[.PXKX[.r.T.!.Z.s.s.s.e.u.e.t.+.u.X.+.&.#.&.C.yXVXCXMXmXuXyX6X5X3XK.S.M.f 5XCXK.d #.X.X.X.X.X.i i u u u r r w w w w w 1 q 1 q q 1 1 6 6 6 1 1 1 1 1 1 1 1 1 1 1 : - : - - - @ - ; ; $ $ $ # # @ @ + % % % % o o . . . .                 ",
"                . . . . o . . o o o % o + + # # @ @ # # $ $ $ $ $ $ $ $ ; ; - - - - 1 1 1 1 1 1 1 1 6 6 1 1 1 q q q q q w q w w r r u 9 9 s u i i | X.X.X.O.O.+.#.$.&.&.*.S.mXBX,X-.@.*.*.$.#.+.+.+.u.u.u.u.a.s.s.s.s.!.!.).).^.{.PXKXiX[.<X<XIXKXKXHX^.<XHXKXeX_.JXKXiX[.qXqX|.E.E.pXKXHXr.~.^.(.(./.{.LXKXpX[.eXPXKX|.w./././.).~.{.LXKXiX<XiXLXKX^.T.{.{.|.[.HXKXiXT.|.{.{.R.qXKXLXT.r.!.Z.G.s.s.s.a.a.u.t.t.u.#.+.@.&.*.$.*.K.6XMXVX3Xh h h f ......J.MXyXh f X.@.X.@.X.i i i p u u u u u w w w w w w w w q w q q q q q 1 1 1 - 1 1 1 1 1 1 1 1 : : - - - - ; ; # # # # # @ @ @ + % o o o o . . . . . .             ",
"            . . . . . . o o o % + + + % % # # # ; ; 3 3 2 2 2 2 ; ; ; ; > > 3 4 1 4 7 r r r t t p p a a p a p a a a p p a a { { { { { a a { o.o.o.+.t.u.+.&.i.&.i.i.F.C.C.b.K.MXBX5XJ.m.m.C.i.&.i.i.p.p.p.s.s.s.G.G.!.).)./.(.(.^.rXKXKXqX|.4XiXLXKXHX^.4XHXKXeXR.iXKXLX<X|.<X[.^.[.HXLXpXr.^.{.(.`.(.~.pXKXKXLXKXKXvXn T.).(.(.`.(.^.tXKXKXKXKXKXtXr.^.1X1X<X[.wXKXKXwX`.{.^.4XIXLXvXv Z.(./.!.!.G.G.G.s.p.p.p.p.i.u.&.i.C.C.C.*...K.nXZX4Xb.S.S.F.S.m.6XZX'.f #.u.u.#.&.+.X.o.q.q.o.o.:.{ { { { { { { { { { { a a a a a a a a r 5 t t r t r t r r 7 7 7 4 4 4 7 7 2 3 3 3 ; ; $ $ $ # + + + o + o . . . . . .         ",
"            . . . . . . + o o % + + % % # # # # $ $ ; ; ; ; > > > > > 3 3 4 4 5 : 1 5 5 5 7 r t t t t u t u p u u p u u u p p [ { { { p u { o.o.o.+.o.u.%.&.a.&.=.=.=.=.=.S.m.K.cXZXmX3XJ.m.i.#.i.u.a.a.a.a.s.s.s.x.G.!.!.)./.^.^.^.vXKXJX{.<X}.HXKXHXE.<XHXKXrX^.qXJXKXJX4X|.{.}.iXKXKX_.r.^.`.`.(.(.(.T.wXHXPXIXpXn r.!./././././.~.~.qXNXIXHX4Xr.T.(.`.1X`.{._.iXKXKXHXNXHXLXKXIX!.s.!./.G.!.G.G.x.p.p.p.p.p.i.i.u.&.i.i.n.n.F.n.b.S.nXMXH.m.F.J.m.,XCXyXh $.*.i.i.u.u.+.O.O.o.{ | | { { | { p p p p p p u u u u u u u u u t t 5 t t t t t t r r r 7 7 7 7 4 7 7 2 3 3 3 ; ; $ $ $ # + + + o + o . . . . . .         ",
"          . . . . . . . o o o % % + + + % # # # $ $ $ $ ; ; ; ; ; ; > > > 3 4 4 : 4 5 5 5 5 5 r 5 q q q q q w w w w w w u u u u p p a u u { { o.o.+.X.+.+.+.+.i.=.C.=.n.D.D.n.M.F.3XNXZXmX,X#.u.i.u.u.u.u.u.a.p.s.s.x.G.!.!.).).(.^.[.IXKXvX[.<XeXHXqX^.<XHXKXeXE.}.wXPXKXLXHXHXJXKXKXrXv T.~.(.(./.~.~.~.T.T.T.r.x r.T.!././././.~./.(.T.T.Z.r.w.T.~.^.`.(.`.`._.^.iXLXKXKXLXKXHXT.e.s.!.G.G.G.x.s.p.p.a.a.a.a.u.u.&.&.=.=.=.n.=.F.n.b.3XZX5X..S.m.J.mXCXH.f -.&.&.&.%.%.+.X.O.| { { | [ ] ] u u u u u u u u u w u q t w w w w q 6 q q q r 5 q 5 5 5 5 4 1 : : > > ; ; $ $ $ $ @ $ # + % % o o o o . . . .             ",
"              . . . . . o o o o + + @ @ # # $ $ $ $ $ ; ; ; ; ; > > > > 3 3 4 4 5 5 5 5 5 5 q r q q q q t t t t t t u u u u u u p p { p i o.o.o.o.X.+.#.&.i.*.=.=.=.=.=.F.n.m.J.n...S.4XnXCX/.X.i.u.u.u.u.a.a.p.s.s.x.G.!.!.!.).).(.~.qXKXLXwX^.}.^.E.R.[.IXKXqXR.<X|.wXJXKXKXKXKXIXwXe.T.!.~./././././.~.!.~.!.T.T.T.~.~./././.!./.~.!.^.(.~.~.~.^.(./.(.`.(.(.`.`.~.`.4XtXtX{.e.r.G.G.~./.G.Z.G.G.G.p.p.i.a.u.a.i.&.*.=.=.n.D.F.n.F.S.S.mXcXb.m.S.6XZX3Xf $.*.&.&.&.%.%.O.X.O.o.| { { { [ [ p p p p p p p u u u u u u t t t q q 1 q q 5 q 5 5 5 5 5 5 4 1 : : > > ; ; $ $ $ $ @ $ # + % + + o o o . . . . . .         ",
"            . . . . . . o o o o + + @ @ # # $ $ $ $ $ $ ; ; ; ; > > > 3 3 3 4 4 1 1 5 5 5 5 5 q q q q q q t t t w t u u u u u u u p { p i o.o.X.+.@.&.#.@.&.=.=.=.=.F.n.=.F.n.n.n.S.b...yXCX/.f u.u.u.u.u.u.a.a.p.s.s.x.G.!.!.).).).(.~.iXKXPX|.^.|.|._.pXKXLXR.T.{.<X{.`.1XtXrX4XB.e.T.T././.~.~./.~././.!.G.~.!.~.~.T.!./.G.!./.!.~.~./.!./.(./.~.!.(././.(.~.^.~.(.~.Z.B.v e.r.T.G.G./.G.Z.G.G.G.C.C.i.i.i.i.i.i.&.*.=.n.n.n.D.D.D.n.S.nXmXb.M.4XCXuX$.f u.#.a.&.&.%.%.O.| O.o.{ { { p p p u p u u u u u u t t t t q q q q 5 q 6 q q q r 5 5 5 5 5 5 5 4 1 1 > > ; ; ; $ $ $ $ $ # + % + o o o o . . . . . .         ",
"            . . . . . . o o o o + + + @ @ # # # $ $ ; ; ; ; : : > > > > 1 1 1 1 : 1 5 q 5 5 q r q q q q r r r t t t t t t t u u p i { p i o.o.o.X.+.@.#.C.-.$.=.=.F.=.D.n.n.m.m.b.m.S.uXZX6Xf h u.u.u.u.u.u.a.u.a.p.s.x.G.G.!.!.!./.(.).`.JXKXIXrX4X<XiXLXKXtXr.^.{.{.{.{.^.Z.r.r.T.T.~.~./././.~.!.~./.G.~.G.G.G.!.G.!.G.G.!.~.G.!.!.~.G././././.~./././././././././.`.~.^.^.!.~.G././.G.G.G.Z.G.G.F.C.i.i.i.i.i.i.=.=.C.n.n.n.D.D.F.F.n.cXMXM.3XCXcXb.f #.i.&.&.&.&.%.%.O.| o.o.{ { a p p p u p p p u u u u t t t t t t t r r q 1 5 q q q 5 5 5 5 5 4 4 1 : : : > ; ; ; $ $ @ @ @ @ + o % o o o o . . . .             ",
"                . . . . o . . o + + @ @ # # $ $ $ $ $ ; ; ; ; : > > > > 1 1 1 1 - 1 4 5 5 5 5 5 6 5 5 5 q q q q q q q q q q t t u i { u u { X.X.X.#.-.'.cX4XK.F.C.=.n.n.F.J.K.,X4X6XnXCX6X..h h &.u.u.u.u.u.u.a.u.a.p.s.s.Z.Z.G.!.!.~.(.).|.JXKXKXLXKXKXKXiXr.T.(.(.`.`.`.`.(.(.^.~.~.~././.!.!.!.G.G.G.G.G.G.H.G.G.G.G./.G.G.G.G.G.G.G.~.G.H.G.G.G.G.!./.H.~./.H./.H.H.~.~.~.R.G.G.G.G.G.G.G.Z.C.C.C.C.i.i.i.i.i.i.=.=.n.n.n.n.n.J.n.n.J.mXnXh 5XCX3Xf *.#.*.i.&.&.&.%.%.O.| o.o.{ { a p p p u u u q q w q q q q q q q q q q 5 5 1 5 5 5 r 5 5 1 1 4 4 4 1 : : ; ; ; ; ; ; $ $ + + + + % + + + o o . . . . . .         ",
"              . . . . . . . o o + + + + % % # # $ $ $ $ ; ; ; ; ; ; ; ; > > 3 3 : : : : 1 : 1 1 1 5 4 1 1 1 1 r 5 q 5 5 1 1 q t u u s s i i | X.X.X.f ,XBXMXBXMXnXmXcXnXmXMXCXZXCXMXCXuXh h -.#.#.#.#.&.#.#.u.u.u.u.a.a.a.s.s.Z.G.~.!.~.~.T.`.pXJXLXPXHX4Xr.r.~.(.(.(.(.(.~.~.~.~.~.~.!.!.G.G.G.G.G.G.G.G.Z.G.G.G.F.Z.C.C.C.C.C.C.C.C.C.C.C.S.S.S.S.J.J.J.H.H.H.H.K.K.K.K.K.H.H.H.H.S.C.C.C.C.C.a.i.i.i.i.i.F.*.=.=.=.m.n.n.n.n.n.n.m.m.K.VX6Xf S.MXmXb.$.*.&.&.%.+.+.@.X.X.i i i i u u u u u w q q q q q q q q q q 5 6 6 6 5 5 6 : 1 1 1 1 1 1 1 : : ; : ; # ; ; $ $ # # @ @ @ + + + O o O O O o o . . . .             ",
"                . . . . . . o o % % % + + % # # @ @ @ @ # # # # # # ; ; - ; - - - - - - - - - - : 1 1 1 1 - - : 1 1 1 1 < 1 9 9 q q w s s u i i i f X.f 5XVXmXyXnXnXmXmXcXyX5X,X4XMXUXb.f ..#.@.#.#.#.#.#.#.#.+.u.t.u.a.a.s.s.Z.Z.G.Z.!.~.~.!.!.Z.T.Z.e.e.Z.~.~././././././.~.~.~.G.G.Z.Z.Z.Z.C.C.C.C.N.N.C.C.S.J.H.H.'.'.'.,X,X3X4X4X5X5X6XuXuXyXyXcXcXnXnXmXmXNXNXNXNXNXNXNXNXmXmXnXuX5X3X'.J.C.C.$.@.*.*.*.=.n.n.=.=.m.n.n.n.n.n.m.m.6XCX'.h M.5XCX3Xf *.*.#.@.@.@.X.X.i i i i u u r w 9 9 9 q 1 1 < q 1 1 1 1 1 1 1 1 1 1 1 : : : : : : : : - - - # - # @ # $ # # # # @ @ + % + o o o o X X o o . . . .             ",
"              . . . . . o o o o + + + % % $ # # $ $ $ $ ; ; ; > 3 3 4 7 7 7 5 5 5 5 7 7 r r r r r r t t t 5 1 q q r t t r r u u u a { { { { O.+.+.u.#.*.C.cXMX3Xh M.m.b.......f 5XCXK.f $.C.*.F.i.a.a.u.u.a.a.i.a.a.p.a.p.G.G.G.G.G./././.~././.(.~.~.~.~.^.~.`.'.'.'./.H.H.H.J.H.H.K.K.K.'.,X3X3X4X4X6XuXyXnXnXNXNXMXAXBXCXCXCXCXCXCXCXCXVXMXMXNXNXNXmXnXnXnXcXyXyXyXyXyXyXyXyXcXcXmXNXVXCXBXVXnX6X4X,XK.S.m.n.m.m.m.n.n.n.n.n.m.m.J.5XZXcXb.b.b.J.MXcX..*.=.*.u.&.&.+.+.+.O.o.o.{ { { { { [ [ p u u w u u p p p p u t t t t r r r r 7 r r r r 7 5 4 3 4 3 - ; > ; ; ; ; $ $ $ $ $ $ # # + + + % o . . . . . .         ",
"            . . . . . . o + % % + + + # $ $ $ $ $ $ $ $ ; ; ; > 7 7 7 7 7 7 r r r r r t t t t t t t t p p r 5 t t t u u u u p p i a { { o.o.O.+.t.+.+.#.$.J.NXCX,Xh b.m.b.S.m.S.nXNXb...C.C.C.i.i.i.i.i.i.i.l.l.p.p.p.p.C.G.G.G.H.G././././././././.'././.~.H.H.K.'.'.,X,X4X5X6XyXcXmXMXVXVXCXCXCXAXAXAXMXNXnXnXyXuX6X5X4X4X3X,X'.'.'.K.H.J.S.S.C.C.N.C.b.b.b.*.*.u.*.#.*.*.*.*.i.*.*.S.H.,X4X6XmXMXCXCXMXmXcX6X4X3X,XK.K.K.K.K.3X6XmXCXnXS.$.b.S.b.6XBXK.$.m.i.i.u.u.%.+.+.O.O.O.o.{ { { { :.,.[ p u q { { { { :.{ p p u t t t t t t r t t t t r r r 4 4 3 - : 3 7 4 2 3 3 3 3 $ $ # # + + + + + + . . . . . .         ",
"            . . . . . . . o o o + + + + + # # $ # $ # # $ ; ; : > 1 1 1 1 5 5 5 5 5 q q q r r r r r q t t 1 1 r r r u u u u u u p p i | | | O.O.X.+.+.#.=...H.NXBX3Xm.m.F.S.n.S.mXcX..b.n.n.D.=.v.=.=.=.=.i.i.l.i.p.p.i.p.G.G.G.G.H.H.H.H.H.H.H.H.H.K.'.,X3X6XyXnXnXMXBXCXCXBXVXNXmXcXyXuX5X3X,X'.'.H.A.C.e.$.h $.h g f g g f f X.g g X.@.@.@.+.+.#.u.e.a.a.p.p.p.p.p.p.p.p.p.p.p.i.i.i.#.-.-...b.S.K.cXMXnXmXMXCXCXCXBXBXCXCXCXCXCXnX4Xb...$.C.m.b.,XBX5X-.m.*.&.&.%.+.+.O.O.o.| | | [ [ [ [ [ p u u w p p [ p p u u t w q q q q q q q q q q 5 5 1 5 1 4 1 - : > > > > ; ; ; $ @ @ @ @ + o o o o o . . . .             ",
"          . . . . . . . . o o o + + + + + + # # $ $ $ # ; ; ; > > 1 1 1 1 5 5 5 5 5 5 5 q q q q r r q t r q 9 t r t u u p p p p i i i | | o.O.O.O.O.+.&.#.m.*.H.NXBX5XS.m.S.m.S.mXmX..n.n.F.D.F.l.v.v.v.=.i.l.l.i.i.i.i.i.G.G.G.G.G.G.F.G.H.'.3X5XcXNXMXBXCXCXMXnXyX6X4X,X'.K.A.N.N.$.h h h f f f f h @.@.#.e.u.#.u.u.u.u.u.a.a.u.u.u.a.p.p.p.p.p.p.p.p.p.p.p.p.s.s.s.x.x.x.x.x.x.x.G.G.F.C.F.C.C...S.MXyX$.b.J.K.'.3X4X5X5X4X4X,XH.b.h ..m.C.C.n.m.S.mXmX..*.*.&.&.%.+.+.O.O.o.o.| { [ [ [ ] p p p u w p p p u u u u u u q q q q q q q q q q q 5 5 5 4 4 4 : 4 : : : ; ; ; $ # $ $ $ # @ + + + o o . . . .             ",
"            . . . . . . o o % % + + + + + # # # $ $ # # $ ; ; : > > > 1 1 1 1 1 5 5 5 5 5 5 5 q q q q q r q 1 r r r t u u u u u p p i { | | O.O.O.%.O.&.*.$.n.$.J.nXZXcXK.b.S.m.5XCXK...F.D.F.D.D.D.D.D.=.=.i.i.i.i.l.i.p.l.p.F.C.C.H.3XuXmXVXCXCXmXyX5X4X'.G.Z.e.#.g g @.#.@.@.e.u.a.a.a.a.p.p.i.i.C.C.i.i.u.u.i.i.p.p.i.u.a.i.a.u.u.a.a.a.u.u.a.a.a.i.p.p.p.p.p.p.p.p.p.p.p.p.p.l.l.p.p.p.F.C.F.n.5XZX,Xf $.$.......h h h h h h ....n.m.n.F.F.F.n.m.6XBXH.-.i.&.&.+.+.+.O.O.o.o.{ { [ p p p u p p u w u u u w w w u u t t t q q q q q q q 5 5 5 5 5 1 4 : - : > > > : ; ; $ $ @ @ @ @ + o % o % % . . . . .           ",
"          .   . . . . . o o o % + + + + + + # # $ $ # # $ ; ; ; > 1 1 1 4 1 4 4 5 5 5 5 5 q q r 1 r r q r q 1 q t r t u u p p p p p { { { | o.o.O.O.u.@.&.=.*.n.b.n.5XCXVX5XJ.b.K.CXcXb.n.F.n.D.D.D.n.n.=.=.i.i.i.i.C.C.i.C.i.C.'.5XNXCXMXcX5X'.H.N.b.h h #.@.e.a.a.p.p.p.p.p.a.p.p.p.p.p.p.a.u.i.a.i.u.u.u.i.i.u.u.u.t.u.u.u.u.a.#.+.u.u.u.a.a.a.u.a.u.u.u.i.i.p.p.p.p.p.p.p.p.l.l.l.l.p.i.i.F.C.J.NXmX=.$.F.F.F.C.n.C.n.n.n.C.m.C.S.n.F.F.D.D.n.D.m.,XZX3Xf &.&.&.+.O.O.o.o.o.{ { { [ [ [ p p p p u w u u p u u u u t t q t r q q q q q 5 q 5 5 4 5 1 4 3 - 3 > ; : ; ; $ $ $ $ $ # % + + + + o o . . . .             ",
"              . . . . . o o o % % % + + % % # # # # # # $ $ ; ; > > > > > 1 4 4 1 1 4 5 5 5 5 5 r 5 q r q 1 1 5 r r r t t u u u a u u u i | { o.o.O.+.+.#.#.*.=.n.b.b.,XnXZXMX6XJ.5XZX5XM.m.S.n.n.n.n.n.n.=.C.C.C.n.C.$.$.J.,XcXBXBXnX3XZ.$.g g w.e.a.a.s.s.Z.Z.p.p.s.s.p.p.a.u.a.a.a.a.a.a.a.u.u.t.+.%.+.+.u.+.t.t.t.t.t.t.t.t.u.+.O.+.t.t.t.u.u.u.u.t.t.u.u.u.a.i.i.i.p.a.a.a.a.x.l.l.l.a.i.F.b.3XZX,Xf $.b.n.n.n.F.F.D.D.F.D.F.C.n.n.D.n.D.F.n.n.m.K.VXuXf u.#.+.O.X.X.o.i | | a i p p p p u p q w w q u u u u t t t q q q q r 5 5 5 6 5 5 5 5 4 1 4 4 ; - ; ; ; ; ; ; $ $ # @ $ # % + + + O . . . . . .             ",
"              . . . . . o . o o o o % % + + + + # # # # # $ ; ; ; ; ; ; ; ; : : : : : : : : 1 1 5 1 5 5 5 1 1 5 r r r r r r r r t q u r i i i | | o.O.O.@.#.&.$.$.m.S...m.,XmXZX3Xb.nXCX6XS.M.m.n.n.n.m.=.=.*.$.$.b.S.'.6XNXZXMX6X'.-.h e.a.a.e.e.s.s.s.p.p.p.p.p.a.a.a.u.u.t.+.t.t.t.t.+.+.+.+.+.O.O.O.O.o.+.o.+.+.+.+.O.+.O.+.+.o.o.o.+.+.+.+.o.o.O.O.O.q.q.q.+.t.t.t.t.u.y.y.l.t.l.u.l.t.l.i.S.nXMX5X,X,XK.S.n.$...=.n.D.D.D.n.n.D.n.n.D.D.n.n.D.m.S.mXcX$.-.#.O.@.X.X.X.i i i p u u u u u w q w w q q q t t t t t t q q q 5 5 1 6 6 1 1 1 1 4 : : 3 3 ; - ; ; ; ; ; $ $ $ $ + + + o o o O o . . . . . .             ",
"                . . . . . . o o o o o o o % + + @ @ @ @ # # # # # # # $ ; ; - - ; ; : : : : : : 1 : : 1 1 1 1 4 1 1 1 1 1 1 9 9 q q r r s i i i i | X.X.@.@.#.$.=.=.b.S.b.b.nXMXJ.f S.yXZXNX3XK.n.m.m.b.b.C.J.'.4X6XMXZXBXcX4XS.f X.O.+.t.u.a.u.a.a.u.u.u.u.t.u.e.e.e.e.#.+.+.+.w.+.+.+.+.+.o.o.o.o.o.o.o.X.@.X.X.X.X.X.X.X.X.X.o.X.X.X.X.X.X.X.o.o.O.O.O.O.O.o.q.y.y.y.y.y.y.y.y.%.y.y.y.y.t.u.H.NXVXCXZXCXVXMXnX6X4X'.J.m.b...m.=.n.n.n.n.n.=.=.=.b.b.yXNXN.f #.@.@.X.X.X.i i i r r w w 9 9 9 q 1 1 1 1 q 1 1 1 1 6 6 6 1 1 1 6 : 6 6 1 1 : 1 - - - - - # @ # # # @ @ @ @ % % + + o o X o o X . . . . .               ",
"              . . . . . . . o o % % + + + % # # $ # # # $ $ ; ; ; ; ; > 3 > 3 3 @ - - : : : : 1 1 1 5 5 5 5 5 r r r t t t t u u u t p r r i i i { o.o.O.+.+.#.&.=.n.b.b.b.3XZX5Xh m.b.m.3XmXZXVXmXcXyXyXcXmXVXCXBXCXcX4XH.$.f X.t.u.p.p.p.l.l.p.p.a.u.p.p.p.u.u.u.#.e.e.+.+.+.+.+.+.+.o.O.o.O.o.o.o.o.o.X.i o.X.o.o.o.O.O.O.O.O.O.O.O.O.O.O.O.O.o.O.O.O.O.O.O.} ,.5.5.5.5.5.y.y.k.k.y.k.k.l.k.l.i.H.H.'.'.3X5XuXmXVXCXCXVXnX5X,XJ.n.$.=.n.n.n.F.=.=.m.b.6XVXC.f #.O.O.X.o.X.i { { a a p u u p u p u u q t t u t t t q q q q q q 1 : 6 6 1 6 1 1 4 1 1 3 3 ; ; ; ; ; ; $ $ $ $ # @ + + o o O O O . . . . . .             ",
"        . . . . . . . o o o o % + + + # $ $ $ & ; ; 3 3 3 3 3 2 7 7 7 7 7 7 7 7 1 4 5 r r r t t p p p a a a a a p p p a a a { { a { a s u { o.o.O.O.+.+.%.&.&.*.C.n.C.C.S.yXMXJ...m.S.S.m.n.'.6XnXmXMXNXmXcX6X3XcXVX'.f $.&.p.x.G.x.x.x.l.l.l.l.l.p.a.l.l.l.l.l.l.l.p.a.a.u.u.u.t.u.u.u.u.u.u.u.t.t.t.t.O.O.t.t.q.q.t.t.t.t.t.t.t.y.y.y.t.y.y.y.y.y.k.k.k.k.y.y.5.y.y.y.k.z.x.x.c.z.x.x.x.x.c.l.l.l.%.@.@.-.@.@.*.J.'.4X6XmXCXZXMXcX5X'.S.b.m.n.C.C.C...5XCXA.f a.u.u.u.u.q.o.q.o.o.{ { { { { { :.:.a a { { { { { a p p t t t t r q t t t p t t r 7 7 7 4 4 4 3 2 3 3 3 3 3 3 3 $ $ $ + + + % % + + o . . . . .         ",
"        . . . . . . . o o . o % + + + + # $ $ $ $ $ ; ; 3 3 3 3 3 3 7 7 7 7 4 4 : 1 4 5 5 5 q r q q q r q q r r r r t u u p p p p p a u u { o.o.o.O.O.+.+.&.&.=.=.=.n.b.K.VXyXh $.F.n.F.J.n.b.....b.n.b.....-.f H.BXcX*.i.p.a.l.l.x.x.l.l.l.l.l.l.a.y.y.y.y.y.y.y.y.y.y.%.O.O.O.%.O.%.%.%.%.%.%.O.q.O.O.| | O.O.O.O.O.q.y.y.y.y.y.y.y.y.y.y.y.y.,.y.y.5.y.y.y.5.2.5.y.y.k.k.k.z.z.k.c.z.5.k.k.k.k.k.l.l.l.u.i.&.$.$.-.f ..C.K.3XcXNXCXBXmX6X,XS.b.$.b.b.5XBXZ.g +.+.+.+.O.o.i { { { { a p p p p p u p u p p p p p u u q q q q r 5 1 q q q r r q 5 5 5 4 1 3 : : > ; ; ; ; ; ; $ $ $ # + % + + + + o o . . . . .         ",
"            . . . . . . . X o % % % % + % % # # # # $ $ $ ; ; ; : : 1 1 1 1 4 4 1 1 5 q 5 5 q r r r r r r t t t r r r u u u u u u u p u u i | | o.o.O.O.+.%.&.*.=.&.F.$.4XZX'...n.D.D.D.F.m.J.n.F.m.$.*.=.=.m.C.b.6XBX,X#.l.i.l.l.l.l.l.l.k.k.k.k.y.y.y.y.y.y.y.y.y.y.y.y.y.y.q.O.O.O.O.} O.O.O.O.O.O.O.| | } } | | | } | | | } | { { { } } } } ,.,.,.,.5.5.5.5.5.5.y.8.k.k.k.z.z.z.j.j.U.2Xc.j.c.y.l.y.l.i.a.i.i.i.*.=.=...-.-.h N.'.5XmXCXCXMX6X,XS...6XBXC.f %.+.%.+.+.o.| o.| { { i ] p ] p u u u u u u u u u w u q t t u t 5 1 q q q r q q q 5 5 4 4 4 4 3 > : ; ; ; $ $ $ @ @ @ % % % % o o o . . . .             ",
"            .   . . . . . . o % + + + + % % # # $ $ $ $ ; ; ; ; > > > 1 1 4 5 5 : 1 5 5 5 5 5 q q q r q q r t t u u u u u u u u p p p u u i i o.o.O.O.+.+.&.&.&.&.=.=.C.mXNXm...n.n.D.F.D.J.n.F.F.C.F.F.F.C.n.b.b.K.VXcX=.l.l.l.l.l.l.k.k.k.k.k.k.y.y.y.y.y.y.y.y.y.y.y.q.O.O.} q.} } } } } } } } o.} o.| | } } } } } } } } } } } } } { } :.} } ,.,.5.5.5.5.5.5.2.8.8.8.j.z.z.z.h.h.h.I.bXFX2X;.k.x.k.y.l.u.u.a.&.a.&.&.i.i.i.C.*.$.h h $.K.4XcXBXCXVX5XcXNX#.X.+.+.+.O.O.| | o.| | { { [ ] p u u u u p u u u u u u u u u u t q q 6 q q q r q 5 5 5 5 4 4 4 4 4 > > : ; ; $ $ $ $ # # @ + + + + o o . . . .             ",
"            . . . . . . o . o % + + + + + + # # $ $ $ ; ; ; ; ; > > > > 3 3 4 4 : 1 5 5 5 5 5 q q r r r w w t t u u w u u u u u u u u u u a { i o.o.o.O.+.+.&.&.*.=.$.K.BXuXh $.C.n.D.F.D.F.F.=.v.F.F.m.m.m.J.,X6XnXVXCXK.&.k.z.k.z.k.z.k.k.k.k.k.y.5.8.y.y.y.y.y.y.,.,.,.,.,.,.} ,.} } } } } } } | } | ] ] { } } } } } } } } } } } } } } ,.>.>.>.2.5.5.5.5.4.4.4.j.h.g.g.z.j.j.h.h.f.9XFXGX8.>.k.k.k.k.y.y.u.y.u.u.&.&.&.&.&.&.*.=.i.*.$.-.-...J.4XcXBXZXcXf @.+.+.O.O.O.| | | | | | [ ] ] ] u u u u u p p u u u u u t u q q q 5 5 q q r q q 5 5 5 5 4 4 4 4 4 > ; ; ; ; $ $ $ $ @ @ + + o o o o o . X . .             ",
"            . . . . . . o . o % + + + + + + # # $ $ $ $ $ ; ; ; > ; > > 3 3 4 4 : 1 4 5 5 5 5 7 q q q q q q t t q t u u u u u u u p p u u p { { | o.o.o.O.+.+.&.=.=...,XBX3Xf b.m.C.n.n.D.D.n.D.F.n.m.J.3X6XMXZXBXmX5X'.+.O.c.z.z.c.k.z.z.z.k.k.y.5.4.5.8.y.y.y.5.5.,.,.,.} ,.,.,.,.:.:.} } } } } { } } [ [ { { } } } } } :.:.,.} } ,.,.>.2.2.5.5.5.5.5.5.4.4.4.3.j.g.h.j.g.h.h.h.6.8XSXDXI.e ,.y.k.k.k.y.y.u.y.t.t.%.%.%.&.&.&.&.&.&.*.i.*.*.*.@.f @.H.4X,Xf f O.O.O.O.O.| | | { { [ p p p p p u p u u u u u u u u t q q q q 6 6 6 5 5 q q q 5 1 1 1 1 : 1 1 3 ; ; ; ; ; $ $ $ # # % + + + + + o o . X . . . .         ",
"              . . . . . o . o o % % + + + + @ @ $ $ $ $ $ $ ; ; ; ; ; ; ; : : : : : 4 5 5 5 5 5 7 5 q q q q q q 6 5 q q q q q t u u u w w u i { o.o.O.O.+.+.+.&.*.#.$.5XCXH.f m.C.C.n.n.m.n.n.b.m.K.5XMXZXBXcX,XH.h f g } 4.bXGXU.4.z.k.k.k.z.5.8.4.4.4.4.4.5.5.2.>.[ } [ | | [ | | [ [ [ [ [ [ [ ] [ { p p [ [ [ [ [ [ [ [ [ { [ [ [ ;.' [ >.>.5.2.2.3.3.3.4.4.j.7.h.h.g.h.h.h.f.7XSXSX:Xe 3.y.y.y.y.y.y.y.t.t.&.&.+.@.+.+.&.&.&.%.%.%.&.#.#.$.$.#.#.f f d f @.X.| i i | i i i a p p p u u u t q t q q q q q q q q 5 5 5 6 6 6 1 1 1 6 6 5 1 1 1 1 : : : : - - ; ; ; ; $ $ @ @ @ @ + + o O o o o . . X . .             ",
"              . . . . . . o o o o o o o % % + + @ @ # # # # # # $ $ ; ; ; ; : : - : 1 4 4 4 5 5 4 1 1 1 6 6 6 6 1 6 1 6 5 5 q q w u u w w u u i i i | X.X.X.@.@.$.$...uXVXm.-.*.=.n.=.n.m...n.,XcXCXZXnX3XJ.h i f +.u.q.z.7.9XFXGXU.4.z.k.k.k.4.j.4.4.4.4.3.3.3.3.2.2.>.>.<.} } [ [ [ [ ] ] ] ] ] u ] [ p u p p p p u u p e ] ' ' ' ;.>.>.>.>.>.>.>.2.3.3.3.4.4.1.h.g.7.h.h.h.6.7XSXSX:Xe 3.3.5.5.5.5.5.y.y.O.%.%.%.O.O.@.+.+.+.+.%.%.%.+.@.+.@.@.@.+.@.+.@.X.i o.{ i i i i u p u r r w q q q 9 q q q 6 q 5 6 6 6 6 6 6 6 6 5 6 6 6 1 1 1 1 1 1 : : : - - - - - # # # # # # @ @ + + + % o o o o . . . . . .             ",
"              . . . . . o o o o o o + % + + @ @ @ @ @ @ # # # # # # # - - ; - - - - - : 1 1 1 : : : 1 1 1 1 6 4 6 6 6 6 6 1 1 1 w w w 9 9 u u u i i | X.X.X.@.@.#.$.b.cXmX....=.n.n.n.=.m.3XnXBXVX6XH.-.f f X.t.+.a.u.u.y.4.I.0XFXGXI.;.h.j.4.h.j.j.4.4.4.3.3.3.3.2.2.>.>.>.>.' ' ' [ [ [ [ [ ] ] e ' p w w u u u u u ' ' ' ' ' ' ' ' ' [ >.;.;.;.;.3.3.3.4.4.7.g.h.6.h.f.f.6.7XSXSX7Xe ;.5.3.4.5.5.5.5. . .} } O.O.O.O.O.O.O.O.X.O.O.O.O.@.@.+.+.@.X.X.O.X.X.O.| | i i i u u u u u t u w w w q q 6 < < 6 6 1 1 6 1 6 1 1 1 : : 1 1 1 1 1 1 1 1 1 1 : : ; - - - $ $ $ $ # # # @ @ @ + + o o o o . . . . . .             ",
"              . . . . . o + o o + + + % % $ $ # ; $ $ # # ; ; 3 7 7 7 7 7 7 7 7 r r r t t t t t r r r t q 5 5 r p p a a a a a { { { { { { :.o.{ o.o.O.+.%.u.u.u.#.$.C.mXcX....F.F.n.F.,XcXZXNX5XC.-.f @.*.i.p.p.l.l.l.p.y.c.h.I.0XSXDX:Xf.U.c.h.c.z.z.z.z.h.h.h.j.j.j.8.8.4.3.;.5.5.5.5.5.5.5.5.5.5.5.5.,.,.5.,.5.5.5.5.5.5.5.5.5.>.>.>.5.5.8.g.g.g.h.h.h.h.h.h.h.h.I.I.I.I.8XSXSX7X;.3.5.2.h.h.k.k.k.k.k.y.y.y.y.y.t.t.t.t.t.t.y.y.y.t.t.u.t.&.| %.i.O.t.t.t.t.q.t.q.q.q.q.o.q.{ :.{ { { { { { :.a t q p a p a a a a a a a a a t t t t t t t t r r 7 4 3 3 ; ; ; ; ; ; ; ; $ $ # # # # + + + + o o . . . . . .         ",
"            . . . . . . + + o o + + % % # # $ $ 3 ; ; $ ; ; 3 7 > > > > 4 4 4 4 5 5 5 5 r r r r p p a p t q t p t u u p p p [ { [ [ { { { { { { o.o.+.+.+.t.u.u.*.-.C.mXcX..$.C.m.H.6XZXBX4XS.f @.@.=.C.C.F.l.i.l.l.l.k.l.k.z.g.I.9XSXDX7XI.I.c.z.h.h.h.h.h.h.h.h.h.j.g.8.8.3.;.3.3.3.2.2.2.2.2.5.2.2.5.2.2.5.2.5.2.2.3.5.5.5.3.3.3.;.3.3.8.8.j.j.j.j.j.g.g.h.h.h.I.f.f.I.9XSXSX2X;.7.8.3.8.j.4.5.5.5.y.y.y.y.y.q.q.%.t.%.%.O.%.%.%.%.%.t.u.t.%.O.O.t.t.a.t.q.O.O.y.O.O.q.q.o.,.q.,.,.,.,.,.,.:.[ p w w u p u u u u u p p p p p q q q q r r r r t t 7 7 4 3 ; ; > ; ; ; ; ; $ $ $ $ $ # + + + + + o . . . . . .         ",
"            . . . . . . o + o o + + + + % % # # $ $ $ $ ; ; ; ; > > > > 4 4 4 1 5 5 5 5 5 5 q q q q t u w 9 q u u u u u u u u u u p p p p p i { i | o.o.O.O.+.+.#.-.C.nXnX......,XNXZX6XJ.f f @.#.i.=.=.i.i.u.l.k.l.k.l.k.k.z.z.f.I.9XSXSX8XI.h.h.h.h.h.h.h.h.g.g.g.g.7.7.7.1.1.4.3.3.3.3.3.3.3.2.2.3.3.2.2.2.2.2.2.2.2.4.4.4.4.3.3.1.7.7.7.7.j.j.j.j.g.g.g.f.f.f.I.f.I.0XSXDX>X' 7.8.3.g.7.8.5.5.5.5.5.5.5.} } } } } O.O.O.O.O.O.O.O.O.O.O.O.X.| O.O.O.O.| o.} } } } | | | | [ [ [ [ [ [ [ [ [ ] p u u p u u w w u u u t q w q t r q q q q q r 5 5 4 4 3 : ; ; ; ; ; ; ; ; $ $ @ @ + + + + o o o o . . . .             ",
"            . . . . . . . o % % + + + + + # # # $ $ $ $ ; ; ; ; > > > > 1 1 4 4 4 5 5 5 5 q q r r q q r q w w w w u u u u u u u u p p u p p { a | | o.o.O.O.+.%.@.#.$.cXNXb.h 5XBXNX,Xf f $.@.&.&.&.*.=.=.&.l.k.y.k.k.y.k.k.z.j.h.g.f.8XSXSX9XI.f.h.I.h.h.h.g.h.j.g.g.g.g.7.7.1.4.4.4.4.4.3.3.3.3.3.4.4.4.4.4.4.3.3.3.3.3.4.4.4.4.4.1.6.f.g.g.g.g.h.h.h.h.h.f.I.I.f.:XGXFXGXI.' 6.7.8.g.4.4.5.5.5.5.5.5.5.5.} } } | } } | } } } O.o.O.o.O.o.O.o.| o.O.o.} | | } } } } | | | [ | [ [ [ | ] ] ] u u p w 9 p p w u u u u u w w w q t q q q q q 5 5 5 4 4 4 3 : ; 3 ; ; ; ; ; $ $ $ $ # % % + + o o o o . . . . .           ",
"          . . . . . . . o o % % + + + + + + # # $ $ $ $ ; ; ; ; > > > 3 4 4 4 4 4 5 5 5 5 5 5 q r q r t q q q t u u t t u u u u u u u u u p a a { { o.o.O.O.+.+.+.#.@.5XCXK.5XCXyXS.f -.$.#.a.t.&.&.&.&.&.&.y.y.k.y.y.y.y.k.z.j.z.j.h.f.:X0XSX0X:XI.f.h.h.f.h.h.h.j.j.h.g.g.g.1.g.7.4.4.4.4.8.4.4.4.3.3.4.4.4.4.4.4.4.4.4.4.4.4.4.4.7.6.f.f.f.h.h.g.h.h.h.I.f.f.I.8XFXFX9X6.;.7.7.7.g.j.4.4.8.4.5.5.5.2.2.>.} } } { } } } } } } o.O.o.o.o.o.o.| i | o.| | | | | | | | | | | [ [ [ [ [ [ [ [ [ [ u p w w p p u u u u u t t t t t r q q q q q 5 5 5 5 4 4 4 3 ; ; ; ; ; ; $ $ $ $ $ # + + + + + o o o . . . . .           ",
"            . . . . . . o o % % + + + + + + @ @ $ $ $ $ ; $ ; ; : : > > 4 4 4 4 5 5 5 5 5 5 5 r 5 5 r r 6 < 6 r q r r q r q t t p u u p p p a { { { | | o.o.O.O.+.@.-.,XMXnXBXuXh h $.*.#.+.t.q.+.+.%.%.y.y.y.y.y.y.y.q.5.5.y.8.z.z.4.h.6.I.9XSXSX9XI.6.f.I.f.f.h.h.h.h.g.g.4.4.j.j.4.4.4.4.4.4.4.4.3.3.3.3.4.3.4.4.7.7.7.7.7.4.h.j.4.7.h.h.f.f.f.I.h.I.I.f.I.:X0XFXFX8X;.;.6.6.g.g.j.8.3.3.3.3.2.2.>.>.>.>.} { { [ [ [ | | | | | { { | { { { { i { { { { { { { { { a a p p p p p p p p p p p p u u q q t u t t q r r r r q q 5 q q q q q 5 5 5 4 4 4 4 3 : - ; ; ; ; ; ; $ $ $ $ # + + + + + + o o . . . . .           ",
"            . . . . . . . o % % + + + + + + @ @ $ $ # # # $ $ ; > > 3 3 4 4 4 1 1 1 1 1 1 5 5 5 5 5 r 7 5 6 5 r r r r r r r r t u u u p p p p a i i { o.O.O.+.O.%.%.$.C.nXBXuXh h h @.$.#.+.O.+.+.+.+.y.y.y.y.y.y.q.y.q.5.5.5.8.j.j.z.j.h.6.6.7XDXSXDX8XI.f.f.I.h.h.f.g.h.h.h.4.j.j.j.j.j.g.7.7.1.1.1.1.1.1.3.1.3.7.7.7.7.7.g.g.4.4.4.7.7.7.f.h.f.f.f.f.f.>X9XFXSX0XI.e ;.8.8.g.g.g.j.4.3.3.3.3.2.2.2.>.>.} { { [ [ [ [ | | | { { { { | | { { { i { { { { { { { a i u u u u u u p p p p p u u u t u q q t t t t q q r r r r 5 5 6 5 5 q 5 5 5 5 5 5 4 4 4 : : ; ; ; ; ; ; $ $ $ @ @ + + + + + o o o . . . .             ",
"              . . . . . . . o o o o o o % % % % @ @ # # # # # $ ; ; ; : : ; : - - - - - : 1 1 1 4 4 5 5 6 1 6 5 1 6 5 5 5 5 6 q q q w w r w w r u u i i o.o.o.X.X.X.@.f 4XcX$.f g X.#.#.@.@.O.X.@.@.o.O.} } } } } ,.} :.,.5.5.5.4.4.8.4.8.j.g.1.I.9XSXSX0X7XI.6.6.f.I.h.f.f.g.4.j.g.g.g.g.g.4.7.1.1.1.1.1.1.1.1.1.1.1.6.7.7.6.7.g.g.g.g.h.h.g.h.I.f.6.I.8XDXFXDX7X;.;.6.1.1.g.7.7.7.4.3.2.>.;.;.;.' ' ' ' w w w w u u u p u w u u u p ] i p p u u p p u u u u u u s r t t w w r w w q w w w w q q q 1 1 6 q 5 6 6 6 5 5 5 6 1 1 1 1 1 1 1 1 1 1 1 1 : : : - - - ; ; ; $ $ # @ @ + @ + + o + o o o . . . . .             ",
"              . . . . . . . o o o o + + % + + + @ @ @ @ # # # $ # # - ; ; ; - - : : 1 1 1 1 1 1 : : 1 1 1 1 1 1 1 1 1 6 6 6 1 1 9 9 q 9 9 w w 9 w w d u i i i i X.X.@.f h f d g X.O.X.X.@.X.| O.X.X.| | | | | | } } } >.>.2.2.4.3.4.7.3.3.j.g.g.6.f.>X0XSXFX0X7XI.6.6.f.f.f.f.f.g.g.g.7.7.7.7.7.7.6.6.6.7.7.7.7.6.6.6.6.6.6.6.6.g.6.6.g.h.f.f.f.6.I.8XDXFXSX9XI.k ;.1.7.7.7.7.1.1.1.1.;.>.' ;.' ' ' ' e w w w w w w w 9 u w 9 w w w w w u w w w 9 u u w u w w u r q w r w 9 9 w w w w w 9 9 9 9 q q q 9 q q q 1 1 1 1 1 1 1 1 1 1 1 1 1 1 1 1 < : - - - - - @ # $ $ $ # # # @ @ + + + o o o o . o . . . . .             ",
"            . . . . . . . . o o + + + % % # # # $ $ $ $ ; ; ; ; 3 3 > > 3 4 4 4 : 1 4 4 5 5 5 7 r r t t t t t t u u u u u p p p u u u w r u a u a a { { o.o.o.o.i u.X.#.#.+.O.O.O.%.%.+.+.#.+.i O.O.O.O.O.O.,.,.5.5.5.5.5.4.5.5.j.1.h.h.g.h.h.h.I.f.1.I.:X0XFXSX0X8X>XI.f.f.f.I.h.h.h.h.h.h.h.h.h.h.h.g.g.g.h.h.h.h.h.h.h.h.h.h.h.I.I.h.f.f.I.>X9XDXSXSX9XU.;.;.1.7.h.g.g.g.g.g.g.7.7.7.3.3.5.2.>.<.<.<.<.<.:.{ { { u u { { p | | [ [ [ | { [ [ ] [ ] [ [ [ ] [ i p p [ p u w u p p p p [ p p p [ p [ p p [ p u u u u u u u u t 5 6 6 6 5 5 5 5 5 5 5 5 4 4 4 4 ; ; ; ; ; $ $ $ @ # + o o + + o o o . . . .             ",
"            . . . . . . o o o % + + % % # # $ $ ; ; 3 3 3 3 2 7 7 2 4 3 3 3 4 4 : 4 5 r r r t t t p p a p p p p { [ p p p { { { { :.{ u p { 0.{ 0.0.0.q.O.O.q.q.t.q.u.u.u.u.t.u.t.u.u.u.a.u.+.O.q.q.y.y.y.y.y.y.5.5.5.5.5.5.k.j.g.g.g.h.h.h.h.h.h.h.h.f.6.6.7X0XSXFXDX0X7X>XI.f.I.I.I.I.I.I.I.I.I.I.I.h.h.h.h.I.h.h.h.h.h.I.I.I.I.I.f.I.>X8X0XSXSXSX9XI.;.;.1.8.7.U.7.h.h.h.h.h.h.g.8.8.8.5.5.5.5.,.,.,.,.,.,.,.q.,.] u ,.q.,.q.,.,.,.,.q.,.,.,.,.q.,.,.q.,.,.q.q.q.q.q.} | ] [ { { { { { { { { { [ { { [ [ { p [ [ p p p p p p t q 5 q t t t t r 7 5 5 5 4 5 7 7 7 2 3 3 3 3 3 $ $ # % O % % + + o . . . . .           ",
"            . . . . . . . . o o + + + + + + @ @ $ $ $ $ ; ; ; ; > > 1 1 4 4 4 5 1 4 5 5 5 5 q r q r r r q q t t u t w w w u u u u u p w u :.:.{ [ [ { | | | O.o.O.O.O.O.O.O.O.O.O.%.%.%.%.t.+.X.O.} } } } | } }  .>.>.2.2.2.2.2.3.3.4.4.7.g.g.g.g.g.h.h.h.f.6.6.>X9XDXFXSXDX9X7X>XI.I.I.f.f.f.h.h.I.I.h.f.f.h.I.I.f.f.f.f.f.f.I.I.:X8X0XDXFXSXGX8XI.;.;.6.7.7.7.7.g.g.7.7.4.4.4.4.3.3.2.2.2.>.>.[ { [ [ [ [ [ [ { { w u q.q.[ [ [ [ [ [ [ [ [ [ [ [ [ [ [ [ [ [ [ [ } } ,.{ w [ p p ] ] u u u u u u u u u u u u w w u u u u u r q 1 q q q q 5 5 5 5 4 4 4 1 3 : ; ; ; ; ; ; $ $ # # + + o + + o o o . . . . . .         ",
"            . . . . . . o o % % + + + + + + @ @ $ $ $ $ ; ; ; > > > > 1 1 4 4 4 1 5 5 5 5 5 q r q q r r q q q t t t w w u u u w u u u w u { [ p [ [ [ { { | | | | o.O.O.O.O.O.O.O.O.O.O.O.O.X.] } } } } } } } } >.>.>.2.2.2.2.2.3.3.3.4.4.7.7.g.g.g.g.h.h.h.h.h.6.6.I.:X9XDXSXSXSXDX0X8X:X>X>XI.I.f.f.f.f.f.f.f.I.I.I.>X:X7X9X0XDXSXFXFXGX9X>X6.;.;.1.g.g.h.h.g.g.g.g.7.7.4.4.3.3.2.2.2.>.>.>.>.[ { { [ [ [ ] ] [ [ w w } { ] [ [ [ [ [ [ [ [ p p p ] [ [ [ [ [ ] ] ] [ { u w p [ [ p [ [ ] ] ] u u u u u u u u u u u t u r u r q 1 q q q r 5 5 5 5 5 4 4 4 3 3 ; ; ; ; ; ; $ $ # # + + o + + o o o . . . . . .         ",
"            . . . . . . o o o o + + + + + % @ @ $ $ ; ; $ $ ; ; ; > > > > 3 4 4 : 1 5 5 5 5 5 5 5 q r r q q r t q t t t t t u w u u p w w p p p p p p p | { { | | | o.O.O.O.O.O.O.O.O.| O.o.| i | | | | | | | | } } } } >.>.>.>.2.2.3.3.4.4.4.4.g.7.6.g.h.h.h.h.I.f.6.6.6.I.:X9XGXDXFXFXSXSXDXDX0X0X9X9X9X9X9X0X0X0XDXSXSXSXSXSXDX0X8XU.6.;.;.;.6.6.I.6.6.g.8.3.4.7.4.4.4.4.3.3.2.2.>.>.>.>.[ [ { [ { [ [ ] ] p ] [ u w | { ] [ ] ] ] p p p p p p p p p p [ ] u [ [ [ p [ u w p p p p p p u u u u u u p p u u u u t u t r r w w q 1 q q q q 5 5 5 5 5 4 4 3 : ; ; ; ; ; ; $ $ $ @ @ + % o o o o o o . . . . . .         ",
"            . . . . . . o o o o + + + + + % @ @ $ $ $ ; $ ; ; ; > > > 3 3 3 3 4 : 1 5 5 5 5 5 5 q r r r q r t t r r t t t t t t t t u w w u u p p p p [ | { { { { { o.o.o.o.o.o.O.o.o.| | o.| u { | | { { [ [ [ { { { [ >.>.<.>.>.2.2.3.3.4.4.4.7.7.6.7.g.g.g.g.f.f.h.I.h.6.1.;.6.I.:X7X9X0X0XDXSXSXSXSXSXSXSXSXSXSXDXGX0X9X7X>Xf.1.;.;.1.7.7.7.6.6.f.I.g.g.j.5.4.8.4.3.3.3.2.2.>.>.>.<.>.[ [ { [ [ ] ] ] ] ] [ p [ u w p p u [ [ [ [ [ p p p p p p p p p p [ ] [ p p u p u w p p p p p p p u u u u p p u u u t t t t t r r r r q 6 q r q r 5 5 5 4 4 4 3 3 3 3 ; ; ; ; ; $ $ $ # # + + o + + o o o . . . . . .         ",
"              . . . . . . . o + + + + + % % $ $ $ $ ; ; ; ; ; ; ; ; ; ; ; ; ; : : 3 4 4 5 5 5 4 5 5 5 5 q q q r r r r r r t t t u t u w q u u p p u p p p p a a i i a { { { | | | { { { { { i u { { { { { [ { { [ [ [ [ { [ [ <.>.>.>.>.2.3.3.4.4.4.4.7.g.7.g.g.g.h.h.7.g.h.I.h.7.6.1.;.1.6.f.I.I.I.>X:X:X:X:X>XU.I.I.6.;.;.;.;.6.6.7.h.g.g.8.8.8.8.7.7.3.1.3.3.3.3.3.3.3.2.2.>.>.>.[ [ [ [ [ [ [ p p p u p a [ [ [ u w p p p p p p p p p p u u u u p p p p [ [ p [ [ p p u w u a a p p p p p p u u u u t t t t t t t r r r r r q 6 5 r 5 7 5 5 5 4 4 3 3 3 3 3 3 3 3 ; ; $ $ $ # # # + + + + o o o . . . .             ",
"                . . . . . . o o o o % % + + @ @ @ @ # # $ $ ; ; $ $ $ $ ; ; - - - ; : : 1 1 1 1 1 5 5 4 6 6 5 5 5 5 5 5 5 q q q u t t q q t w u w w u u u u u u u u u u i i i i { { { { { i u u p p p p u u u u u u u u u p p e ' ' ' ' ;.>.>.;.3.3.3.1.4.1.1.7.1.7.7.7.4.7.7.7.g.h.h.g.g.f.6.6.;.;.;.;.;.;.;.;.;.;.1.6.7.7.7.7.g.g.7.7.7.7.7.1.3.3.3.3.3.3.3.;.;.2.>.>.;.>.' ' [ [ ] ] u ' u u w w w w w w p p p p w w u p u u u u w q w w w w w w w w w u u u u u p u p u q q u u u u u q w q w q q q q q q q q q q 5 1 1 5 5 5 1 5 5 1 4 1 1 : : : : ; ; ; ; ; ; - - $ # @ @ @ # + % o o o o o o . . .               ",
"                . . . . . . o o o o o o % + + + @ @ @ @ # # # # # # $ $ ; ; - ; - - - : : 1 1 : 1 1 1 1 1 1 1 1 1 1 1 1 1 1 9 q q 1 q 9 9 9 9 q w w w w w w r u s s u u u u u u u u u u u u w 9 u w w w w w w w w w w w w w w w u e ' ' ' ' ' ;.>.>.>.;.;.;.3.1.3.3.3.4.7.7.7.7.1.7.7.6.6.f.g.6.g.7.7.g.7.6.6.g.g.7.6.1.1.7.7.1.1.7.7.6.1.1.1.7.3.4.3.2.>.;.;.;.;.;.;.' ' ' ' ' ' u w w w w w w w w w w w w w w w w 9 9 w w w w w w w w w w w w w w w w w w w w w w w w w w 1 w w w w w w w w q w q q 9 9 9 9 q q 9 q q 1 1 1 1 1 < 1 1 1 1 : 1 : : - - # # # # # # # # # # @ @ + + + o o o o o o . . . . .             ",
"                . . . . . . o % % % % + + + @ @ @ @ # # # # # # ; ; ; ; : : : : : : : 1 1 1 1 1 1 1 1 1 < < 1 1 1 6 q q q q q q q w t t t u w u u u u u u u u u r r s u u u p p p p u u p p u u u u u u u u w w w w w w w w w p ] ' ] [ [ [ [ ;.>.>.>.3.3.3.3.3.3.4.4.4.1.1.1.1.6.6.6.7.g.6.g.g.7.7.g.7.g.g.g.7.g.g.g.g.g.7.7.g.g.6.1.1.6.6.1.1.3.3.2.2.3.2.;.;.;.>.;.' ' ' ' ' e e w w w w w w w w w w w w w w w w u u u u u u w w w w w w w w w w w w w w w u w u u w u u w u q q q w w w w w w w w q q q w w w q q q q 1 1 5 5 1 5 5 1 5 1 1 1 : : ; - - # # - - $ $ # # @ @ @ # % + o o o o . . . . . .             ",
"            . . . . o o + + % % + + # $ $ $ $ $ $ 3 ; $ 3 3 3 2 7 7 7 7 7 7 7 r r r t t t t t t t p p p t q q p u p p p p p { { { { { { { { { { :.:.,.,.,.:.} { a u { { q.:.:.,.,.,.,.,.,.} ,.,.} } } { { ,.,.q.,.:.{ [ u :.:.,.:.,.,.,.5.5.5.5.5.5.5.5.5.5.8.8.8.h.h.g.g.g.7.1.7.g.h.h.z.z.h.h.h.h.j.j.h.j.j.h.h.h.h.h.h.h.h.h.h.h.7.h.h.g.g.g.j.8.8.8.5.5.5.5.5.5.5.5.5.5.5.5.5.5.,.:.] p :.:.{ { { :.,.,.,.q.,.,.,.:.:.:.,.,.,.,.,.,.,.:.{ [ u { :.,.,.,.{ { ,.,.:.{ { { { :.{ { { { { { :.:.{ { p w [ { { { [ p p a a p p p p p t t t t t t t r r 7 5 3 - 3 4 3 3 3 3 3 ; ; $ $ $ $ % % % + o o . . . . . .         ",
"            . . . . . . o o % % + + + + $ $ $ $ $ $ $ # ; ; ; > > > 1 1 4 4 5 5 7 7 r r r r r r t t t t u q q p t t t u u u u p [ p p p p u u u [ [ { { | | { [ p w p p { [ [ [ [ [ [ [ ] ] ] ] ] ] ] ] ] [ [ { { [ p u w [ [ { { { { { } <.>.>.>.>.>.2.2.2.2.3.4.7.7.7.7.4.4.1.4.7.j.j.j.j.j.j.g.g.g.g.g.g.g.g.g.g.g.g.g.g.g.7.7.7.1.7.4.4.4.4.3.3.3.3.2.2.2.5.5.2.2.2.>.>.<.<.<.<.:.<.] w [ ] ] ] ] [ [ [ { { { { [ [ ] ] ] [ { { { { { { [ p w p [ [ [ [ [ [ [ [ [ [ p p p p p p [ [ [ [ [ { p p u 9 p p p u u u u u t t r r q q q q 5 q q q r q 7 5 4 : - : 3 ; 3 ; ; $ $ $ # $ % % + + + + o o . . . . . .         ",
"            . . . . . . o o o o % + + + % % @ @ $ $ $ # $ ; ; ; : : > > 1 1 4 4 5 5 5 5 q q q q q r t t t q q u w w w t u u u u u u u u u u u u u u ] ] ] ] ] p p w p u [ u ] [ [ [ [ ] ] ] ] [ [ [ [ [ [ [ [ [ [ ] ] u w [ p p [ [ [ [ [ [ } >.<.<.>.>.>.2.2.3.2.3.3.3.3.3.3.3.4.4.4.4.j.j.j.g.g.7.4.7.4.7.4.4.7.4.4.4.4.4.4.4.4.4.2.4.4.4.3.3.2.2.2.2.2.2.>.>.>.>.>.[ >.[ [ [ [ { [ { ] w ] p ] ] ] ] ] ] ] [ [ [ [ [ [ [ [ [ [ [ [ [ [ [ [ ] w [ [ u ] ] ] [ ] [ ] [ [ [ p p p p u u u p ] p u u u 9 u u u u w u u t t r r r q q q q q q q r 5 5 5 4 4 : - : ; ; - ; $ $ $ @ # # + + + O O O % o . . . .             ",
"          . . . . . . . o o o o % + + + + + @ @ $ $ $ # $ ; ; ; > > 1 4 1 1 4 4 5 5 5 5 5 q q 5 9 q q r q q q u t q u u u u u u u u u u p p p p u u p p ] ] ] p p u [ p [ ] [ [ [ [ [ ] ] ] [ [ [ [ [ [ [ [ [ [ [ [ [ ] w [ p p [ [ [ [ { } <.<.} <.<.<.>.>.>.2.2.2.2.2.2.3.2.;.3.3.3.3.4.4.4.4.4.7.7.7.7.4.4.4.4.4.4.4.4.4.4.4.5.5.2.5.5.2.2.2.2.2.2.>.>.>.>.>.[ [ [ [ [ [ [ ] [ [ ' ] w w ] ] [ [ [ ] [ [ [ [ ] ] ] [ [ [ [ [ [ [ ] [ [ [ [ ] w [ [ ] ] [ [ [ ] [ ] [ [ p p p [ [ p p u u u u u p u 9 p u u u w w u u t t t t t t q q q q 5 5 5 4 5 4 4 1 - 3 3 3 ; ; ; ; $ $ # @ + + + + + O o o . . . .             ",
"            . . . . . . o o o % + + + + + + @ @ @ $ # # ; ; ; ; > > > > 4 4 4 4 5 5 5 5 5 q q q q r r r r 5 q t t t t t u u t t u u u u u u u u p p u u p p p p u w [ u p p [ [ ] ] p p p p p p p p [ p [ p p p [ p p u w [ p [ ] ] [ [ [ [ { [ [ [ [ <.>.>.>.>.2.2.>.>.3.3.;.;.1.1.3.3.3.3.4.4.4.4.4.1.1.4.4.3.3.4.4.4.3.3.3.3.5.5.[ 5.2.2.2.>.>.>.>.>.>.>.} { { { { [ [ ] ] ] ] ] p u w w [ p [ [ [ [ [ [ [ [ [ [ [ [ [ ] ] u [ [ [ [ [ p p p w p [ p [ [ ] [ [ [ [ p p p p p p p p p p p p p p u t 9 p u u u u u u t r r r r q q q q q q 5 5 5 5 5 4 4 3 - 3 3 ; ; ; ; $ $ $ @ @ + + + + + + % o . . . .             ",
"            . . . . . . o o o o + + + + + + @ @ $ $ $ # ; ; ; ; > > > > > 1 1 4 4 5 5 5 5 5 q q q r r r q q 5 t q t t t t t t t u u u u u u u p p p p p p p p p u w [ p [ p [ [ [ [ p u u u u u u u u p [ [ [ [ p p u u w [ p [ [ [ [ [ ] p p w u u p ' [ [ >.<.<.<.>.>.>.;.;.;.2.2.3.2.3.3.3.2.3.3.3.3.3.3.3.2.2.2.2.2.>.>.2.2.>.<.' >.>.>.<.>.<.>.>.<.[ { { { { [ [ [ [ ] [ ] ] [ p [ u w [ p [ [ ] p [ p [ [ [ [ [ [ [ [ [ [ [ [ [ p p p p p w p [ p [ [ [ ] [ p u u u u p u u u u p p p p u u t q 9 p u u u u u t q q 5 5 5 5 5 q 5 q q q 5 5 4 4 3 3 3 # 3 ; ; ; ; ; $ $ $ @ @ + + + o o o % o . . . .             ",
"              . . . . . . o o o + + + + + + @ @ @ $ $ # ; ; ; ; ; ; ; ; ; > : 3 3 4 4 4 4 4 4 4 5 7 q 5 q 6 1 q q q q q q q q q q q q q q t t u u u u u u u p p u w { p p p p p u u w w w q w w w w w w u u u u u w w w w [ p p ] ] p p u w w w w w w w u u u ' ] ] [ [ [ [ ' ' >.>.>.>.>.>.>.>.>.>.>.>.>.>.>.>.;.>.>.>.;.;.>.>.<.<.' <.;.;.>.>.[ [ [ ] ] p [ [ p p ] u u u u u u p p p u w u u u u u u u u u u w w w w u u u u u u u p p p p u w p p p p p p p w w w w w q w w w q q u u u q q r r q q p u u u u t q q 5 1 1 1 1 1 1 6 1 1 1 1 4 : 1 : 3 ; # 3 ; ; ; ; $ $ $ $ + + % % o o o o o . . . . .             ",
"                . . . . . . o o % o o o % % + + @ @ @ @ # ; ; $ ; ; $ $ $ ; ; : : : : : : : : 1 1 5 5 1 6 1 1 6 6 6 1 1 1 1 q 6 q 5 q q q q q q w w w w w w w t w 9 p u u u u u w w w w w w w w u w w w w w w w w w w w w p p u w w w w q q q q w w w w w w w u w w p p p u w w u ' ] [ [ [ [ [ [ ' ' ' ' ' ' ' ' ' ' ' ' ' ' ' ' e e ' ' ' ' ' u w w w w w w u u u u u u w w w w u u u 9 9 w w w w w w w w w w w w w w w w w w w w w w w w w w w u p w u u w w w w w w w q q q q q q q w w q q q 5 q 1 u t w w w q q 5 1 1 1 1 6 6 6 6 1 1 1 1 : : : - ; - # 3 ; ; ; - $ # @ @ % % % % o o o o o . . . . .             ",
"                . . . . . . . o o o o % % % + + @ @ @ @ # # # # # # - ; ; ; - - - - : - - : - : < < < < 1 1 1 1 q q q q 6 q 9 q 1 1 q 1 < q 9 9 9 w w w w w w w w w w w w w w w w w w w w w w 9 w w w w w w w w w w w w w w w w w w w w w q q q q 0 0 q w w w w w w w w w w w e ' ' ' ' ' ' ' ' e ' ' ' u w ' ' ' ' ' ' ' ' ' ' e e e e e e e e e e w w w w w 9 9 q w w w w w 9 9 9 9 9 w w w w w w w w w w w w w w w < w w w w w w w w w 9 w w w w 9 9 w w w w w w w w w q 1 u w w w q w w w w w w w w 9 9 9 9 9 1 1 1 1 1 1 1 1 - 1 1 - : - : : - - - - ; - # # # # @ @ @ @ @ + + % o o o o o o . . . . .             ",
"                . . . . . . o % + + % # $ $ $ $ $ $ ; ; ; > > > 4 4 7 7 7 7 4 4 : : 4 4 4 7 7 r t t t t t t t t p p a a p p a a a p a t w p { a { :.:.{ [ p p p [ { :.:.{ { { { { { { [ [ [ p u { { { [ { { { { :.{ { { { { { :.:.:.{ [ [ [ a a a u p [ :.:.:.:.<.<.:.:.:.<.<.{ <.<.:.,.,.,.5.,.,.,.<.<.[ ' <.<.>.<.>.>.,.,.>.>.<.<.<.<.:.:.:.:.:.:.:.:.:.:.{ p w a p p [ [ { [ { { { { { { :.:.{ { :.:.:.:.:.:.{ { [ w { [ { :.{ :.:.{ { [ [ [ ,.:.:.} :.:.:.:.{ { [ [ [ p q { a a a a [ [ [ [ { { { { { [ { { a p p p u u t t q 4 r r 7 r 7 r 7 5 7 7 7 7 4 3 > > 3 3 ; ; ; $ $ $ # + % % % % + o . . . . .           ",
"            . . . . . . . . % + + + % # $ $ $ $ ; ; 3 3 3 3 3 3 7 7 7 7 7 7 7 5 1 : 5 5 7 r r t t t t t t t t t u u u p p p p p p u p w w p p p { { { [ p p p p [ [ { { { { { { [ [ [ [ p p u w [ [ [ [ [ [ [ [ :.{ { { { { { :.,.} } { [ [ p p ] u ] { } } } :.<.<.<.{ { [ [ [ { { { <.<.:.:.,.,.,.<.<.[ ' <.<.<.<.>.,.,.,.5.,.,.,.,.,.,.,.,.,.,.:.:.:.:.,.{ p u [ [ [ { { ,.:.{ { { { { { { { { { { { { { { { { { p w p p [ { { } { { [ p p p :.:.{ { { { { { { [ [ p [ p w a a a a p p p [ p [ [ p p p [ a a a p u t t t r r q 1 r r r t r r 5 4 4 4 4 4 1 > 3 3 3 3 ; ; ; ; $ $ $ + % % % o + o . . . . . .         ",
"            . . . . . . . . o % o % + + # # # $ $ $ ; ; ; ; ; ; : : > > > > : : 1 : 4 4 5 5 4 5 r r r q q q q q q q q q t q t u q w u q q u u u u u p p p p p p u p p [ [ p [ [ p p p p p p u w p p p p ] ] ] ] [ [ [ ] ] [ [ [ | | [ [ ] u u ] ] w w ] [ [ | [ [ [ ] ] ] ] ] [ ] ] ] ] [ [ { { [ <.[ <.] e ] ' [ [ [ [ { [ } { { { [ { [ [ [ [ [ ] ] ] [ [ [ u w [ p p [ [ [ [ [ ] ] ] ] ] ] ] u ] ] ] ] ] p p p p u w p p p p [ [ [ [ p u p p [ [ [ [ [ ] ] u [ p p p p u w p t t u u u u u u u u u u u u u u u t t q r r r q 5 1 5 7 5 5 5 5 4 4 4 4 4 1 > > ; ; $ $ $ $ $ # $ $ % + o o o o o o . . . .             ",
"            . . . . . . . . o o + + + + + % # # $ $ $ $ $ $ ; ; : : > > > > 1 1 : : 4 4 5 5 5 7 r r r r q r r r t t q q t t t t t t p t w p p u p p p p p p p p p p p p [ p p [ p p p p p p u w [ [ [ [ [ [ [ [ ] ] ] ] ] ] ] [ ] [ [ ] [ [ [ [ [ u w ] ] ] [ ] ] p p p ] ] ] ] [ [ [ ] ] ] ] ] p [ [ [ p u [ [ ] ] ] ] ] ] ] [ ] ] ] ] ] ] ] ] [ ] [ [ ] [ [ u w [ [ ] [ ] [ ] [ [ [ [ [ [ [ [ [ [ [ [ [ [ p p p p p w [ p p p [ [ [ [ [ [ [ [ [ [ [ [ [ [ [ [ p p p p p u w a p p u u p p p p u u u u u u u u t t t t t t r r q 1 5 5 5 5 5 5 4 4 4 4 4 4 > > ; ; ; ; $ $ $ $ # # % + o % % o o . . . . .             ",
"            . . . . . . . . o o + + + + + % # # $ $ $ $ ; ; ; ; > > > > 3 3 4 4 : : 4 4 5 7 5 7 5 5 5 q q q q q t q q q t t t t t t u q q u p u u u p p p u p p p p p p p p p [ p p p p p p q w [ [ [ [ ] [ [ [ ] ] [ [ [ ] ] ] ] ] ] ] p p p p p w w p ] ] [ p p p p p ] p p ] p p ] ] ] ] ] p ] [ [ [ p w [ [ ] [ ] ] ] ] [ { ] ] ] [ [ [ [ [ [ [ [ [ [ [ [ u w [ [ [ [ ] [ [ ] ] ] ] ] ] [ [ ] ] [ [ p p p p p p u w p p p p [ [ ] ] p [ [ [ p p p p [ [ [ [ p u p u p u q p u u u u p u u p u u u u u u t q t t r t t r r q 5 1 5 5 5 7 5 7 4 4 1 1 1 1 > > > ; ; ; ; $ $ $ # # % + % % % % o o . . . .             ",
"            . . . . . . . . o + + + + + + + @ @ $ $ $ $ $ $ ; ; ; ; > > > > 3 3 1 1 5 5 5 5 4 5 q q r r q q q r r q q t t t t t t t p q q u p p u u p p p p p p p p p p p p p [ p p p p p u u w [ [ [ p p p p p p [ [ [ [ [ [ p [ [ p p p p p p p q t p p p [ p p p p p p p p ] p p p p p [ [ [ p p p a u w p [ p p p p p p ] ] p p p [ [ [ [ [ [ ] [ [ p p p u w [ p p [ ] [ [ [ [ [ [ ] ] ] p ] ] p p p p p p [ [ u w p p p p [ [ [ [ [ [ p p p p p p [ [ [ [ [ p p p a u w a p u u u u u p p u p p u u t t t t t t r r r q q 5 1 5 5 5 5 5 5 4 4 4 1 3 3 > > ; ; ; $ $ $ $ # # # + % o o o o o o . . . .             ",
"              . . . . . . . o o + + + + + + # # # # $ $ $ $ $ $ ; ; : > > > 3 3 : : 5 5 5 5 5 5 q q 5 5 q q q q q q q w w q q t t t t q q u u u u u p p u u u p u p p p p p p p p p p p p p u w p p p p p p p p p p p p u p p p p u u w t t t t q 1 q u p p p u w w w w w q w w p p p u p p p p p p p a p w p p [ [ [ [ p p p u p p p u u u u u ] p p p p p p u w [ [ p [ ] [ [ [ [ [ p ] p p p u u u p p [ [ [ p p u w [ p p p [ [ ] ] p p p p p p p p [ [ [ [ p p p p p u q u u u u u u u u w u u u u t t t t q q q 5 1 1 1 1 5 1 5 r 5 5 4 4 : : - - ; ; ; ; ; ; ; $ $ $ $ # # # % % o o % o o . . . . .             ",
"              . . . . . . . . . o o o o % % + + @ @ @ @ # # @ # $ $ ; ; ; ; ; : - : 1 5 5 5 5 5 5 5 1 5 5 1 1 6 5 5 q q q q w q q q t q w w t u u u u u w w w w u w u u u p u u u u u w w w w w u q w q w q w q u q w u w u w w w w q q q q q q q q q q q q w w w w w w w w w w u w w w w w w w u u u w w w w w u u u u w w w w q q w w w w u u w w w w u t w q q u p p p p p p u w w w w w u w w w w w w u u u p p u w w u p p u u p u w w w w u u w u p u u u u u u w w w w w w w w w w w w w w q q 1 t q q q 6 6 5 6 1 1 1 1 1 1 1 1 1 1 1 1 : : - - ; ; ; ; $ $ # # # # @ @ + + + % o o o o . . . . . .             ",
"              .   . . . . . . . o o o o % % + + @ @ @ @ # # # # # # # # - - - - - - - - : : : : 1 1 1 1 1 < < 1 1 < 1 1 1 1 1 1 1 1 1 1 9 9 9 q 9 w w w 9 9 9 9 9 0 w q 9 w 9 9 9 9 w w w w 9 9 q q q 9 9 9 q q q 9 q w 1 w q w 9 9 9 9 9 9 9 q 9 9 9 9 9 9 9 9 w w w w w w w 9 9 9 9 9 w w w w 9 9 9 9 9 9 9 9 w w 9 9 9 9 9 9 w q 9 q q 9 w 9 w w w 9 9 9 q w 9 q w w w w w w w w w w 9 9 w q w 9 9 9 9 9 w w w w 9 9 9 w w w w w w w 9 9 w 9 9 w 9 9 w 9 9 9 9 9 9 9 9 9 9 9 q q 9 9 9 9 9 q 9 q q < q 1 1 1 1 1 1 1 1 1 < < 1 1 1 - - - - - : - - - ; - # - # # @ @ @ @ @ @ + % % % o o o o . . . .                 ",
"              . . . . . . . o o + + + + + + @ @ # $ @ @ $ $ $ ; ; ; ; ; : ; : : 4 4 5 5 5 5 5 5 5 5 5 5 5 1 1 r t t t t t t u u u u u u p p p p p p p p p p p [ q w p p u p u u u u u p p p p p u u u u u u u u u u u u q u w p p ] ] ] ] ] p p [ [ [ [ [ [ [ [ u p p p p p u w u u u p p p p p p p p p p p p p p p p p p p [ p u t q t p u p p p p p u t t u a p a a a p p p p p p p p u q a a [ [ [ [ [ [ [ [ p [ [ [ [ [ [ [ [ [ [ [ [ [ [ p w p u u p u u u u u u u u u u u u u u u u u u u u t t 1 q q q t q q q q r r q q r r r r r q 5 5 4 4 > > > : ; : ; ; ; ; $ $ $ $ # @ + + % o o o o . . . . . .           ",
"            . . . . . . . . + + + + + % # $ $ $ $ $ $ # ; ; ; 3 3 3 3 3 3 3 4 4 7 7 r r r r r r r r r r r q q t t t t p a p a a a p p a { { a p { { { { :.:.:.:.u u :.:.:.:.:.:.,.,.,.,.:.:.:.:.:.:.:.:.:.:.:.:.:.:.:.{ u { a :.{ } } } } } { { :.:.} } } } } { { { { { :.{ [ u ,.:.:.,.,.:.{ { { { { { { { { { { { { { { { { { p u t a :.{ :.:.{ :.{ a p p { :.:.:.:.:.:.:.:.:.[ [ [ a u u a { { { { :.:.:.:.:.:.:.:.:.:.:.{ { :.{ { :.:.:.:.[ p :.:.:.:.:.,.,.,.:.:.:.:.:.:.:.:.:.:.:.:.:.:.:.{ a p q p p p p p p p p p p t t t t t t r r r 7 7 7 7 7 7 4 3 4 7 2 3 3 3 ; $ $ $ # # % % % % % + o . . . . .           ",
"            . . . . . . . . o o + + + + + + # # $ $ @ @ $ ; ; 3 ; > ; ; > > 3 3 4 4 5 5 5 5 5 5 5 q 5 q 5 5 5 t q q q r t t t t t t t t u p u u u u p p p p p p q q [ [ [ [ [ { { { { [ [ [ [ [ [ [ [ [ [ { { { :.[ [ p w [ p [ ] ] [ [ [ [ [ [ ] ] ] ] ] ] ] ] p p [ p [ [ p w { { { { { { [ p p p p p p p [ ] p p [ p p p p p p u w p { u p [ [ p [ p p p p [ p p p p p p p p u p p p u q p p p u p [ [ [ [ [ [ [ p p p p p p [ p [ [ [ [ p u w { { [ [ { { [ [ [ [ [ [ [ [ [ [ [ [ [ [ [ [ { p p t q u t t t t t t t r r q q q q q 5 5 5 4 4 4 4 3 7 3 > ; > 3 > ; ; ; $ $ # @ @ % + % % % o o o . . . .             ",
"              . . . . . . . o o o O O + + + + % # $ @ @ $ $ $ ; ; ; ; ; : : : 3 4 4 4 4 5 5 5 5 5 5 5 5 5 6 6 r q q q r t t t t t t q t u u u t u u p p p p p p w w p p u u u u u u u u u u u u u u u u u u p u p p u u w [ p u u u u u u u u u ] ] ] ] ] u u u p u u u p p u w p p [ [ [ [ u u p p p p p p p p p p p p p p p p p u w p p u u p p u u u u u u u p p u u u p p u p p p p p u p p u u u p p p p p [ p u p p p p p p p p p p p p w w p p u u u p u u u u u u u u u u u u u u p p p u u q 1 t q q q w w q q q q q q q q q q 5 5 5 4 4 1 > > > : ; ; ; ; $ $ $ $ # $ @ @ + + % o O o . o . . . .             ",
"              . . . . . . . o O o + + + + % % % # # @ @ $ $ $ ; ; ; ; > ; > 3 3 1 1 1 4 5 5 5 5 5 5 5 q r 5 5 q q q q q q q q q t t t q u u u u u u p p u u u p u w p p u p u u u u u u ] ] p [ ] ] ] ] ] ] ] [ ] p ] u w [ p [ p p p p p p ] ] p p p p p p p p p p p p p p u w p p ] ] [ [ [ ] p p p p p p p p p p p p p p p p p u w p [ u [ [ ] ] [ [ [ p [ p ] u u ] ] [ ] u ] p u p u w p p p p p u u u u p [ p p p p p p [ p u p p p p p w w p p p p u p u ] ] ] ] u u u u u u u u u u u p u u t 9 u r t t t t t t r r t t q q 5 5 5 5 5 4 4 4 > 3 > > ; ; ; ; ; $ $ $ $ $ # # + % % % o o . . . . . .             ",
"              . . . . . . . o o o o + + + + % % # # @ @ $ $ $ $ ; ; ; ; ; ; : : 1 4 4 5 5 5 5 5 5 5 4 5 r 5 1 5 q q q q q q q q t t t t t t t u u u u u u u u u q w u u u p u u p u u u u u p p ] ] ] ] ] ] p p p p p u 9 p u p u u p p p u u p u p u u u u u u p p p p p p u w p p u u p p p u p p p p u p u p p p p p p p p p p u w u p u ] u u u ] ] ] u ] ] ] p u p [ [ ] u ] p p p u w p p p p p p p p p p [ p p p p p u p p p p p p u p u w u u p p p p p u u u u u u u u p p p p p u u u u t q 1 t q t r q q q q r q q q 5 5 5 5 5 5 5 4 4 1 > > > ; ; ; ; $ $ $ $ @ $ # # + + + % o o o . . . . .               ",
"                . . . . . . . . O O o + + + + + @ @ + @ $ $ $ ; ; ; ; ; ; ; ; ; > > 4 4 4 1 4 5 5 4 4 5 5 1 1 5 5 5 q 5 q q q r t r t q t t r t t t t t u p u u q q r t p u p p t t u u u t t t u u p p p p u u w u w w w u p u u u u t t t t t u u u t t t t t t u u t u p u w u u u u u u u u p u u p u u p u u u u p p p u u u w w u p p u p u p p u u u u p u p u u p u u p p p p u u u u p u u u u u u u u p u u u u u p u u u u p p p t q q t p u u u u u t t u p t t u t t t u u u t t t q q 5 1 5 r t q r r r q 5 5 5 5 5 4 5 5 4 1 4 3 > > 3 3 > ; ; ; $ $ $ $ $ # @ @ @ + + + o O O . . . . . . .             ",
"                . . . . . . . . X X o o % % + + @ @ + @ $ $ $ $ ; ; ; ; ; ; ; ; > > 4 4 1 1 4 5 4 4 4 4 4 : 1 5 5 5 5 5 5 5 5 5 5 6 q 6 5 q 5 5 q q q q t t t t 5 6 5 q r q q t 9 q q t t t q q q q t t u t u t q q w q 9 t u t u t u t t t q q q q w q q q q 6 q q q q q t q q q q q t u t u u u u u u w w t w w w r t t t r r t q q q u t u u u u u u w u u u u u u u u u u u u u u q w q q t q q w q w q w q w q t t t q w q w q t t t u t r 1 q t q q q w q q q t t q q q 5 q q t r t q q q q q 5 1 6 q r 5 5 5 5 5 5 4 6 6 4 : : : ; - ; ; : : : : ; ; $ $ $ $ $ $ # # @ # + + + o o o O X . . . . . .             ",
"                    . . . . . . X X X X o o % % % % @ @ @ @ @ @ $ $ # # # # # # # $ ; ; ; - : : : - - 1 : - - 1 1 1 1 1 1 1 1 1 6 1 5 1 1 q q q 1 1 1 9 q q q q q 6 q q q q w w w w q q q q w q 1 6 q 5 q q q 5 1 5 q 1 1 5 q q w q w w 9 q q q w q q q w q q q q q q 9 q w q 1 q q w w w w w q w w w w q w w 9 9 9 q q 9 w w q q 6 1 q q q q q q q q q q q q q 1 q q 1 q q 9 q w q q 5 6 1 5 q q q q q q q q q q 5 q q q 5 q q 9 9 9 q w w w q 9 w w w q w w w 9 q w q q q w q 9 1 9 q 9 q 9 1 q 6 1 1 1 5 5 1 1 1 1 1 1 1 1 1 4 : : : : : : ; ; ; - - # # # @ # @ @ @ + + + + o % o o X X X X . . . . . .             ",
"                    . . . . . . X X X . o o o + + % @ + @ @ @ @ $ $ ; ; ; $ $ $ # # ; ; - : : 1 1 1 1 1 1 1 1 1 < < 1 1 1 1 1 1 6 1 1 < 1 q q q q q q 9 q q 9 9 9 1 1 6 9 9 9 9 9 9 9 9 9 9 9 1 9 q w w w w w w q w w q q w w w w w w w w q w w w 9 < 1 9 w w w w w w q w w w w w w w w w w w w q q w q 1 1 9 9 9 9 w w w w w w q 5 q q q q q q q q q q q q q 1 1 q w w w w w w w w w q 9 9 q q 9 9 9 9 9 9 9 9 q 9 1 1 9 9 9 w w w w w w q 9 9 1 9 9 9 9 9 9 9 9 9 9 9 9 9 9 q 9 9 w w w w w q q q q q q q 5 1 6 6 6 1 1 1 1 1 1 - - - - : : ; : : ; ; ; ; ; $ $ @ @ @ @ + + + % + o o X X X X . . . . .               ",
"                . . . . . . . . O O O O + + % % $ $ $ $ $ ; 3 $ ; ; ; ; ; ; ; ; ; ; 4 7 7 7 7 7 r r r t t t t t t u p p p a a a a p p t u { a a { { { [ p p p p p p p p p p p p p [ { :.:.{ p w { { { { { { } } { { { { { { { { { { { { { { { { { p u u p { { :.:.:.{ { { :.{ { :.:.:.:.:.{ { :.:.:.:.a u t u p p p a a { { { { :.:.:.:.,.:.{ { p u u u u p u u u { { { { { { } } } } { { { { } { { { { { { } { { { ] u { } { { } { { { { { [ p p p p p p p [ [ { { { { { p u p { { { { { { { { a a p p p a a p p p p p t t t t 7 4 4 5 7 7 7 7 7 7 4 3 3 3 3 3 3 3 ; $ $ $ $ # # # % + O O O o . . . . .               ",
"                . . . . . . . . O O O O + + + % # # $ $ $ $ $ $ $ ; ; ; ; ; ; > ; ; 7 7 7 7 r 7 r r t t t t t t q t t t u u p u p t t q w p p p u u u u w w u w t u u u u u u u u u [ { { { p w u ] ] ] ] ] ] ] ] ] ] ] ] ] ] u u u u u u u u u p u w u u p p p p p u u u u u u [ [ [ [ [ [ [ p [ p a p w q u p u u u t u u u u [ [ [ { [ [ p u p p u u p p u u u | { { } } { } | | | [ [ [ [ [ { { { { } } } } [ [ u ] } } [ [ ] u u u u u u u u u u u u u ] u u [ { { { p w u u u u u u u u u t t w w w w q q q q q q q q q 5 5 1 : 4 4 4 4 4 4 3 > > > > ; ; 3 3 $ $ $ # # % + # + o o o o X . . . . .               ",
"                    . . . . . . o o o O o + O O + + + @ # # # # $ $ $ $ $ ; ; ; $ ; : > 1 1 4 4 1 5 5 5 5 5 q q q q q q t t t t t t t q t a p u u u t t u u u u t u u u u u u u u u u u u p p w u u p p p p p p p u u u u u u p u u u u p p u u p u u u p u u u u u u u u u u u u u u u u u u u u u u u w w u p u u u u p p u p u u u u u u u u u u u u u u t q 9 u p u u u u u p u u u u u u u u u u u u p p p u p u u { { u p u u u p p p u p u u u u u u u u w u u p { u w u u u u u u u u u u u q w t q t t r r r r r r q q 5 1 5 7 4 4 4 4 : : ; ; ; $ $ $ $ $ # # @ @ + + + + o o o o o o . . . . .               ",
"                    . . . . . . o o O O + + + + + + @ # $ $ $ $ ; ; ; ; ; ; ; ; ; ; > > > > 1 4 1 5 5 5 5 5 5 q q 5 5 5 q q q q q q r 5 q p t q t t w t w u u u u t u u u u u u u u u w u u w 1 u t u t u t u t u t u t u t u u u u u u u u u u u w w u u u u p u u u u u u u u u u u u u u u u u t u u w w t t u u t t t u u u u u u u u u u u t u p u u t t r q p p t u u u p u u u u u u u u u u u u u u u u u p t w p p t u u u u u u u u u u u u u u u u u u p w w u w 9 u u u u t u w w w t q w w q q q q q 5 q 5 5 5 5 5 1 1 1 5 1 : 1 > > > > > ; ; ; $ $ $ $ $ @ @ % % + + + o o O o o . . . . .               ",
"                    . . . . . . . o o o + + O O + + # # # # # # $ $ $ $ ; ; $ $ $ ; ; > > > 1 1 4 4 5 4 5 5 5 5 5 5 q q q q q 5 q r q 5 6 q q q r q t q t t t t u t t t t q q u t t t t u t w q t t t t t t q q t t t t t t t t u u u u t t u t u q w t u t t t q t u t u t u t u u u u u t u u u w r u w w w u u u t t u u u u u u u u u u t q t t t t t t r q q t t t t t t t u t u t t t u t t t t t t t t t u t q q t t t t q u u u u t u u p u u u u u u u u t t t u q q t t t r t t t w q t q t r q q r q 5 5 q 5 5 5 5 5 1 1 : 1 1 : > > : : ; ; ; ; $ ; $ $ # # # @ + + + + + o o o . . . . . . .               ",
"                  . . . . . . . . o o o + + O O + % # # # # # # $ $ $ ; ; ; ; ; # $ ; ; > > 1 1 : : 1 1 4 4 4 4 4 4 5 5 5 q q q 6 5 5 6 6 q r q r r r r t q q q 5 q q q t t t u u u u t t t w 9 w q q t t t t q u t t t q t t t u u t u t t t t t q q t t t t t t t t t q t t t t t t t t t w w u r u u w q w u t u u u u u t w u u u u u u u u u u t t t t t q 6 r t t q t t w w w t t r t w q w q u t u t t t w q w q r t r u u u u t t q q q q q q q t u u t t t t t t q 9 q t t t t t t q q q q q q 5 5 q 5 5 5 5 5 5 4 5 5 4 1 1 4 4 1 > > > ; ; ; ; ; ; ; $ $ # # @ @ + + + o o o . . . . . . . . . .             ",
"                    . . . . . . . . % + + + % % + + # # # # $ $ $ $ $ $ $ $ $ $ @ # ; ; : > : 3 : ; : > 4 4 3 : 1 1 4 4 4 5 5 5 6 6 6 1 6 5 r q q q q q q q q q 5 5 5 q q q r t t t t r r q q 9 r r u u u u q q u t w w w w w w w q q q q q q q t q q q q q q q q r q q q q q q t t r r q q w q w w t t q 9 w u u t u u u u t t w u u u u u u u u u u u u u w w 9 q t t w w w w w w u u u r u w w w u u u u u w w w w q u u u u q q t q q q q q 5 q q q q t t t t t r r t q 6 q r r r q q q q q 5 5 q 5 5 5 5 4 4 4 4 4 4 3 4 4 1 : : 6 3 : : > ; ; ; $ $ $ $ $ # # # @ @ + + + o o o o . . . . . . . . .               ",
"                    . . . . . . . . o o % % o o + + + + + # # # @ @ @ @ @ @ $ $ @ # $ $ ; ; - - $ $ ; ; : ; ; ; : : : : : : 1 1 1 1 : : 1 6 1 1 1 1 1 1 1 1 1 1 6 6 1 1 1 1 6 6 q q q q q q q 1 q w w w q q 9 9 9 9 q 9 9 9 9 9 q q q q q q q q q q 5 q q q 5 q 6 5 6 6 6 6 6 6 q q q q 6 6 1 9 q 9 q w q 9 w t t t u u u t w r u u t u u t w t u w w w w w w q 1 q q q 9 9 9 9 w 9 w w 9 q w 9 9 9 w w w w q 9 w w 9 9 9 9 9 9 q q 6 6 6 6 6 1 5 5 6 6 1 6 q q q q q q q 6 1 q 1 6 1 6 1 1 1 1 1 6 6 1 6 1 : : : : : : ; ; ; : - - - : - - - $ # @ @ @ @ @ @ @ @ @ + + + % o o o o o . . . . . . . . . .               ",
"                    . . . . . . . . . . o o o o o o o % % + + @ @ @ @ @ @ @ # @ # $ $ $ - # # # ; ; ; ; - # - - : : : : : : : : 1 1 1 < < 1 1 1 1 1 1 1 1 1 9 1 1 1 1 1 1 1 1 1 < < < < < 1 < < 1 1 1 1 1 1 1 1 1 6 6 1 1 1 1 1 1 1 1 1 1 1 1 < 1 1 < 1 1 1 1 1 q q 5 6 6 6 6 1 1 1 5 5 q 1 6 q 9 1 1 1 1 1 q 1 1 1 q q 1 9 1 1 6 1 < 1 1 1 1 < 1 1 1 1 1 1 1 1 1 6 6 1 1 1 1 1 5 1 1 1 - : 1 1 1 1 1 1 1 1 6 6 6 5 1 1 1 1 < 1 q q 6 6 6 6 1 1 1 6 6 1 1 1 q q < < < < 1 < < < 1 1 1 1 1 1 1 1 1 1 : - 1 1 : 1 : : : : : : : : : - - - - - # $ # # # @ @ @ @ + % + + % % % o o o o . . . . . . . . . .                 ",
"                  . . . . . . . . . o o + + % % + + + + @ # # # $ $ $ $ $ $ $ $ ; ; > > > > 3 3 3 > 3 3 : ; : 4 4 4 4 5 5 7 7 7 r r r r r r t t r t t t t u u t 1 1 r t t t t t p p p u u t t t q r r t t t t t t t r 5 5 r t t u p p p u t t t p p p p p a a a t t t t t q q 6 q r t t u t t p a p p p p p p u u p p p p p p t t r 5 t t t t t t t t t p p t a t t t t t t t t t t r q 6 6 7 r r t t t t t t t t t t t t t t t p u u t t t t q 5 r t t t t u t p p t t t t t t t t t t t t r r q r 6 1 7 7 5 r 7 5 4 4 4 4 4 4 4 4 3 4 4 3 3 3 ; ; $ $ $ $ # @ # # # # % % + + % % o o o . . . . . . . .               ",
"                  . . . . . . . . . . + + + % % % % % % # # $ $ $ $ $ $ $ ; 3 3 3 3 2 2 2 2 4 4 7 7 7 7 7 1 1 7 5 7 r r t t t t t t t t t u u p p p p p p p p p 1 q u p a a p p u u u t t t t t p p p p a a a a p a p t t p a a p p p p p u u u u u u p p p u u p p p u u u q q t u p a a a a a p t r r r t t q t t t t t t t t t r r t p p p p t t t u u u u p { { a a a a a a p p a p t q t p p p p p a a { { p { p p { a p { a a p a a a p t q t a a a a p p u u t r t t r r u u u p p p p t t t 5 5 t t r t r r r 7 5 5 7 7 4 4 4 4 3 3 3 3 3 3 ; $ $ $ @ @ $ $ $ $ $ $ # % % % + o . . . . . . . . .               ",
"                    . . . . . . . . . . o o o o % % % % + @ # $ $ $ @ @ $ $ $ $ ; ; ; ; ; ; ; : 4 1 4 7 4 > : 1 1 1 4 5 5 q q q r r r r r q q r r r r r r r r r 1 1 q q w r r t r r r w r r t t q q w t t t q t w t w q w t p p p p u t w w w t w t t t t q t q q t t q t t q 1 q q q t p p p t t q r r q r t t q q t t t t r q r q q q r q q t t t t u u t u u u u u u u u u t u u p u w 9 q t w w u u u u u u u u u t u u u u q t q t t t q q 1 q t t q t t w r t r q t t r r q q r r r r r q q r 1 1 t t 5 r 7 5 5 4 1 1 1 1 : : : : ; ; $ ; $ $ $ $ # @ @ @ @ # # % % + % % % % o o . . . . . . . .                 ",
"                .   .   . . . . . . . . o o O O + o % % + + + + @ @ @ # # # $ $ ; ; ; ; ; ; ; ; 3 : : 3 3 : : 4 4 4 4 4 4 5 5 5 5 5 5 q q q q q q q q q q q q q 5 6 q r q r t q t q q q t t q q t t t r t r q q q q q 5 q r t q q q q t t t t t t t t t t t t t q q q q r r q 1 q q q q q q q q q r r q q q r r r q q q q q r q t q 6 q t t q t t t t q t t t t q q w q w q w q w t q t q 1 q q q q w q w q w q q q w q t t w q q q q q q q r r 1 q r q q q r q q r r r r r q q r r r q q q r r q q 5 1 5 q 5 5 5 5 5 5 4 4 4 4 > > > > ; ; ; $ $ $ $ $ # # # # % + + + + + + o o O o o . . . . . . .                   ",
"                . . . . . . . . . . . . o o O O o o o o + + + + @ @ # # $ $ $ $ $ $ $ $ $ ; ; ; ; ; ; 3 : ; ; 3 : 1 1 4 4 4 4 4 5 5 5 5 5 5 5 5 5 5 q q q q q q 6 1 5 q q q q q r q q q q r t q q q q q q q q q q q q 5 6 q t q q q q q q q q q q q q q q t t t q q q q r r q 1 r t t r r r r r q q r q q q q r q q q q q q r r t q 6 q t r q r q q q q q q q q q q q q t r q q q r q q q 1 q r q q q q q q q q q q q q q q q q q q q q q q q q 6 q t q q r r q r r r r r r r r q q q q q q q 5 5 q 1 1 5 5 4 4 5 4 4 4 1 1 > > : : : : ; ; ; $ $ $ $ $ # # # # % + + + + + o o O O o o . . . . . . .                   ",
"                . . . . . . . . . . . . . . o o o o o o + + + + @ @ @ @ # $ $ $ $ $ $ $ ; ; ; ; ; ; ; > ; ; ; ; > > 3 3 4 4 4 4 4 4 5 4 5 5 5 5 5 5 5 q q q q 5 6 6 5 5 5 q q 5 5 5 5 5 q q q q r r q q q q q q q q r q 6 q r q q q q q q q q q r q q q q q r r q r r q r r q 6 q 5 q q 5 q 5 5 q q q q r r q q q q q q q q r r r 5 6 5 r r q r q q t r r r q q q q q q q q q q q r q r q 6 q r r r q q q q q q r q q q q q r r q q q r r q q q 1 q r q 5 q q 5 5 5 5 5 5 q 5 5 5 5 q q q q q 5 5 5 4 1 4 4 4 4 4 4 4 3 3 > > : > > ; ; ; ; ; ; $ $ $ $ $ # + + + + + + + + + o o o . . . . . . . . .                   ",
"                    . . .   . . . . . . . . o o o o o o + + + + @ @ + + # # @ @ $ $ $ $ $ $ $ $ ; ; ; 3 ; ; ; ; ; > > > 3 3 3 3 3 3 4 4 4 4 4 4 5 5 5 5 5 5 5 5 6 1 4 5 5 5 5 6 6 6 6 6 6 6 5 5 q q q q 5 q q q q q r q 1 5 r q q q q q q q q q q q q q q q q q 5 q q 5 q 5 5 1 q q q q q r r r q q 5 5 q q 5 5 5 5 5 5 5 q q q q 5 5 5 q q q q 5 5 q q 5 5 5 q q q q q 5 5 5 q q r q r q 1 5 5 q q q q q q q q q q q q 5 5 q q 5 q q q q q 5 5 1 5 q 5 5 5 5 5 5 1 1 5 1 5 5 5 5 5 5 q q 5 5 5 5 5 4 : 4 4 4 4 4 3 4 4 3 > > > > > ; ; ; ; $ $ $ $ $ $ # @ + + + + + + + + o o o o . . . . . . . .                     ",
"                      . . . . . . . . . . . . . X o o o o o % + + + + + @ @ @ @ @ @ @ @ # # # # # $ $ $ $ $ # $ $ $ ; ; ; ; ; ; - ; : : : : : : : : : : : : 1 : : - : 1 : : 1 1 1 1 1 1 1 1 1 4 6 6 6 6 6 6 6 6 6 6 5 6 : 1 5 6 5 5 5 4 5 4 5 5 5 6 1 6 1 1 1 6 6 4 6 6 6 6 1 : 5 4 5 5 5 5 5 5 1 1 1 1 6 1 1 1 1 1 1 1 1 1 4 4 5 6 6 6 6 5 5 5 6 6 6 6 6 6 6 5 5 5 5 5 1 1 1 4 5 5 1 5 1 : 1 1 6 6 6 6 6 6 6 6 6 6 6 6 6 6 6 6 6 6 6 6 6 6 6 6 : 1 6 6 6 6 6 1 1 : 1 1 1 1 1 4 1 1 1 1 1 1 1 1 1 4 : - : : : : : ; ; ; ; ; ; ; ; ; $ # # # # # @ @ @ @ + + + % % % o o o o o X . . . . . . . . . .                     ",
"                        . . . . . . . . . . . . X X o o o o o o % @ % % % % @ @ @ @ @ @ @ @ @ @ @ @ @ @ # # # # # # $ $ $ $ $ $ # - - # - ; ; - - - - - : : : : - - - : - : : - : : : 1 1 1 1 : : 1 1 1 : : : : 1 : 1 : : : 1 1 1 1 1 1 1 1 1 1 6 : : 1 1 < : 1 1 6 6 : 1 1 1 : 1 : 1 1 1 1 1 1 1 1 1 : : : 1 1 : : : : 1 1 1 1 1 1 : : 1 1 1 1 6 1 1 1 1 1 1 1 : 1 1 1 : : : 1 : 1 : 1 1 - 1 1 1 1 1 1 6 1 1 1 < : : : 1 1 : : : 1 1 : 1 1 : < : : 1 : 1 1 1 1 : - - 1 1 - - 1 : : 1 1 1 : : : - : - - - - - - - - $ $ $ $ # # # # # # @ @ @ @ @ @ + + % % % % o o o o o o X X . . . . . . . . . .                     ",
"                        . . . . . . . . . . . . . o o o o o o + % % % % % % + + % % @ @ @ $ $ $ # $ $ $ $ $ ; ; ; ; ; ; > > > > ; 3 ; ; - ; : ; : : : : : : : 1 4 1 1 4 1 1 5 1 4 4 1 4 5 5 1 : 5 5 5 5 5 5 4 4 5 5 5 5 4 5 5 5 5 5 5 5 4 4 4 1 5 1 1 4 5 5 4 5 5 5 5 5 5 5 5 5 5 5 5 5 5 5 5 5 5 5 5 5 1 1 4 5 5 4 5 5 5 5 5 5 5 5 5 6 5 5 5 5 5 1 1 1 1 1 1 - < 1 1 5 1 1 5 5 5 5 5 5 5 1 5 5 5 5 5 5 5 5 5 5 q 6 1 1 1 1 1 1 6 1 1 1 1 4 5 5 4 1 1 1 4 4 4 4 5 1 1 5 5 1 1 1 4 5 4 4 4 4 4 4 : 4 1 : : 3 : : > > ; ; ; $ $ ; # # $ $ $ $ # # @ @ @ @ + + + + + + + o o o o . . . . . . . . . . .                     ",
"                        . . . . . . . . . o o + + + + + + + % $ $ $ $ $ $ $ $ $ @ # $ $ $ 3 3 3 3 3 3 3 3 3 2 2 3 2 2 2 7 7 7 7 7 8 7 ; ; 3 4 3 4 4 5 5 5 5 5 5 r r r r 7 r r r t r r r t t r 5 r r r r r r 7 7 t r t t r t t t t t t r 7 7 7 5 7 5 4 7 r r r t r t t r r t t r r r r r r r r r r t t r 7 5 r t r r r r r r r r t t t t t t t t t t t t p t r 5 5 q r t t t t t t t r t t r t t t t t t t t t t t r 5 1 5 r r q 7 7 5 5 7 r r r r r 7 7 r r r r t r r t t 7 5 r 7 r 7 7 7 7 7 r 5 7 7 5 7 7 7 7 7 7 3 3 ; ; ; ; $ ; ; 3 3 3 ; ; $ $ $ $ # + % % % % % % + + + + + . . . . . . . . . .                   ",
"                                . . . . . . . . . . o + + + O + + + + % % % % % + % # # # # $ $ $ ; ; ; ; ; ; ; ; ; : : > > > > > > > : : > 4 4 1 1 6 4 4 4 5 5 5 5 5 5 5 5 5 5 5 5 5 5 5 7 5 1 5 5 5 5 5 5 5 5 q q q 5 5 q q q r r q q 5 5 5 5 q 1 1 5 q 5 5 q 5 5 5 5 5 5 5 5 5 5 5 5 5 5 5 5 5 q 5 q 5 1 q q 5 5 5 5 5 5 5 q q r r r r r r r r r r r r r r 5 1 5 5 5 5 5 q r q q q 5 5 5 5 5 5 5 5 5 5 5 5 5 5 5 1 1 5 q 5 5 5 5 5 5 5 5 5 5 5 5 5 5 5 5 5 5 5 5 5 r r 5 1 5 5 5 5 5 5 5 5 4 5 4 4 1 1 1 4 4 > > > : ; ; ; ; # $ $ $ $ $ $ $ # # % + + + + + + + o o o o o o . . . . . . . . . . .                   ",
"                              . . . . . . . . . . . o o o o O O + + + + + + + % + % # # $ # $ $ $ ; ; ; ; ; ; ; ; ; : : : : : : : > > : : > 4 4 4 4 4 4 5 5 4 5 5 5 5 5 5 5 5 5 5 5 5 5 5 5 5 1 5 5 5 5 5 5 5 5 5 5 5 5 5 5 5 5 5 5 5 5 5 5 5 5 5 1 1 5 5 5 5 5 5 5 5 5 5 5 5 5 5 5 5 5 5 5 5 5 5 5 5 5 6 1 5 5 5 5 5 5 5 5 5 5 5 5 5 5 5 5 5 5 5 5 5 5 5 q 5 5 1 5 5 5 5 5 5 q 5 5 5 5 5 5 5 5 5 5 5 5 5 5 5 5 5 5 1 1 5 q 5 5 5 5 5 5 5 5 5 5 5 5 5 5 5 5 5 5 5 5 5 5 q 5 1 1 5 5 5 5 5 5 5 4 1 1 1 1 : : > > : : ; ; ; ; ; ; # # $ $ $ $ # # # # % % + + + + + + o o o o o o . . . . . . . . . .                     ",
"                        .   . . . . . . . . . . . . . . . . o o o o % + + + + + O + @ # # # # $ # $ $ $ ; ; ; ; ; ; ; ; ; ; ; ; : > > : : > > > 1 1 1 6 4 4 4 4 6 4 6 6 5 5 5 5 5 5 5 4 5 5 5 1 5 5 4 5 5 5 5 5 5 5 5 5 5 5 5 5 5 5 4 4 4 5 5 5 5 1 1 4 5 5 4 5 5 5 5 5 5 5 4 4 5 5 5 5 5 5 5 5 4 5 4 5 6 1 5 5 5 5 5 5 5 5 5 5 5 5 5 5 5 5 5 5 6 5 5 5 5 5 5 1 1 5 5 5 5 5 5 5 5 5 5 5 5 5 5 5 5 5 5 5 5 5 1 5 5 5 1 1 5 q 5 5 5 5 5 5 5 5 5 5 5 5 5 5 5 5 5 5 5 7 1 1 5 1 1 1 1 1 1 1 1 1 1 1 1 : : : : : : : ; ; ; ; ; ; ; ; # # # # # # @ @ % % % % + + % % + + o o o o . . . . . . . . . . . . .                   ",
"                        . . . . . . . . . . . . . . . . . . o o o o o % + + + + + + @ # # # @ # @ $ $ $ # $ ; $ ; ; ; ; ; ; ; ; : ; : ; ; : > 3 : : : 1 1 1 : : 6 6 6 4 4 4 4 4 4 4 4 4 4 4 1 : 4 4 5 4 5 4 5 4 5 4 5 4 5 4 5 4 5 4 5 4 5 4 5 4 6 : 1 4 5 4 5 4 5 4 5 4 5 4 5 4 5 4 5 4 5 4 5 4 5 4 4 4 6 : 5 4 4 4 5 4 5 4 5 5 5 5 5 5 5 5 5 5 6 4 5 5 5 5 5 1 1 5 5 4 5 5 5 4 5 5 5 5 5 5 5 5 5 5 5 5 5 5 5 5 5 5 1 1 5 5 5 5 5 5 5 5 5 5 5 5 5 5 5 5 5 5 5 5 5 4 1 1 1 1 1 4 1 4 1 1 1 1 1 1 1 3 1 3 > > : ; > ; ; ; ; # $ $ # # # # # # @ @ + + + + + + % % o o o o o o . . . . . . . . . . . . .                   ",
"                        . . . . . . . . . . . . . . . . . . . o o o o % + + + + + + + + + + # @ # # $ $ $ $ $ $ $ $ $ $ ; ; ; ; ; ; ; $ ; ; > 3 3 3 3 3 3 3 3 3 1 3 4 3 4 6 6 3 1 3 3 3 3 3 : ; 4 4 4 4 4 4 4 4 4 3 4 3 4 3 4 3 4 3 4 > 1 > 1 > > ; : > 4 4 4 4 4 4 4 4 1 3 4 3 4 3 4 3 4 3 4 3 1 4 1 4 4 ; 4 3 4 3 4 3 6 3 4 4 4 4 5 4 5 1 1 4 1 4 5 4 5 7 5 1 : 4 4 4 5 4 4 4 5 4 4 4 4 4 4 4 1 1 1 4 1 4 5 4 5 4 1 - 1 4 1 4 5 4 5 4 1 1 1 1 1 1 1 1 1 4 1 4 1 > : : 1 > : > 4 3 1 > 1 > > > > ; > ; ; ; ; ; ; ; $ $ $ # $ # @ @ # # % + + + + + + + o o o o o o o o . . . . . . . .         . .                     ",
"                          . . . . . . . . . . . . . . . . . . . o o o o o o + + o % + + + + @ @ @ + @ @ @ @ @ @ @ @ @ $ $ $ ; $ ; $ $ # # ; ; ; ; ; ; ; ; ; : ; - ; ; ; : ; : - ; ; ; ; ; ; ; - ; ; > ; > > > ; : ; > ; > ; : ; ; ; ; ; ; ; ; ; ; ; ; ; ; > ; ; ; ; : ; : ; : ; ; ; ; ; ; ; ; ; ; ; ; 3 : - : ; 3 3 3 ; : ; ; - > > > : : : : : : : > : > > > ; - 3 3 : 4 3 3 3 3 : : : : : : : ; ; : : > > > > > 3 : ; ; > > > > > 1 > 1 > > > : : : : : : : : ; ; ; ; : ; ; ; > ; ; ; ; ; ; ; ; ; ; $ $ $ $ $ # @ @ @ @ @ @ @ % + + @ + + % % + + o o o o o o o o . . . . . . . . . .         .                       ",
"                            . .         . . . . . . . . . . . . . . . . o o o o o o % + + + + + + + + + + + + + + @ @ @ @ # # # @ # $ @ @ $ $ $ $ $ # # # # # # # # # # - # # # # $ $ $ # $ # # $ $ $ $ ; $ $ $ $ $ ; $ ; $ ; $ $ $ $ $ $ $ $ $ $ $ # $ ; ; $ $ $ $ ; $ $ $ $ $ $ $ $ $ $ $ $ $ # $ # ; ; # ; ; ; ; ; ; - # # # ; ; ; $ $ $ ; ; $ ; ; ; ; ; ; $ - ; ; - ; ; ; ; ; - - - # - - - $ $ ; ; ; ; ; ; ; ; ; # ; ; ; ; ; ; : ; ; ; ; ; ; $ ; $ ; $ ; $ $ $ # $ ; $ # $ $ $ # # # # # # $ @ # @ @ @ @ @ @ @ + + + + + + % % % + + % o o + + o o o o o o . . . . . . . . . . . . .                               ",
"                            . .         . . . . . . . . . . . . X X X X o o o o o o % % % % % + % % % % % % % % + + + + + + @ + @ @ $ @ @ @ # @ $ $ # # # # # # # # # - - - # # # $ - # # # # # $ $ $ $ ; ; $ $ # # # $ ; # # # $ $ $ $ $ $ $ $ $ $ $ $ $ $ $ # $ $ # # # # # # ; ; ; ; ; ; ; ; # # # ; - # ; ; # # # $ - $ - # $ $ $ # # $ $ $ # $ $ $ ; ; ; # # ; - # - $ # # # # # # # # - - $ $ $ $ ; $ $ ; # ; ; # ; ; $ $ ; ; ; ; ; ; ; ; ; ; ; ; ; ; ; $ $ ; $ ; ; # # $ $ $ $ $ # # # # # @ @ @ @ + @ @ @ @ @ @ + % % % % % + + + % % o + + o o o o o o . . . . . . . . .   . . .                               ",
"                          . . . . . . . . . . . . . . . . . . + O % % % % % + + + + + + # # # $ $ # $ $ # @ @ @ $ $ $ $ ; $ ; ; 3 3 3 3 3 3 3 3 3 3 3 3 4 3 7 7 : : 4 7 4 4 4 4 7 5 5 4 4 4 4 5 4 4 4 4 4 4 7 7 4 4 4 3 3 3 4 3 4 4 4 4 4 7 7 7 4 4 4 4 4 4 4 4 4 7 7 4 4 4 : - 3 4 4 4 4 4 4 4 3 ; 3 3 4 4 4 4 7 7 7 4 4 3 4 3 3 ; - ; 3 3 4 7 4 4 4 4 4 4 3 4 4 4 4 3 4 3 4 3 4 3 4 3 ; ; 3 4 4 4 4 4 4 4 4 4 4 4 4 4 4 4 4 4 4 4 4 4 4 4 4 4 : 4 5 7 5 5 4 4 7 7 4 4 4 4 4 4 4 3 4 3 4 3 4 3 3 ; ; ; ; $ ; $ ; $ $ ; $ $ $ $ $ $ $ $ $ $ $ # % % % % % o o o o o o o . . . . . . . . . . .                           ",
"                          . . . . . . . . . . . . . . . . . . . o o o o o o o o + + + + + + + + $ $ $ $ $ @ @ @ $ $ $ $ $ $ $ $ $ $ $ $ ; ; ; ; ; ; : : : : > > : ; 3 4 4 4 5 5 5 5 5 5 5 4 5 4 4 4 4 4 4 4 4 4 4 4 3 : : 3 3 3 1 1 1 4 4 4 4 4 4 4 1 1 1 1 4 4 4 4 4 4 4 4 : - 1 1 4 4 4 4 4 4 : : : : 3 4 4 3 3 3 3 3 3 3 : : 3 ; - : 3 3 3 4 3 3 4 1 1 1 : 3 3 3 3 3 3 3 3 4 4 4 4 4 ; ; 3 3 4 4 4 4 4 4 1 1 4 4 4 4 4 4 4 4 1 1 1 1 6 6 1 1 1 4 5 4 5 4 5 4 4 4 4 4 4 4 4 3 4 4 4 4 4 3 3 3 ; ; ; $ $ $ $ $ $ $ $ $ $ $ $ $ @ @ @ @ @ @ + + + + % % % o o . o o o o . . . . . . . . . .                             ",
"                          .         . . . . . . . . . . . . . . o X X X o o o o o o o o O + + + # # # $ @ + + @ # # # $ $ $ $ $ $ $ $ $ $ $ $ $ ; ; ; ; ; ; ; ; ; ; ; > : : 1 > > > : : : : : : > > > > > > > > ; > ; ; ; ; ; ; ; ; : : : : : > > : : ; ; ; : : : > > : > > ; ; : : : : : : : : : ; ; : : > > : : : : : : : : : ; ; ; ; ; ; ; ; : : : : : : : : : ; ; ; ; ; ; ; ; ; 3 > $ $ ; ; : : : : : : : : : : : : : : : : : : : : : : : : : > 1 > : > 1 > > > > : : : : : > ; ; ; ; ; ; ; ; ; $ $ $ $ $ $ # # # # # # # # @ @ + + + + + + % % o o o o . . . . . . . . . . . . . . . .                             ",
"                        . .         . . . . . . . . . . . . . . X X X X o o o o + + + + + + + + + + @ @ + % % + # # # # $ $ $ $ $ $ $ $ $ $ $ $ $ ; ; ; ; ; ; ; ; # $ ; ; ; ; ; ; ; ; ; ; ; ; ; ; ; ; ; ; ; ; ; ; ; ; $ $ ; ; ; ; ; ; ; ; ; ; ; ; ; ; ; ; ; ; ; ; : ; : ; : ; ; ; ; ; ; : : : ; : ; ; ; ; : ; ; ; ; ; ; ; ; ; ; ; ; ; ; ; ; ; ; ; ; ; ; ; ; ; ; ; ; ; ; ; ; ; ; ; ; ; ; # # ; ; ; ; ; ; ; ; ; ; ; ; ; ; ; ; ; ; ; ; ; ; ; ; ; ; $ ; ; ; $ ; ; ; ; ; ; ; ; ; ; ; ; ; ; ; ; $ $ $ $ $ $ # # $ $ $ # # # # # @ @ @ @ @ + + + + + + o o % o o o . . . . . . . . . . . . . . .                               ",
"                                    . . . . . . . . . . . . . . o o o . . . o o o o % % % % % % + + + + + o o + % # # # # # # # @ @ # # # $ $ $ $ $ $ $ $ $ $ ; $ @ $ ; $ $ ; $ ; ; ; ; ; ; ; ; ; ; ; ; ; ; ; ; ; ; ; $ $ $ ; ; ; ; ; ; ; ; ; ; ; ; ; ; ; ; ; ; ; ; ; ; ; ; ; $ ; ; ; ; ; ; ; ; ; ; ; ; ; ; ; ; ; ; ; ; ; ; ; ; ; $ $ $ ; $ $ ; ; ; ; ; ; ; ; ; ; ; ; ; ; ; ; ; $ $ ; ; # # $ $ ; ; ; ; ; ; ; ; ; ; ; ; ; ; ; ; ; ; ; ; ; ; ; ; $ ; ; ; ; ; ; $ ; ; ; ; ; ; ; $ ; ; ; $ $ $ $ ; $ $ # # # # # # # # # # + + @ @ + + + % % o o o o o o o o . . . . . . . . . . . . . . .                                 ",
"                                    . .     . . . . . . . . . . o o o o . . o o o o o o o o o o + + + + + % % + % % % # # # # # @ @ @ @ @ @ @ @ @ @ $ $ $ $ $ $ $ @ $ $ $ $ ; $ $ $ $ $ $ $ $ $ ; ; ; ; ; ; ; ; $ $ $ # # $ ; $ ; ; ; ; ; ; ; ; $ ; ; ; ; ; ; ; ; ; ; ; ; ; $ # ; ; ; ; ; ; ; ; ; ; ; ; ; ; ; ; ; ; ; ; ; ; ; ; ; $ # $ $ $ $ ; ; ; ; ; ; ; ; ; ; ; ; $ $ $ ; ; ; ; ; ; # # $ $ ; ; ; ; ; ; ; ; ; ; ; ; ; $ ; ; $ $ $ $ $ $ $ $ # $ $ $ $ $ $ $ $ $ ; ; ; $ $ $ $ $ $ $ $ $ ; $ $ # # # @ @ # # # # # # + + @ + + + + + + + o O o o o o . . . . . . . . . . . . . . . .                                 ",
"                                      .         . . . . . . . . . . . . . . . . . . . . o o o o o o + + + o o + + + % % + + + + + + + + + + # # @ @ # # # # $ $ $ + @ $ # # $ $ @ @ @ $ $ # @ @ @ @ $ $ $ $ $ $ @ $ @ @ @ @ $ $ $ $ $ $ $ $ $ $ # @ # $ $ $ $ $ $ $ $ $ $ $ $ @ # $ $ $ $ $ $ $ $ $ # $ $ ; $ $ $ $ $ $ $ $ $ $ $ # @ @ @ @ @ $ $ $ $ $ $ $ $ $ $ $ # $ $ $ $ $ ; $ ; $ @ # $ $ $ $ $ $ $ $ $ $ $ $ $ $ $ $ $ $ @ @ @ # # $ $ $ + @ $ # # $ # @ @ $ $ $ $ $ $ $ @ @ @ @ @ @ @ @ # + + + + + + + + + + % o o o o + + + o o O o % o . . . . . . . . . . . . . . . . . .                                   ",
"                                                    . . . . . . . . . . . . . . X X X . . o o o o o o o o o o o O o o o o o o o % % + + + % % % % % + + @ @ @ @ @ o % @ @ @ @ @ @ @ @ @ @ @ @ @ @ @ @ @ # @ @ @ @ @ @ @ @ @ @ @ @ @ @ @ @ @ @ @ @ @ @ @ @ @ @ @ # # # # $ $ $ @ # # # $ $ $ $ # # @ # @ # $ # @ # @ # @ # @ # @ @ @ @ @ @ @ @ @ @ $ $ $ @ @ @ @ @ @ @ @ # @ $ $ ; # # @ @ @ # @ $ $ $ @ @ @ @ @ @ @ @ @ @ @ @ @ + + @ @ @ @ @ # + @ @ @ @ # @ + @ @ @ @ @ @ @ @ @ @ @ @ @ + + + + + % o % + + o + % % o o o o o o o o X X X . . . . . . . . . . . . . . . . . .   .                                     ",
"                                            . .     . . . . . . . . . . . . . . . . . . . . . . X X X X X X X X X X o o o o o o o O o o o o o o + % % % % % % % % % % % % % % % % @ % @ @ % % @ % % + % % % % % @ % % + + + % % % % % @ % % % % + % % @ # + % % @ @ @ @ @ @ @ @ @ @ @ @ @ @ @ @ @ % @ % @ @ @ @ % % @ % @ + @ + + + % % % % % % % % % % % % % % % + @ % % % @ + @ + @ % @ + @ % + + + + + + + + % + @ @ + + % + @ @ @ @ @ @ @ % @ @ @ @ @ @ @ @ @ % @ % + % @ % % % % % % % % o o o o o o o o o o o o o o o o o X X . . X . . . . . . . . .     . . . . .                                               ",
"                                            . .     . . . . . . . . . . . . . . . . . . o o o o O O O O O O O O O O + + + + + + + + + + + + % % % % % % # # # # $ $ $ $ $ $ $ $ $ $ $ $ # $ # + # # $ $ # # # # @ # $ $ $ $ $ $ # # # # # $ $ $ $ # + + @ # $ $ $ $ $ $ $ $ $ $ $ $ $ $ $ $ $ $ $ $ $ # @ + @ $ # # # # # # $ $ $ $ $ $ $ $ $ $ # # # # # # # # @ # $ $ # $ $ # $ $ $ $ $ $ $ $ $ $ $ $ $ $ $ $ @ # @ @ $ $ # $ $ $ $ $ $ $ $ $ $ $ $ $ $ $ $ $ # $ # # $ # + # + + + + + + + + + + + + + + + + + + o o o o o O o X . . . . . . . . . . . . . . . . . . . . . .                                         ",
"                                                  . . . . . . . . . . . . . . . . . . . . + + + X X X O O O O O O O + + O + + O O + O O + % $ $ $ $ $ $ $ $ $ $ $ $ $ $ $ $ $ $ $ $ $ $ $ $ % + # # $ $ # # # # # $ $ $ $ $ $ $ $ $ $ $ $ $ $ $ $ # + + + # $ $ $ $ $ $ $ $ $ $ $ $ $ $ $ $ $ $ $ $ $ # + + + % # # # # # $ $ $ $ $ $ $ $ $ $ $ # # # # $ # # + # $ $ $ $ $ $ $ $ $ $ $ $ $ $ $ $ $ $ $ $ $ $ $ + # + + $ $ $ $ $ $ $ $ $ $ $ $ $ $ $ $ $ $ $ $ $ $ # # $ % + % + + + + + + + + % % % % + + + + + + + O O O O O o . . . o o o . . . . . . . . . . . . . . . . .                                         ",
"                                                              . . . . . . . . . . . . . . . . . X X X X X X X X o O O O O O O O O O O O + % % % % % % % % % % % @ @ @ @ # # # # @ @ @ @ @ + + o + + + + + + + + + + + + # # # @ + + + + + + + + $ % + + % + + % @ @ @ @ @ @ @ @ @ # @ @ @ @ @ + + % % + % % + % + + + + + + + % @ @ @ @ + + + + % + + + + + + + % # $ $ $ # @ @ @ @ @ @ @ @ @ @ + + + + + + + + + + + + # $ # $ # # # @ @ @ + + # # # # # # # # + + + + % + o + + + + + + + + + + + + + + + + + + + O O O O O O . . . . . . . . . . . . . . . . . . . . . . . .                                         ",
"                                                                . . . . . . . . . . . . . . . . . . . . . . . . o o o o o o o o o o o o o o % % % % % % % % % % + + + + @ @ @ @ + + + + + + + o + + + + + + + + + + + + @ @ @ @ + + + + + + + + + + + + % + + + + + + + + + + + + + + + + + + + + + + + + + + % + + + + + + % % @ @ @ @ + + + + % + + + % % + + o + % + + + + + + + + + + + + + + + + + + + + + + + % % % % + % % + + + + + + + + + + + + + % % + + + + + + o + + + + + + + + + % % % o o o o o o % o o o o o o . . . . . . . . . . . . . . . .         .                                               ",
"                                                                .   . . . . . . . . . . . . . . . . . . . . . . o o o o o o o o o + o . o o + % O O o o o o % % + + + + + + @ + + + + o + O + + + + + + + + + + + + + + @ @ @ @ + + + + + + + + + + % + + + % $ + + + + + + + + + + + + + + + + + + + + o o + + + + + + + + + % @ @ @ @ + + + + % + + + + + + + % + % + + + + + % % % % % % % % + + + + + + + + + + + % + + o + + + + + + + + + + + + + % + % % + + + + + + o + + + + + + + + o % % % o o o o o o o o o o o . . . . . . . . . . . . . . . . . . .       . .                                             ",
"                                                                        . . . . . . . . . . . . . . . . . . . . . . . . o o . . . o o . o o % % O O % % o % % % o o O + O O + + o + + O O O O X + + + + + + + + + + + + + + + + + + + + + + % % + % o % + + + % + + + + + + + + + + + + + + + + o + + + o o o o + + + + o o o % + + + + + + + + + + + + + + o o o % % + + + + + + + + + + + + + + + + + + + + + + + % o + + % + + O + O + O + O O O + O + O + + % + % % + o o o o o o o o o o o % % o o o o o o o o . o . . . . . . . . . . . . . . . . . . . . . .     .                                               ",
"                                                                        . . . .     . . . . . . . . . . . . . . . . . . . . . . . . . . . o o o O O O O o o o o O O O O o O o O o O O O X X . . O O o o o o o o + + o o % % % % % o % o % o % o % o o + + o o o o o o o o o o o o o o o o o o o o o + o o o o + o o o o o o o o + + + + % o % o + o % + + + o o o O + O o O o o o O O O o O o o o o % o % o % o o o o o % o o o O O O O O O O O O O O O O O O O + + o o + o o o + O + O o O o O o o . . . . . . . . . . . . . . . . . . . . . . . . . . . . . . . .                                                     ",
"                                                                          . . . . .   . . . . . . . . . . . . . . . . . . . . . . . . . . . . . . . . o . . . . . . . . o . . . o . . . . . . . . . o o o o o o o o o o . . o o o o o o o o o o o o o o o o o o . . . o o o . . o o o o o . . o o o o o . o o o + + + + + + + + % o % o o + o o % % o o o o o o o . o . o . o . o . o . o . o + o o o o o o o o o o o o o o o o o o o o o o . . . o o o o o o o % % o o o . . . o . o . o . o . . . . . . . . . . . . . . . .   . . . . . . . .     .   .   .                                                           ",
"                                                                                                . . . .   . . .   .   . . .     . . . . . . . . . . . . . . . . . . . . . . . . . . . . . . . . X X . . . . . . . . . . . . . . . . . . . . . . . . . . . . . . . . . . . . . . . . . . . . . . . . o o . . . o . . . . o o . . o o . . . . . . o . o . . . . . . . . . . . . . . . . . . . . . X X X X . . . . . . . . . . . . . . . . . . . . . . . . . . . . . . . . . . . . . . . . . . . . . . . . . . . . . . . . . . .                                                                                           ",
"                                                                                . .       . . .                       . . . . . . . . . . . . . . . . . . . . . . . . . . . . . . . . . . . . . . . . . . . . . . . . . . . . . . . . . . . . . . . . . . . . . . . . . . . . . . . . . . . . . . . . . . . . . . . . . . . . . . . . . . . . . . . . . . . . . . . . . . . . . . . . . . . . . . . . . . . . . . . . . . . . . . . . . . . . . . . . . . . . . . . . . . . . . . . . . . . . . . . . . . . . . . . . . . . . .                   .                                                                     ",
"                                                                  . . .         . . . . . . . . . . . .         . . . . . . . . . . . . . . . . . . . . . . . . . . . . . . . . . . . . . . . . . . . . . . . . . . . . . . . . . . . . . . . . . . . . . . . . . . . . . . . . . . . o . % . . . . . . . . . . . . . . . . . . . . . . . . . . . . . . . . . . . . % + + % . . . % . . . . . . . . . . . . . . . . . . . . . . . . . . . . . . . . . . . . . . . . . . . . . . . . . . . . . . . . . . . . . . . . . . . . . . . . . . . . . .   .                                                                     ",
"                                                                                                . . . .             . . . . . . . . . . . . . . . . . . . . . . . . . . . . . . . . . . . . . . . . . . . . . . . . . . . . . . . . . . . . . . . . . . . . . . . . . . . . . . . . . . . . . . . . . . . . . . . . . . . . . . . . . . . . . . . . . . . . . . . . . . . . . . . . . . . . . . . . . . . . . . . . . . . . . . . . . . . . . . . . . . . . . . . . . . . . . . . . . . . . . . . . . . . . . .     . . . . . .                                                                                         ",
"                                                                                                . .                               . . . . . . . . . . . . . . . . . . . . . . . . . . . . . . . . . . . . . . . . . . . . . . . . . . . . . . . . . . . . . . . . . . . . . .   . . . . . . . . . .     . . . . . . . . . . . . . . . . . . . . . . . . . . . . . . . . . . . . . . . . . . . . . . . . . . . . . . . . . . . . . . . . . . . . . . . . . . . . . . . . . . . . . . . . . . . .                                                                                                                         ",
"                                                                                                                                                . . . .   .   .     . . . . . . . . . .   .   . . . . . . . . . . . . . . .     . . . .       . . . . . . . . .   . . .         . . . .   . . . . .     . . . . . . . . . .     . .     . . .   . . . .   . . .           . . . . . .         . . . . . .     . . . . . . . . . . . . . . .     . . . .       . . . . .       . . .                                                                                                                                     ",
"                                                                                                                                                                                  . .                         .                 . . . .                     . .       . .       . .             .       . .   .                                                                               .     . .                     . .                 . . . .           . . .         .                       . .                                                                                                             ",
"                                                                                                                                                                                                                                                                                                                                                                                                                                                                                                                                                                                                                        ",
"                                                                                                                                                                                                                                                                                                                                                                                                                                                                                                                                                                                                                        ",
"                                                                                                                                                                                                                                                                                                                                                                                                                                                                                                                                                                                                                        ",
"                                                                                                                                                                                                                                                                                                                                                                                                                                                                                                                                                                                                                        "
};
